(Start of Tape)

(Made in : UPC)
(G Code optimized for RS-CNC32 with GRBL V0.9j controller)

( PART NUMBER=1 )
( PART NAME=  )
( PROGRAMMER=  )
( OPERATION NUMBER=  )
( DATE=  )

G90 G17 G21 G80

(Init Tool Change)
(3MM CRB 2FL 15 LOC)
G0 Z2 
G54
S0 M3
(Rapid From Tool Change)
G0 G90 X52.5002 Y40.5
(Rapid Z Down)
Z2.45
(Feed Z Down)
G1 Z-2.05 F250.
(Line Move)
X52.5932 Y40.5615 Z-2.05 F1000.
(Line Move)
X52.5934 Y40.6925 Z-2.05
(Line Move)
X52.4846 Y40.8092 Z-2.05
(Line Move)
X52.3 Y40.8464 Z-2.05
(Line Move)
X52.0974 Y40.7726 Z-2.05
(Line Move)
X51.9385 Y40.5917 Z-2.05
(Line Move)
X51.8724 Y40.3358 Z-2.05
(Line Move)
X51.9266 Y40.0549 Z-2.05
(Line Move)
X52.103 Y39.8045 Z-2.05
(Line Move)
X52.3805 Y39.6345 Z-2.05
(Line Move)
X52.7197 Y39.5811 Z-2.05
(Line Move)
X53.0709 Y39.6617 Z-2.05
(Line Move)
X53.3821 Y39.8732 Z-2.05
(Line Move)
X53.6071 Y40.1939 Z-2.05
(Line Move)
X53.7107 Y40.5867 Z-2.05
(Line Move)
X53.6736 Y41.0053 Z-2.05
(Line Move)
X53.4938 Y41.3999 Z-2.05
(Line Move)
X53.1859 Y41.7233 Z-2.05
(Line Move)
X52.7794 Y41.9364 Z-2.05
(Line Move)
X52.3146 Y42.012 Z-2.05
(Line Move)
X51.8379 Y41.9372 Z-2.05
(Line Move)
X51.3972 Y41.7147 Z-2.05
(Line Move)
X51.0366 Y41.3617 Z-2.05
(Line Move)
X50.793 Y40.9079 Z-2.05
(Line Move)
X50.692 Y40.3924 Z-2.05
(Line Move)
X50.7465 Y39.8599 Z-2.05
(Line Move)
X50.9556 Y39.3566 Z-2.05
(Line Move)
X51.3052 Y38.9263 Z-2.05
(Line Move)
X51.7693 Y38.6065 Z-2.05
(Line Move)
X52.3127 Y38.4257 Z-2.05
(Line Move)
X52.8936 Y38.4012 Z-2.05
(Line Move)
X53.4675 Y38.538 Z-2.05
(Line Move)
X53.9904 Y38.8289 Z-2.05
(Line Move)
X54.4223 Y39.2549 Z-2.05
(Line Move)
X54.7299 Y39.7871 Z-2.05
(Line Move)
X54.8887 Y40.3891 Z-2.05
(Line Move)
X54.8852 Y41.0194 Z-2.05
(Line Move)
X54.717 Y41.6347 Z-2.05
(Line Move)
X54.393 Y42.1928 Z-2.05
(Line Move)
X53.9325 Y42.6555 Z-2.05
(Line Move)
X53.3641 Y42.9906 Z-2.05
(Line Move)
X52.7231 Y43.1748 Z-2.05
(Line Move)
X52.0494 Y43.1942 Z-2.05
(Line Move)
X51.3852 Y43.0453 Z-2.05
(Line Move)
X50.7715 Y42.7353 Z-2.05
(Line Move)
X50.2467 Y42.281 Z-2.05
(Line Move)
X49.8434 Y41.7081 Z-2.05
(Line Move)
X49.587 Y41.0491 Z-2.05
(Line Move)
X49.4943 Y40.3418 Z-2.05
(Line Move)
X49.5723 Y39.6264 Z-2.05
(Line Move)
X49.8187 Y38.9436 Z-2.05
(Line Move)
X50.2212 Y38.3324 Z-2.05
(Line Move)
X50.7591 Y37.8273 Z-2.05
(Line Move)
X51.4043 Y37.4573 Z-2.05
(Line Move)
X52.1229 Y37.2438 Z-2.05
(Line Move)
X52.877 Y37.1997 Z-2.05
(Line Move)
X53.627 Y37.329 Z-2.05
(Line Move)
X54.3335 Y37.6266 Z-2.05
(Line Move)
X54.9597 Y38.0786 Z-2.05
(Line Move)
X55.4727 Y38.6631 Z-2.05
(Line Move)
X55.8455 Y39.3518 Z-2.05
(Line Move)
X56.0582 Y40.111 Z-2.05
(Line Move)
X56.0989 Y40.9038 Z-2.05
(Line Move)
X55.9643 Y41.6913 Z-2.05
(Line Move)
X55.6594 Y42.4355 Z-2.05
(Line Move)
X55.1975 Y43.1001 Z-2.05
(Line Move)
X54.5995 Y43.6528 Z-2.05
(Line Move)
X53.8924 Y44.0668 Z-2.05
(Line Move)
X53.1085 Y44.3217 Z-2.05
(Line Move)
X52.2833 Y44.4046 Z-2.05
(Line Move)
X51.4546 Y44.3103 Z-2.05
(Line Move)
X50.6597 Y44.0419 Z-2.05
(Line Move)
X49.9348 Y43.6103 Z-2.05
(Line Move)
X49.3126 Y43.0335 Z-2.05
(Line Move)
X48.8213 Y42.336 Z-2.05
(Line Move)
X48.4833 Y41.5477 Z-2.05
(Line Move)
X48.3143 Y40.7021 Z-2.05
(Line Move)
X48.3226 Y39.8353 Z-2.05
(Line Move)
X48.509 Y38.9841 Z-2.05
(Line Move)
X48.8668 Y38.1847 Z-2.05
(Line Move)
X49.382 Y37.4709 Z-2.05
(Line Move)
X50.0341 Y36.873 Z-2.05
(Line Move)
X50.7969 Y36.4165 Z-2.05
(Line Move)
X51.6399 Y36.1208 Z-2.05
(Line Move)
X52.5292 Y35.9989 Z-2.05
(Line Move)
X53.4291 Y36.0567 Z-2.05
(Line Move)
X54.3039 Y36.293 Z-2.05
(Line Move)
X55.1184 Y36.6993 Z-2.05
(Line Move)
X55.8402 Y37.2606 Z-2.05
(Line Move)
X56.4406 Y37.9557 Z-2.05
(Line Move)
X56.8956 Y38.7582 Z-2.05
(Line Move)
X57.1868 Y39.6379 Z-2.05
(Line Move)
X57.3022 Y40.5613 Z-2.05
(Line Move)
X57.2366 Y41.4936 Z-2.05
(Line Move)
X56.9914 Y42.3996 Z-2.05
(Line Move)
X56.575 Y43.2451 Z-2.05
(Line Move)
X56.002 Y43.9984 Z-2.05
(Line Move)
X55.293 Y44.631 Z-2.05
(Line Move)
X54.4732 Y45.1191 Z-2.05
(Line Move)
X53.5722 Y45.4443 Z-2.05
(Line Move)
X52.6222 Y45.594 Z-2.05
(Line Move)
X51.6573 Y45.5618 Z-2.05
(Line Move)
X50.712 Y45.3482 Z-2.05
(Line Move)
X49.8199 Y44.9599 Z-2.05
(Line Move)
X49.0129 Y44.4099 Z-2.05
(Line Move)
X48.3198 Y43.7168 Z-2.05
(Line Move)
X47.7653 Y42.9041 Z-2.05
(Line Move)
X47.3691 Y41.9995 Z-2.05
(Line Move)
X47.1457 Y41.034 Z-2.05
(Line Move)
X47.1035 Y40.0402 Z-2.05
(Line Move)
X47.2446 Y39.0521 Z-2.05
(Line Move)
X47.5651 Y38.103 Z-2.05
(Line Move)
X48.0549 Y37.2252 Z-2.05
(Line Move)
X48.6983 Y36.4484 Z-2.05
(Line Move)
X49.4744 Y35.7987 Z-2.05
(Line Move)
X50.3582 Y35.2984 Z-2.05
(Line Move)
X51.3208 Y34.9643 Z-2.05
(Line Move)
X52.3312 Y34.8082 Z-2.05
(Line Move)
X53.3566 Y34.8357 Z-2.05
(Line Move)
X54.3638 Y35.0468 Z-2.05
(Line Move)
X55.3204 Y35.4352 Z-2.05
(Line Move)
X56.1955 Y35.9893 Z-2.05
(Line Move)
X56.9609 Y36.692 Z-2.05
(Line Move)
X57.5919 Y37.5216 Z-2.05
(Line Move)
X58.0683 Y38.4523 Z-2.05
(Line Move)
X58.3744 Y39.4555 Z-2.05
(Line Move)
X57.3002 Y40.5 Z-2.05
(Line Move)
X58.441 Y41.5535 Z-2.05
(Line Move)
X58.1981 Y42.5837 Z-2.05
(Line Move)
X57.7782 Y43.5588 Z-2.05
(Line Move)
X57.1936 Y44.4487 Z-2.05
(Line Move)
X56.4616 Y45.2261 Z-2.05
(Line Move)
X55.6036 Y45.8672 Z-2.05
(Line Move)
X54.6452 Y46.3522 Z-2.05
(Line Move)
X53.6147 Y46.6659 Z-2.05
(Line Move)
X52.5426 Y46.7986 Z-2.05
(Line Move)
X51.4606 Y46.7456 Z-2.05
(Line Move)
X50.4006 Y46.5079 Z-2.05
(Line Move)
X49.3937 Y46.0919 Z-2.05
(Line Move)
X48.4697 Y45.5093 Z-2.05
(Line Move)
X47.6557 Y44.7763 Z-2.05
(Line Move)
X46.9756 Y43.9139 Z-2.05
(Line Move)
X46.4494 Y42.9464 Z-2.05
(Line Move)
X46.0927 Y41.9013 Z-2.05
(Line Move)
X45.9163 Y40.8082 Z-2.05
(Line Move)
X45.9257 Y39.6981 Z-2.05
(Line Move)
X46.1212 Y38.6024 Z-2.05
(Line Move)
X46.4979 Y37.5519 Z-2.05
(Line Move)
X47.0456 Y36.5764 Z-2.05
(Line Move)
X47.7498 Y35.7033 Z-2.05
(Line Move)
X48.5911 Y34.9571 Z-2.05
(Line Move)
X49.5467 Y34.3589 Z-2.05
(Line Move)
X50.5905 Y33.9257 Z-2.05
(Line Move)
X51.6943 Y33.6698 Z-2.05
(Line Move)
X52.8279 Y33.5987 Z-2.05
(Line Move)
X53.9605 Y33.7149 Z-2.05
(Line Move)
X55.0615 Y34.0157 Z-2.05
(Line Move)
X56.1011 Y34.4936 Z-2.05
(Line Move)
X57.0511 Y35.1361 Z-2.05
(Line Move)
X57.8859 Y35.9266 Z-2.05
(Line Move)
X58.5828 Y36.8443 Z-2.05
(Line Move)
X59.123 Y37.8653 Z-2.05
(Line Move)
X59.4918 Y38.9627 Z-2.05
(Line Move)
X59.679 Y40.108 Z-2.05
(Line Move)
X59.6793 Y41.2712 Z-2.05
(Line Move)
X59.4921 Y42.4218 Z-2.05
(Line Move)
X59.1218 Y43.5301 Z-2.05
(Line Move)
X58.5775 Y44.5671 Z-2.05
(Line Move)
X57.8728 Y45.5058 Z-2.05
(Line Move)
X57.0255 Y46.3219 Z-2.05
(Line Move)
X56.0569 Y46.9941 Z-2.05
(Line Move)
X54.9914 Y47.5049 Z-2.05
(Line Move)
X53.8559 Y47.841 Z-2.05
(Line Move)
X52.679 Y47.9933 Z-2.05
(Line Move)
X51.4901 Y47.9576 Z-2.05
(Line Move)
X50.3193 Y47.7343 Z-2.05
(Line Move)
X49.1959 Y47.3286 Z-2.05
(Line Move)
X48.1479 Y46.7501 Z-2.05
(Line Move)
X47.2017 Y46.0128 Z-2.05
(Line Move)
X46.3809 Y45.1346 Z-2.05
(Line Move)
X45.7061 Y44.1367 Z-2.05
(Line Move)
X45.1942 Y43.0435 Z-2.05
(Line Move)
X44.8582 Y41.8816 Z-2.05
(Line Move)
X44.7066 Y40.679 Z-2.05
(Line Move)
X44.7436 Y39.465 Z-2.05
(Line Move)
X44.9686 Y38.269 Z-2.05
(Line Move)
X45.3768 Y37.1199 Z-2.05
(Line Move)
X45.9587 Y36.0454 Z-2.05
(Line Move)
X46.7007 Y35.0715 Z-2.05
(Line Move)
X47.5855 Y34.2217 Z-2.05
(Line Move)
X48.5922 Y33.5165 Z-2.05
(Line Move)
X49.6974 Y32.9729 Z-2.05
(Line Move)
X50.8751 Y32.6043 Z-2.05
(Line Move)
X52.0976 Y32.4195 Z-2.05
(Line Move)
X53.3364 Y32.4235 Z-2.05
(Line Move)
X54.5625 Y32.6164 Z-2.05
(Line Move)
X55.7472 Y32.9943 Z-2.05
(Line Move)
X56.863 Y33.5487 Z-2.05
(Line Move)
X57.8838 Y34.2671 Z-2.05
(Line Move)
X58.7858 Y35.1333 Z-2.05
(Line Move)
X59.5481 Y36.1277 Z-2.05
(Line Move)
X60.1527 Y37.2278 Z-2.05
(Line Move)
X60.5857 Y38.4085 Z-2.05
(Line Move)
X60.8367 Y39.6431 Z-2.05
(Line Move)
X60.8996 Y40.9037 Z-2.05
(Line Move)
X60.7728 Y42.1618 Z-2.05
(Line Move)
X60.4585 Y43.389 Z-2.05
(Line Move)
X59.9636 Y44.5576 Z-2.05
(Line Move)
X59.2987 Y45.6412 Z-2.05
(Line Move)
X58.4784 Y46.6155 Z-2.05
(Line Move)
X57.5207 Y47.4585 Z-2.05
(Line Move)
X56.4466 Y48.1512 Z-2.05
(Line Move)
X55.2796 Y48.678 Z-2.05
(Line Move)
X54.0454 Y49.0269 Z-2.05
(Line Move)
X52.771 Y49.1898 Z-2.05
(Line Move)
X51.4842 Y49.1629 Z-2.05
(Line Move)
X50.2133 Y48.9464 Z-2.05
(Line Move)
X48.9859 Y48.5446 Z-2.05
(Line Move)
X47.8289 Y47.9658 Z-2.05
(Line Move)
X46.7675 Y47.2224 Z-2.05
(Line Move)
X45.8248 Y46.3301 Z-2.05
(Line Move)
X45.0213 Y45.3078 Z-2.05
(Line Move)
X44.3747 Y44.1773 Z-2.05
(Line Move)
X43.899 Y42.9625 Z-2.05
(Line Move)
X43.6047 Y41.6894 Z-2.05
(Line Move)
X43.4985 Y40.3848 Z-2.05
(Line Move)
X43.5828 Y39.0765 Z-2.05
(Line Move)
X43.8564 Y37.7922 Z-2.05
(Line Move)
X44.3137 Y36.5589 Z-2.05
(Line Move)
X44.9455 Y35.4029 Z-2.05
(Line Move)
X45.7388 Y34.3484 Z-2.05
(Line Move)
X46.6773 Y33.4178 Z-2.05
(Line Move)
X47.7417 Y32.6307 Z-2.05
(Line Move)
X48.9099 Y32.0038 Z-2.05
(Line Move)
X50.158 Y31.5503 Z-2.05
(Line Move)
X51.4603 Y31.2799 Z-2.05
(Line Move)
X52.79 Y31.1986 Z-2.05
(Line Move)
X54.1197 Y31.3083 Z-2.05
(Line Move)
X55.4221 Y31.6071 Z-2.05
(Line Move)
X56.6706 Y32.0893 Z-2.05
(Line Move)
X57.8395 Y32.7452 Z-2.05
(Line Move)
X58.905 Y33.5619 Z-2.05
(Line Move)
X59.8451 Y34.5231 Z-2.05
(Line Move)
X60.6408 Y35.6094 Z-2.05
(Line Move)
X61.2755 Y36.7993 Z-2.05
(Line Move)
X61.7364 Y38.0688 Z-2.05
(Line Move)
X62.0138 Y39.3927 Z-2.05
(Line Move)
X62.1019 Y40.7445 Z-2.05
(Line Move)
X61.9986 Y42.0972 Z-2.05
(Line Move)
X61.7057 Y43.4239 Z-2.05
(Line Move)
X61.2286 Y44.6982 Z-2.05
(Line Move)
X60.5766 Y45.8948 Z-2.05
(Line Move)
X59.7621 Y46.9898 Z-2.05
(Line Move)
X58.8011 Y47.9615 Z-2.05
(Line Move)
X57.7122 Y48.7906 Z-2.05
(Line Move)
X56.5165 Y49.4606 Z-2.05
(Line Move)
X55.2373 Y49.9581 Z-2.05
(Line Move)
X53.8994 Y50.2732 Z-2.05
(Line Move)
X52.5287 Y50.3994 Z-2.05
(Line Move)
X51.1518 Y50.334 Z-2.05
(Line Move)
X49.7954 Y50.078 Z-2.05
(Line Move)
X48.4856 Y49.6359 Z-2.05
(Line Move)
X47.2478 Y49.0161 Z-2.05
(Line Move)
X46.106 Y48.2302 Z-2.05
(Line Move)
X45.0821 Y47.2929 Z-2.05
(Line Move)
X44.1958 Y46.222 Z-2.05
(Line Move)
X43.4644 Y45.0376 Z-2.05
(Line Move)
X42.902 Y43.7623 Z-2.05
(Line Move)
X42.5194 Y42.4199 Z-2.05
(Line Move)
X42.3243 Y41.0359 Z-2.05
(Line Move)
X42.3206 Y39.6363 Z-2.05
(Line Move)
X42.5086 Y38.2475 Z-2.05
(Line Move)
X42.8851 Y36.8956 Z-2.05
(Line Move)
X43.4433 Y35.6059 Z-2.05
(Line Move)
X44.173 Y34.4028 Z-2.05
(Line Move)
X45.061 Y33.3088 Z-2.05
(Line Move)
X46.0908 Y32.3444 Z-2.05
(Line Move)
X47.2435 Y31.5277 Z-2.05
(Line Move)
X48.4981 Y30.8741 Z-2.05
(Line Move)
X49.8314 Y30.3958 Z-2.05
(Line Move)
X51.2189 Y30.1021 Z-2.05
(Line Move)
X52.6353 Y29.9984 Z-2.05
(Line Move)
X54.0545 Y30.0871 Z-2.05
(Line Move)
X55.4507 Y30.3667 Z-2.05
(Line Move)
X56.7981 Y30.8324 Z-2.05
(Line Move)
X58.0723 Y31.4761 Z-2.05
(Line Move)
X59.2499 Y32.2861 Z-2.05
(Line Move)
X60.3094 Y33.2482 Z-2.05
(Line Move)
X61.2315 Y34.345 Z-2.05
(Line Move)
X61.9994 Y35.557 Z-2.05
(Line Move)
X62.599 Y36.8625 Z-2.05
(Line Move)
X63.0193 Y38.2381 Z-2.05
(Line Move)
X63.2524 Y39.6593 Z-2.05
(Line Move)
X63.2941 Y41.1006 Z-2.05
(Line Move)
X63.1432 Y42.5365 Z-2.05
(Line Move)
X62.8022 Y43.9413 Z-2.05
(Line Move)
X62.2769 Y45.2899 Z-2.05
(Line Move)
X61.5763 Y46.5584 Z-2.05
(Line Move)
X60.7127 Y47.7242 Z-2.05
(Line Move)
X59.701 Y48.7667 Z-2.05
(Line Move)
X58.5589 Y49.6672 Z-2.05
(Line Move)
X57.3063 Y50.4098 Z-2.05
(Line Move)
X55.965 Y50.9812 Z-2.05
(Line Move)
X54.5584 Y51.3711 Z-2.05
(Line Move)
X53.1109 Y51.5726 Z-2.05
(Line Move)
X51.6478 Y51.5819 Z-2.05
(Line Move)
X50.1944 Y51.3986 Z-2.05
(Line Move)
X48.776 Y51.0255 Z-2.05
(Line Move)
X47.4171 Y50.469 Z-2.05
(Line Move)
X46.1415 Y49.7383 Z-2.05
(Line Move)
X44.971 Y48.8459 Z-2.05
(Line Move)
X43.9261 Y47.8069 Z-2.05
(Line Move)
X43.0248 Y46.6389 Z-2.05
(Line Move)
X42.2828 Y45.3619 Z-2.05
(Line Move)
X41.7128 Y43.9974 Z-2.05
(Line Move)
X41.325 Y42.5687 Z-2.05
(Line Move)
X41.126 Y41.1 Z-2.05
(Line Move)
X41.1196 Y39.6162 Z-2.05
(Line Move)
X41.3061 Y38.1425 Z-2.05
(Line Move)
X41.6825 Y36.7037 Z-2.05
(Line Move)
X42.2428 Y35.3242 Z-2.05
(Line Move)
X42.9777 Y34.0274 Z-2.05
(Line Move)
X43.875 Y32.8351 Z-2.05
(Line Move)
X44.9201 Y31.7675 Z-2.05
(Line Move)
X46.0954 Y30.8426 Z-2.05
(Line Move)
X47.3816 Y30.0761 Z-2.05
(Line Move)
X48.7573 Y29.4809 Z-2.05
(Line Move)
X50.1997 Y29.0671 Z-2.05
(Line Move)
X51.685 Y28.8418 Z-2.05
(Line Move)
X53.1885 Y28.809 Z-2.05
(Line Move)
X54.6855 Y28.9695 Z-2.05
(Line Move)
X56.1512 Y29.3208 Z-2.05
(Line Move)
X57.5615 Y29.8574 Z-2.05
(Line Move)
X58.8929 Y30.5707 Z-2.05
(Line Move)
X60.1237 Y31.4492 Z-2.05
(Line Move)
X61.2336 Y32.4787 Z-2.05
(Line Move)
X62.2042 Y33.6425 Z-2.05
(Line Move)
X63.0195 Y34.9218 Z-2.05
(Line Move)
X63.6662 Y36.2959 Z-2.05
(Line Move)
X64.1334 Y37.7426 Z-2.05
(Line Move)
X64.4134 Y39.2385 Z-2.05
(Line Move)
X64.5015 Y40.7595 Z-2.05
(Line Move)
X64.396 Y42.281 Z-2.05
(Line Move)
X64.0983 Y43.7785 Z-2.05
(Line Move)
X63.6131 Y45.2278 Z-2.05
(Line Move)
X62.948 Y46.6056 Z-2.05
(Line Move)
X62.1133 Y47.8897 Z-2.05
(Line Move)
X61.1223 Y49.0595 Z-2.05
(Line Move)
X59.9905 Y50.0962 Z-2.05
(Line Move)
X58.736 Y50.983 Z-2.05
(Line Move)
X57.3785 Y51.7058 Z-2.05
(Line Move)
X55.9394 Y52.2527 Z-2.05
(Line Move)
X54.4415 Y52.6151 Z-2.05
(Line Move)
X52.9084 Y52.7869 Z-2.05
(Line Move)
X51.3644 Y52.7652 Z-2.05
(Line Move)
X49.8336 Y52.5501 Z-2.05
(Line Move)
X48.3402 Y52.1448 Z-2.05
(Line Move)
X46.9077 Y51.5555 Z-2.05
(Line Move)
X45.5587 Y50.7911 Z-2.05
(Line Move)
X44.3143 Y49.8635 Z-2.05
(Line Move)
X43.1941 Y48.787 Z-2.05
(Line Move)
X42.2157 Y47.5782 Z-2.05
(Line Move)
X41.3944 Y46.2557 Z-2.05
(Line Move)
X40.7432 Y44.84 Z-2.05
(Line Move)
X40.2724 Y43.353 Z-2.05
(Line Move)
X39.9894 Y41.8175 Z-2.05
(Line Move)
X39.8988 Y40.2572 Z-2.05
(Line Move)
X40.0023 Y38.6962 Z-2.05
(Line Move)
X40.2984 Y37.1584 Z-2.05
(Line Move)
X40.7828 Y35.6676 Z-2.05
(Line Move)
X41.4483 Y34.2467 Z-2.05
(Line Move)
X42.2848 Y32.9175 Z-2.05
(Line Move)
X43.2798 Y31.7003 Z-2.05
(Line Move)
X44.4183 Y30.614 Z-2.05
(Line Move)
X45.683 Y29.6751 Z-2.05
(Line Move)
X47.0549 Y28.8981 Z-2.05
(Line Move)
X48.5132 Y28.295 Z-2.05
(Line Move)
X50.036 Y27.875 Z-2.05
(Line Move)
X51.6003 Y27.6448 Z-2.05
(Line Move)
X53.1825 Y27.6079 Z-2.05
(Line Move)
X54.7589 Y27.7652 Z-2.05
(Line Move)
X56.3056 Y28.1145 Z-2.05
(Line Move)
X57.7994 Y28.6507 Z-2.05
(Line Move)
X59.2179 Y29.3659 Z-2.05
(Line Move)
X60.5398 Y30.2498 Z-2.05
(Line Move)
X61.7452 Y31.2891 Z-2.05
(Line Move)
X62.8161 Y32.4687 Z-2.05
(Line Move)
X63.7363 Y33.7709 Z-2.05
(Line Move)
X64.492 Y35.1768 Z-2.05
(Line Move)
X65.0718 Y36.6654 Z-2.05
(Line Move)
X65.467 Y38.2148 Z-2.05
(Line Move)
X65.6716 Y39.8021 Z-2.05
(Line Move)
X65.6823 Y41.404 Z-2.05
(Line Move)
X65.4988 Y42.9969 Z-2.05
(Line Move)
X65.1235 Y44.5573 Z-2.05
(Line Move)
X64.5619 Y46.0623 Z-2.05
(Line Move)
X63.822 Y47.4897 Z-2.05
(Line Move)
X62.9144 Y48.8186 Z-2.05
(Line Move)
X61.8522 Y50.0294 Z-2.05
(Line Move)
X60.6508 Y51.1044 Z-2.05
(Line Move)
X59.3275 Y52.0278 Z-2.05
(Line Move)
X57.9015 Y52.786 Z-2.05
(Line Move)
X56.3933 Y53.3678 Z-2.05
(Line Move)
X54.8248 Y53.7647 Z-2.05
(Line Move)
X53.2186 Y53.9707 Z-2.05
(Line Move)
X51.5978 Y53.9826 Z-2.05
(Line Move)
X49.9859 Y53.8001 Z-2.05
(Line Move)
X48.406 Y53.4257 Z-2.05
(Line Move)
X46.8808 Y52.8644 Z-2.05
(Line Move)
X45.4325 Y52.1243 Z-2.05
(Line Move)
X44.0816 Y51.2158 Z-2.05
(Line Move)
X42.8478 Y50.1516 Z-2.05
(Line Move)
X41.7486 Y48.9469 Z-2.05
(Line Move)
X40.8 Y47.6187 Z-2.05
(Line Move)
X40.0155 Y46.1857 Z-2.05
(Line Move)
X39.4065 Y44.6683 Z-2.05
(Line Move)
X38.9818 Y43.088 Z-2.05
(Line Move)
X38.7475 Y41.467 Z-2.05
(Line Move)
X38.7072 Y39.8282 Z-2.05
(Line Move)
X38.8616 Y38.1948 Z-2.05
(Line Move)
X39.2087 Y36.5899 Z-2.05
(Line Move)
X39.7438 Y35.036 Z-2.05
(Line Move)
X40.4596 Y33.555 Z-2.05
(Line Move)
X41.3461 Y32.1679 Z-2.05
(Line Move)
X42.3912 Y30.894 Z-2.05
(Line Move)
X43.5802 Y29.7515 Z-2.05
(Line Move)
X44.8968 Y28.7562 Z-2.05
(Line Move)
X46.3226 Y27.9224 Z-2.05
(Line Move)
X47.838 Y27.2616 Z-2.05
(Line Move)
X49.422 Y26.7833 Z-2.05
(Line Move)
X51.0525 Y26.4943 Z-2.05
(Line Move)
X52.707 Y26.3987 Z-2.05
(Line Move)
X54.3628 Y26.4981 Z-2.05
(Line Move)
X55.9967 Y26.7912 Z-2.05
(Line Move)
X57.5864 Y27.2742 Z-2.05
(Line Move)
X59.1098 Y27.9405 Z-2.05
(Line Move)
X60.546 Y28.7813 Z-2.05
(Line Move)
X61.8751 Y29.785 Z-2.05
(Line Move)
X63.0788 Y30.9381 Z-2.05
(Line Move)
X64.1405 Y32.2249 Z-2.05
(Line Move)
X65.0456 Y33.6279 Z-2.05
(Line Move)
X65.7815 Y35.1281 Z-2.05
(Line Move)
X66.3381 Y36.705 Z-2.05
(Line Move)
X66.7077 Y38.3374 Z-2.05
(Line Move)
X66.885 Y40.003 Z-2.05
(Line Move)
X66.8675 Y41.6792 Z-2.05
(Line Move)
X66.6553 Y43.3434 Z-2.05
(Line Move)
X66.251 Y44.9731 Z-2.05
(Line Move)
X65.66 Y46.5461 Z-2.05
(Line Move)
X64.89 Y48.0412 Z-2.05
(Line Move)
X63.9514 Y49.4382 Z-2.05
(Line Move)
X62.8565 Y50.7182 Z-2.05
(Line Move)
X61.62 Y51.8639 Z-2.05
(Line Move)
X60.2583 Y52.8598 Z-2.05
(Line Move)
X58.7895 Y53.6925 Z-2.05
(Line Move)
X57.2333 Y54.3507 Z-2.05
(Line Move)
X55.6103 Y54.8254 Z-2.05
(Line Move)
X53.9421 Y55.1102 Z-2.05
(Line Move)
X52.2509 Y55.2011 Z-2.05
(Line Move)
X50.5591 Y55.0968 Z-2.05
(Line Move)
X48.8893 Y54.7983 Z-2.05
(Line Move)
X47.2635 Y54.3097 Z-2.05
(Line Move)
X45.7034 Y53.6371 Z-2.05
(Line Move)
X44.2296 Y52.7893 Z-2.05
(Line Move)
X42.8617 Y51.7774 Z-2.05
(Line Move)
X41.6177 Y50.6145 Z-2.05
(Line Move)
X40.5143 Y49.3158 Z-2.05
(Line Move)
X39.5659 Y47.8984 Z-2.05
(Line Move)
X38.7851 Y46.3807 Z-2.05
(Line Move)
X38.1824 Y44.7825 Z-2.05
(Line Move)
X37.7658 Y43.1247 Z-2.05
(Line Move)
X37.5408 Y41.429 Z-2.05
(Line Move)
X37.5106 Y39.7173 Z-2.05
(Line Move)
X37.6757 Y38.012 Z-2.05
(Line Move)
X38.0342 Y36.3354 Z-2.05
(Line Move)
X38.5814 Y34.7092 Z-2.05
(Line Move)
X39.3105 Y33.1546 Z-2.05
(Line Move)
X40.2122 Y31.6918 Z-2.05
(Line Move)
X41.2749 Y30.3399 Z-2.05
(Line Move)
X42.485 Y29.1163 Z-2.05
(Line Move)
X43.8271 Y28.0369 Z-2.05
(Line Move)
X45.2838 Y27.1159 Z-2.05
(Line Move)
X46.8366 Y26.3652 Z-2.05
(Line Move)
X48.4656 Y25.7946 Z-2.05
(Line Move)
X50.1499 Y25.4115 Z-2.05
(Line Move)
X51.8679 Y25.221 Z-2.05
(Line Move)
X53.5978 Y25.2257 Z-2.05
(Line Move)
X55.3173 Y25.4257 Z-2.05
(Line Move)
X57.0045 Y25.8186 Z-2.05
(Line Move)
X58.6379 Y26.3995 Z-2.05
(Line Move)
X60.1966 Y27.1612 Z-2.05
(Line Move)
X61.6608 Y28.0942 Z-2.05
(Line Move)
X63.0118 Y29.1866 Z-2.05
(Line Move)
X64.2323 Y30.4249 Z-2.05
(Line Move)
X65.3068 Y31.7934 Z-2.05
(Line Move)
X66.2216 Y33.2748 Z-2.05
(Line Move)
X66.965 Y34.8507 Z-2.05
(Line Move)
X67.5275 Y36.5011 Z-2.05
(Line Move)
X67.9019 Y38.2054 Z-2.05
(Line Move)
X68.0833 Y39.9421 Z-2.05
(Line Move)
X68.0694 Y41.6894 Z-2.05
(Line Move)
X67.86 Y43.4255 Z-2.05
(Line Move)
X67.4577 Y45.1285 Z-2.05
(Line Move)
X66.8674 Y46.7771 Z-2.05
(Line Move)
X66.0964 Y48.3507 Z-2.05
(Line Move)
X65.154 Y49.8295 Z-2.05
(Line Move)
X64.052 Y51.1952 Z-2.05
(Line Move)
X62.8039 Y52.4304 Z-2.05
(Line Move)
X61.4251 Y53.5199 Z-2.05
(Line Move)
X59.9327 Y54.45 Z-2.05
(Line Move)
X58.3451 Y55.209 Z-2.05
(Line Move)
X56.6818 Y55.7874 Z-2.05
(Line Move)
X54.9635 Y56.1779 Z-2.05
(Line Move)
X53.2112 Y56.3755 Z-2.05
(Line Move)
X51.4466 Y56.3777 Z-2.05
(Line Move)
X49.6914 Y56.1843 Z-2.05
(Line Move)
X47.9672 Y55.7975 Z-2.05
(Line Move)
X46.2952 Y55.222 Z-2.05
(Line Move)
X44.696 Y54.4646 Z-2.05
(Line Move)
X43.1893 Y53.5345 Z-2.05
(Line Move)
X41.7935 Y52.443 Z-2.05
(Line Move)
X40.5258 Y51.2033 Z-2.05
(Line Move)
X39.4018 Y49.8304 Z-2.05
(Line Move)
X38.4353 Y48.341 Z-2.05
(Line Move)
X37.6381 Y46.7532 Z-2.05
(Line Move)
X37.0202 Y45.0861 Z-2.05
(Line Move)
X36.5891 Y43.36 Z-2.05
(Line Move)
X36.3502 Y41.5957 Z-2.05
(Line Move)
X36.3066 Y39.8148 Z-2.05
(Line Move)
X36.4588 Y38.0386 Z-2.05
(Line Move)
X36.8053 Y36.2886 Z-2.05
(Line Move)
X37.3419 Y34.5861 Z-2.05
(Line Move)
X38.0624 Y32.9515 Z-2.05
(Line Move)
X38.9581 Y31.4047 Z-2.05
(Line Move)
X40.0185 Y29.9642 Z-2.05
(Line Move)
X41.2308 Y28.6475 Z-2.05
(Line Move)
X42.5808 Y27.4704 Z-2.05
(Line Move)
X44.0522 Y26.4472 Z-2.05
(Line Move)
X45.6276 Y25.5902 Z-2.05
(Line Move)
X47.2882 Y24.9098 Z-2.05
(Line Move)
X49.0142 Y24.4141 Z-2.05
(Line Move)
X50.7851 Y24.1094 Z-2.05
(Line Move)
X52.5798 Y23.9993 Z-2.05
(Line Move)
X54.3771 Y24.0852 Z-2.05
(Line Move)
X56.1555 Y24.3663 Z-2.05
(Line Move)
X57.8939 Y24.8395 Z-2.05
(Line Move)
X59.5717 Y25.4991 Z-2.05
(Line Move)
X61.1689 Y26.3376 Z-2.05
(Line Move)
X62.6668 Y27.3451 Z-2.05
(Line Move)
X64.0474 Y28.5098 Z-2.05
(Line Move)
X65.2944 Y29.8182 Z-2.05
(Line Move)
X66.3931 Y31.2549 Z-2.05
(Line Move)
X67.3303 Y32.8031 Z-2.05
(Line Move)
X68.0951 Y34.4447 Z-2.05
(Line Move)
X68.6782 Y36.1604 Z-2.05
(Line Move)
X69.0727 Y37.9302 Z-2.05
(Line Move)
X69.2739 Y39.7335 Z-2.05
(Line Move)
X69.2793 Y41.549 Z-2.05
(Line Move)
X69.0887 Y43.3558 Z-2.05
(Line Move)
X68.7042 Y45.1325 Z-2.05
(Line Move)
X68.1301 Y46.8586 Z-2.05
(Line Move)
X67.3729 Y48.5138 Z-2.05
(Line Move)
X66.4415 Y50.0789 Z-2.05
(Line Move)
X65.3464 Y51.5357 Z-2.05
(Line Move)
X64.1003 Y52.8672 Z-2.05
(Line Move)
X62.7174 Y54.0578 Z-2.05
(Line Move)
X61.2138 Y55.0937 Z-2.05
(Line Move)
X59.6067 Y55.9628 Z-2.05
(Line Move)
X57.9147 Y56.655 Z-2.05
(Line Move)
X56.157 Y57.1622 Z-2.05
(Line Move)
X54.3541 Y57.4783 Z-2.05
(Line Move)
X52.5265 Y57.5997 Z-2.05
(Line Move)
X50.6953 Y57.5248 Z-2.05
(Line Move)
X48.8815 Y57.2543 Z-2.05
(Line Move)
X47.1059 Y56.7912 Z-2.05
(Line Move)
X45.3889 Y56.1408 Z-2.05
(Line Move)
X43.7501 Y55.3102 Z-2.05
(Line Move)
X42.2083 Y54.3089 Z-2.05
(Line Move)
X40.7812 Y53.1482 Z-2.05
(Line Move)
X39.4852 Y51.8413 Z-2.05
(Line Move)
X38.335 Y50.4028 Z-2.05
(Line Move)
X37.3438 Y48.8492 Z-2.05
(Line Move)
X36.5231 Y47.1979 Z-2.05
(Line Move)
X35.8823 Y45.4677 Z-2.05
(Line Move)
X35.4286 Y43.678 Z-2.05
(Line Move)
X35.1674 Y41.8492 Z-2.05
(Line Move)
X35.1018 Y40.002 Z-2.05
(Line Move)
X35.2326 Y38.157 Z-2.05
(Line Move)
X35.5585 Y36.3352 Z-2.05
(Line Move)
X36.0759 Y34.5572 Z-2.05
(Line Move)
X36.7792 Y32.8429 Z-2.05
(Line Move)
X37.6604 Y31.2118 Z-2.05
(Line Move)
X38.71 Y29.6821 Z-2.05
(Line Move)
X39.9161 Y28.2711 Z-2.05
(Line Move)
X41.2653 Y26.9947 Z-2.05
(Line Move)
X42.7427 Y25.8672 Z-2.05
(Line Move)
X44.3318 Y24.9015 Z-2.05
(Line Move)
X46.0149 Y24.1083 Z-2.05
(Line Move)
X47.7733 Y23.4966 Z-2.05
(Line Move)
X49.5874 Y23.0734 Z-2.05
(Line Move)
X51.4371 Y22.8435 Z-2.05
(Line Move)
X53.3018 Y22.8095 Z-2.05
(Line Move)
X55.1608 Y22.972 Z-2.05
(Line Move)
X56.9935 Y23.3293 Z-2.05
(Line Move)
X58.7796 Y23.8776 Z-2.05
(Line Move)
X60.4992 Y24.6108 Z-2.05
(Line Move)
X62.1333 Y25.521 Z-2.05
(Line Move)
X63.6637 Y26.5983 Z-2.05
(Line Move)
X65.0736 Y27.8309 Z-2.05
(Line Move)
X66.3472 Y29.2052 Z-2.05
(Line Move)
X67.4705 Y30.7063 Z-2.05
(Line Move)
X68.4311 Y32.3176 Z-2.05
(Line Move)
X69.2182 Y34.0216 Z-2.05
(Line Move)
X69.8232 Y35.7996 Z-2.05
(Line Move)
X70.2392 Y37.6321 Z-2.05
(Line Move)
X70.4617 Y39.4991 Z-2.05
(Line Move)
X70.488 Y41.3803 Z-2.05
(Line Move)
X70.3177 Y43.255 Z-2.05
(Line Move)
X69.9527 Y45.1027 Z-2.05
(Line Move)
X69.3967 Y46.9034 Z-2.05
(Line Move)
X68.6557 Y48.6373 Z-2.05
(Line Move)
X67.7376 Y50.2855 Z-2.05
(Line Move)
X66.6524 Y51.8302 Z-2.05
(Line Move)
X65.4116 Y53.2544 Z-2.05
(Line Move)
X64.0288 Y54.5425 Z-2.05
(Line Move)
X62.5187 Y55.6807 Z-2.05
(Line Move)
X60.8977 Y56.6564 Z-2.05
(Line Move)
X59.1832 Y57.459 Z-2.05
(Line Move)
X57.3936 Y58.0798 Z-2.05
(Line Move)
X55.5483 Y58.5119 Z-2.05
(Line Move)
X53.6671 Y58.7505 Z-2.05
(Line Move)
X51.7702 Y58.7931 Z-2.05
(Line Move)
X49.8781 Y58.6389 Z-2.05
(Line Move)
X48.011 Y58.2895 Z-2.05
(Line Move)
X46.1891 Y57.7487 Z-2.05
(Line Move)
X44.4319 Y57.022 Z-2.05
(Line Move)
X42.7582 Y56.1171 Z-2.05
(Line Move)
X41.186 Y55.0437 Z-2.05
(Line Move)
X39.7323 Y53.813 Z-2.05
(Line Move)
X38.4125 Y52.4382 Z-2.05
(Line Move)
X37.2408 Y50.9338 Z-2.05
(Line Move)
X36.2298 Y49.3158 Z-2.05
(Line Move)
X35.3905 Y47.6013 Z-2.05
(Line Move)
X34.7317 Y45.8085 Z-2.05
(Line Move)
X34.2606 Y43.9565 Z-2.05
(Line Move)
X33.9823 Y42.0648 Z-2.05
(Line Move)
X33.8998 Y40.1535 Z-2.05
(Line Move)
X34.0143 Y38.2427 Z-2.05
(Line Move)
X34.3244 Y36.3528 Z-2.05
(Line Move)
X34.8272 Y34.5037 Z-2.05
(Line Move)
X35.5174 Y32.715 Z-2.05
(Line Move)
X36.3878 Y31.0055 Z-2.05
(Line Move)
X37.4293 Y29.3934 Z-2.05
(Line Move)
X38.6312 Y27.8956 Z-2.05
(Line Move)
X39.9807 Y26.5279 Z-2.05
(Line Move)
X41.464 Y25.3049 Z-2.05
(Line Move)
X43.0653 Y24.2393 Z-2.05
(Line Move)
X44.7682 Y23.3426 Z-2.05
(Line Move)
X46.5546 Y22.6241 Z-2.05
(Line Move)
X48.4061 Y22.0916 Z-2.05
(Line Move)
X50.3033 Y21.7505 Z-2.05
(Line Move)
X52.2264 Y21.6047 Z-2.05
(Line Move)
X54.1554 Y21.6558 Z-2.05
(Line Move)
X56.0701 Y21.9033 Z-2.05
(Line Move)
X57.9507 Y22.3448 Z-2.05
(Line Move)
X59.7775 Y22.9758 Z-2.05
(Line Move)
X61.5316 Y23.7898 Z-2.05
(Line Move)
X63.1946 Y24.7786 Z-2.05
(Line Move)
X64.7494 Y25.9318 Z-2.05
(Line Move)
X66.1797 Y27.2378 Z-2.05
(Line Move)
X67.4706 Y28.683 Z-2.05
(Line Move)
X68.6088 Y30.2526 Z-2.05
(Line Move)
X69.5823 Y31.9304 Z-2.05
(Line Move)
X70.3812 Y33.6993 Z-2.05
(Line Move)
X70.9969 Y35.541 Z-2.05
(Line Move)
X71.4231 Y37.4365 Z-2.05
(Line Move)
X71.6554 Y39.3665 Z-2.05
(Line Move)
X71.6911 Y41.3111 Z-2.05
(Line Move)
X71.5299 Y43.2503 Z-2.05
(Line Move)
X71.1732 Y45.1643 Z-2.05
(Line Move)
X70.6246 Y47.0334 Z-2.05
(Line Move)
X69.8897 Y48.8385 Z-2.05
(Line Move)
X68.9758 Y50.561 Z-2.05
(Line Move)
X67.8922 Y52.1834 Z-2.05
(Line Move)
X66.6499 Y53.6889 Z-2.05
(Line Move)
X65.2614 Y55.0623 Z-2.05
(Line Move)
X63.7408 Y56.2894 Z-2.05
(Line Move)
X62.1035 Y57.3576 Z-2.05
(Line Move)
X60.3661 Y58.256 Z-2.05
(Line Move)
X58.5462 Y58.9755 Z-2.05
(Line Move)
X56.6622 Y59.5085 Z-2.05
(Line Move)
X54.7332 Y59.8496 Z-2.05
(Line Move)
X52.7786 Y59.9953 Z-2.05
(Line Move)
X50.8184 Y59.9439 Z-2.05
(Line Move)
X48.8722 Y59.6958 Z-2.05
(Line Move)
X46.9597 Y59.2536 Z-2.05
(Line Move)
X45.1003 Y58.6214 Z-2.05
(Line Move)
X43.3128 Y57.8057 Z-2.05
(Line Move)
X41.6151 Y56.8144 Z-2.05
(Line Move)
X40.0244 Y55.6575 Z-2.05
(Line Move)
X38.5567 Y54.3466 Z-2.05
(Line Move)
X37.2269 Y52.8947 Z-2.05
(Line Move)
X36.0484 Y51.3163 Z-2.05
(Line Move)
X35.033 Y49.6272 Z-2.05
(Line Move)
X34.191 Y47.8441 Z-2.05
(Line Move)
X33.531 Y45.985 Z-2.05
(Line Move)
X33.0596 Y44.0684 Z-2.05
(Line Move)
X32.7816 Y42.1133 Z-2.05
(Line Move)
X32.7 Y40.1392 Z-2.05
(Line Move)
X32.8155 Y38.1659 Z-2.05
(Line Move)
X33.1273 Y36.2129 Z-2.05
(Line Move)
X33.6322 Y34.2997 Z-2.05
(Line Move)
X34.3253 Y32.4454 Z-2.05
(Line Move)
X35.2 Y30.6684 Z-2.05
(Line Move)
X36.2475 Y28.9863 Z-2.05
(Line Move)
X37.4576 Y27.4159 Z-2.05
(Line Move)
X38.8184 Y25.9727 Z-2.05
(Line Move)
X40.3166 Y24.6712 Z-2.05
(Line Move)
X41.9373 Y23.5243 Z-2.05
(Line Move)
X43.6647 Y22.5434 Z-2.05
(Line Move)
X45.4817 Y21.7381 Z-2.05
(Line Move)
X47.3705 Y21.1167 Z-2.05
(Line Move)
X49.3125 Y20.6852 Z-2.05
(Line Move)
X51.2886 Y20.4481 Z-2.05
(Line Move)
X53.2795 Y20.4077 Z-2.05
(Line Move)
X55.2656 Y20.5646 Z-2.05
(Line Move)
X57.2273 Y20.9172 Z-2.05
(Line Move)
X59.1456 Y21.4624 Z-2.05
(Line Move)
X61.0014 Y22.1947 Z-2.05
(Line Move)
X62.7768 Y23.1072 Z-2.05
(Line Move)
X64.4542 Y24.191 Z-2.05
(Line Move)
X66.0172 Y25.4357 Z-2.05
(Line Move)
X67.4505 Y26.829 Z-2.05
(Line Move)
X68.7401 Y28.3577 Z-2.05
(Line Move)
X69.8733 Y30.0067 Z-2.05
(Line Move)
X70.8391 Y31.7602 Z-2.05
(Line Move)
X71.6279 Y33.6011 Z-2.05
(Line Move)
X72.2321 Y35.5116 Z-2.05
(Line Move)
X72.6456 Y37.4732 Z-2.05
(Line Move)
X72.8643 Y39.4669 Z-2.05
(Line Move)
X72.886 Y41.4734 Z-2.05
(Line Move)
X72.7105 Y43.4733 Z-2.05
(Line Move)
X72.3393 Y45.4472 Z-2.05
(Line Move)
X71.7759 Y47.3761 Z-2.05
(Line Move)
X71.0256 Y49.2412 Z-2.05
(Line Move)
X70.0957 Y51.0247 Z-2.05
(Line Move)
X68.9949 Y52.7092 Z-2.05
(Line Move)
X67.7337 Y54.2785 Z-2.05
(Line Move)
X66.3243 Y55.7175 Z-2.05
(Line Move)
X64.7801 Y57.0122 Z-2.05
(Line Move)
X63.1159 Y58.1501 Z-2.05
(Line Move)
X61.3475 Y59.1203 Z-2.05
(Line Move)
X59.4919 Y59.9133 Z-2.05
(Line Move)
X57.5668 Y60.5215 Z-2.05
(Line Move)
X55.5906 Y60.939 Z-2.05
(Line Move)
X53.5821 Y61.1617 Z-2.05
(Line Move)
X51.5606 Y61.1873 Z-2.05
(Line Move)
X49.5453 Y61.0156 Z-2.05
(Line Move)
X47.5553 Y60.648 Z-2.05
(Line Move)
X45.6098 Y60.088 Z-2.05
(Line Move)
X43.7272 Y59.3409 Z-2.05
(Line Move)
X41.9255 Y58.4135 Z-2.05
(Line Move)
X40.2218 Y57.3147 Z-2.05
(Line Move)
X38.6323 Y56.0547 Z-2.05
(Line Move)
X37.1723 Y54.6456 Z-2.05
(Line Move)
X35.8555 Y53.1005 Z-2.05
(Line Move)
X34.6945 Y51.4339 Z-2.05
(Line Move)
X33.7004 Y49.6618 Z-2.05
(Line Move)
X32.8826 Y47.8006 Z-2.05
(Line Move)
X32.249 Y45.868 Z-2.05
(Line Move)
X31.8057 Y43.8821 Z-2.05
(Line Move)
X31.5568 Y41.8617 Z-2.05
(Line Move)
X31.5049 Y39.8258 Z-2.05
(Line Move)
X31.6504 Y37.7935 Z-2.05
(Line Move)
X31.9923 Y35.7839 Z-2.05
(Line Move)
X32.5272 Y33.816 Z-2.05
(Line Move)
X33.2504 Y31.9082 Z-2.05
(Line Move)
X34.155 Y30.0784 Z-2.05
(Line Move)
X35.2328 Y28.3438 Z-2.05
(Line Move)
X36.4737 Y26.7208 Z-2.05
(Line Move)
X37.8661 Y25.2245 Z-2.05
(Line Move)
X39.3972 Y23.869 Z-2.05
(Line Move)
X41.0527 Y22.6671 Z-2.05
(Line Move)
X42.8171 Y21.6299 Z-2.05
(Line Move)
X44.6742 Y20.7674 Z-2.05
(Line Move)
X46.6066 Y20.0875 Z-2.05
(Line Move)
X48.5964 Y19.5967 Z-2.05
(Line Move)
X50.6251 Y19.2996 Z-2.05
(Line Move)
X52.6739 Y19.1992 Z-2.05
(Line Move)
X54.7238 Y19.2963 Z-2.05
(Line Move)
X56.7557 Y19.5903 Z-2.05
(Line Move)
X58.7509 Y20.0785 Z-2.05
(Line Move)
X60.6907 Y20.7564 Z-2.05
(Line Move)
X62.5573 Y21.6179 Z-2.05
(Line Move)
X64.3334 Y22.6551 Z-2.05
(Line Move)
X66.0024 Y23.8584 Z-2.05
(Line Move)
X67.549 Y25.217 Z-2.05
(Line Move)
X68.9588 Y26.7182 Z-2.05
(Line Move)
X70.2188 Y28.3483 Z-2.05
(Line Move)
X71.3173 Y30.0925 Z-2.05
(Line Move)
X72.2441 Y31.9346 Z-2.05
(Line Move)
X72.9906 Y33.8578 Z-2.05
(Line Move)
X73.5499 Y35.8446 Z-2.05
(Line Move)
X73.9168 Y37.8765 Z-2.05
(Line Move)
X74.0878 Y39.9352 Z-2.05
(Line Move)
X74.0612 Y42.0017 Z-2.05
(Line Move)
X73.8373 Y44.057 Z-2.05
(Line Move)
X73.4179 Y46.0825 Z-2.05
(Line Move)
X72.8068 Y48.0595 Z-2.05
(Line Move)
X72.0095 Y49.9701 Z-2.05
(Line Move)
X71.0332 Y51.7966 Z-2.05
(Line Move)
X69.8867 Y53.5226 Z-2.05
(Line Move)
X68.5804 Y55.1321 Z-2.05
(Line Move)
X67.1261 Y56.6104 Z-2.05
(Line Move)
X65.5369 Y57.9442 Z-2.05
(Line Move)
X63.8273 Y59.1211 Z-2.05
(Line Move)
X62.0127 Y60.1305 Z-2.05
(Line Move)
X60.1094 Y60.963 Z-2.05
(Line Move)
X58.1349 Y61.6112 Z-2.05
(Line Move)
X56.1067 Y62.0689 Z-2.05
(Line Move)
X54.0434 Y62.332 Z-2.05
(Line Move)
X51.9636 Y62.3981 Z-2.05
(Line Move)
X49.886 Y62.2664 Z-2.05
(Line Move)
X47.8293 Y61.938 Z-2.05
(Line Move)
X45.8123 Y61.4159 Z-2.05
(Line Move)
X43.853 Y60.7046 Z-2.05
(Line Move)
X41.9691 Y59.8104 Z-2.05
(Line Move)
X40.1776 Y58.7414 Z-2.05
(Line Move)
X38.4947 Y57.507 Z-2.05
(Line Move)
X36.9355 Y56.1183 Z-2.05
(Line Move)
X35.5141 Y54.5876 Z-2.05
(Line Move)
X34.2433 Y52.9287 Z-2.05
(Line Move)
X33.1346 Y51.1563 Z-2.05
(Line Move)
X32.1979 Y49.2863 Z-2.05
(Line Move)
X31.4417 Y47.3354 Z-2.05
(Line Move)
X30.8729 Y45.3209 Z-2.05
(Line Move)
X30.4965 Y43.2609 Z-2.05
(Line Move)
X30.3162 Y41.1737 Z-2.05
(Line Move)
X30.3335 Y39.078 Z-2.05
(Line Move)
X30.5484 Y36.9923 Z-2.05
(Line Move)
X30.959 Y34.9353 Z-2.05
(Line Move)
X31.5619 Y32.9252 Z-2.05
(Line Move)
X32.3517 Y30.9801 Z-2.05
(Line Move)
X33.3214 Y29.1172 Z-2.05
(Line Move)
X34.4626 Y27.3531 Z-2.05
(Line Move)
X35.7652 Y25.7034 Z-2.05
(Line Move)
X37.2177 Y24.1829 Z-2.05
(Line Move)
X38.8074 Y22.805 Z-2.05
(Line Move)
X40.5201 Y21.582 Z-2.05
(Line Move)
X42.3409 Y20.5249 Z-2.05
(Line Move)
X44.2537 Y19.643 Z-2.05
(Line Move)
X46.2416 Y18.9442 Z-2.05
(Line Move)
X48.2871 Y18.4346 Z-2.05
(Line Move)
X50.3722 Y18.119 Z-2.05
(Line Move)
X52.4786 Y18.0002 Z-2.05
(Line Move)
X54.5877 Y18.0792 Z-2.05
(Line Move)
X56.681 Y18.3556 Z-2.05
(Line Move)
X58.7401 Y18.8268 Z-2.05
(Line Move)
X60.7468 Y19.489 Z-2.05
(Line Move)
X62.6836 Y20.3363 Z-2.05
(Line Move)
X64.5335 Y21.3614 Z-2.05
(Line Move)
X66.2801 Y22.5555 Z-2.05
(Line Move)
X67.9082 Y23.908 Z-2.05
(Line Move)
X69.4035 Y25.4073 Z-2.05
(Line Move)
X70.7528 Y27.0403 Z-2.05
(Line Move)
X71.9442 Y28.7928 Z-2.05
(Line Move)
X72.9675 Y30.6496 Z-2.05
(Line Move)
X73.8134 Y32.5945 Z-2.05
(Line Move)
X74.4746 Y34.6105 Z-2.05
(Line Move)
X74.9453 Y36.6803 Z-2.05
(Line Move)
X75.2212 Y38.7857 Z-2.05
(Line Move)
X75.2999 Y40.9086 Z-2.05
(Line Move)
X75.1807 Y43.0304 Z-2.05
(Line Move)
X74.8644 Y45.1327 Z-2.05
(Line Move)
X74.3537 Y47.1973 Z-2.05
(Line Move)
X73.6531 Y49.2064 Z-2.05
(Line Move)
X72.7684 Y51.1423 Z-2.05
(Line Move)
X71.7072 Y52.9885 Z-2.05
(Line Move)
X70.4787 Y54.7288 Z-2.05
(Line Move)
X69.0934 Y56.3482 Z-2.05
(Line Move)
X67.5632 Y57.8326 Z-2.05
(Line Move)
X65.9012 Y59.1693 Z-2.05
(Line Move)
X64.1218 Y60.3465 Z-2.05
(Line Move)
X62.2401 Y61.3541 Z-2.05
(Line Move)
X60.2724 Y62.1834 Z-2.05
(Line Move)
X58.2356 Y62.8271 Z-2.05
(Line Move)
X56.1471 Y63.2796 Z-2.05
(Line Move)
X54.0248 Y63.537 Z-2.05
(Line Move)
X51.887 Y63.5969 Z-2.05
(Line Move)
X49.7519 Y63.4589 Z-2.05
(Line Move)
X47.638 Y63.1239 Z-2.05
(Line Move)
X45.5632 Y62.5947 Z-2.05
(Line Move)
X43.5454 Y61.8759 Z-2.05
(Line Move)
X41.6018 Y60.9734 Z-2.05
(Line Move)
X39.7492 Y59.895 Z-2.05
(Line Move)
X38.0032 Y58.6497 Z-2.05
(Line Move)
X36.379 Y57.2482 Z-2.05
(Line Move)
X34.8903 Y55.7022 Z-2.05
(Line Move)
X33.55 Y54.0249 Z-2.05
(Line Move)
X32.3694 Y52.2306 Z-2.05
(Line Move)
X31.3588 Y50.3344 Z-2.05
(Line Move)
X30.5267 Y48.3525 Z-2.05
(Line Move)
X29.8803 Y46.3016 Z-2.05
(Line Move)
X29.4251 Y44.1991 Z-2.05
(Line Move)
X29.1652 Y42.0628 Z-2.05
(Line Move)
X29.1028 Y39.9109 Z-2.05
(Line Move)
X29.2384 Y37.7615 Z-2.05
(Line Move)
X29.5711 Y35.6328 Z-2.05
(Line Move)
X30.0981 Y33.5429 Z-2.05
(Line Move)
X30.815 Y31.5094 Z-2.05
(Line Move)
X31.7158 Y29.5496 Z-2.05
(Line Move)
X32.793 Y27.6799 Z-2.05
(Line Move)
X34.0376 Y25.9162 Z-2.05
(Line Move)
X35.4393 Y24.2734 Z-2.05
(Line Move)
X36.9861 Y22.7654 Z-2.05
(Line Move)
X38.6652 Y21.4049 Z-2.05
(Line Move)
X40.4626 Y20.2034 Z-2.05
(Line Move)
X42.3631 Y19.1712 Z-2.05
(Line Move)
X44.3508 Y18.3168 Z-2.05
(Line Move)
X46.4091 Y17.6476 Z-2.05
(Line Move)
X48.5208 Y17.1692 Z-2.05
(Line Move)
X50.6682 Y16.8857 Z-2.05
(Line Move)
X52.8334 Y16.7997 Z-2.05
(Line Move)
X54.9981 Y16.9117 Z-2.05
(Line Move)
X57.1444 Y17.2212 Z-2.05
(Line Move)
X59.2543 Y17.7254 Z-2.05
(Line Move)
X61.3102 Y18.4202 Z-2.05
(Line Move)
X63.2948 Y19.3001 Z-2.05
(Line Move)
X65.1917 Y20.3576 Z-2.05
(Line Move)
X66.985 Y21.5841 Z-2.05
(Line Move)
X68.6597 Y22.9694 Z-2.05
(Line Move)
X70.2018 Y24.502 Z-2.05
(Line Move)
X71.5985 Y26.1693 Z-2.05
(Line Move)
X72.8381 Y27.9575 Z-2.05
(Line Move)
X73.9102 Y29.8517 Z-2.05
(Line Move)
X74.806 Y31.8364 Z-2.05
(Line Move)
X75.5179 Y33.895 Z-2.05
(Line Move)
X76.0399 Y36.0106 Z-2.05
(Line Move)
X76.3677 Y38.1657 Z-2.05
(Line Move)
X76.4984 Y40.3425 Z-2.05
(Line Move)
X76.4309 Y42.5229 Z-2.05
(Line Move)
X76.1657 Y44.6891 Z-2.05
(Line Move)
X75.7049 Y46.823 Z-2.05
(Line Move)
X75.0523 Y48.9071 Z-2.05
(Line Move)
X74.213 Y50.9242 Z-2.05
(Line Move)
X73.194 Y52.8576 Z-2.05
(Line Move)
X72.0036 Y54.6914 Z-2.05
(Line Move)
X70.6515 Y56.4105 Z-2.05
(Line Move)
X69.1488 Y58.0008 Z-2.05
(Line Move)
X67.5077 Y59.449 Z-2.05
(Line Move)
X65.7416 Y60.7433 Z-2.05
(Line Move)
X63.8651 Y61.8729 Z-2.05
(Line Move)
X61.8933 Y62.8286 Z-2.05
(Line Move)
X59.8426 Y63.6025 Z-2.05
(Line Move)
X57.7295 Y64.1882 Z-2.05
(Line Move)
X55.5714 Y64.5807 Z-2.05
(Line Move)
X53.3858 Y64.7769 Z-2.05
(Line Move)
X51.1907 Y64.775 Z-2.05
(Line Move)
X49.0039 Y64.575 Z-2.05
(Line Move)
X46.8432 Y64.1784 Z-2.05
(Line Move)
X44.7264 Y63.5885 Z-2.05
(Line Move)
X42.6706 Y62.8098 Z-2.05
(Line Move)
X40.6926 Y61.8488 Z-2.05
(Line Move)
X38.8085 Y60.713 Z-2.05
(Line Move)
X37.0337 Y59.4118 Z-2.05
(Line Move)
X35.3826 Y57.9556 Z-2.05
(Line Move)
X33.8686 Y56.3562 Z-2.05
(Line Move)
X32.5042 Y54.6265 Z-2.05
(Line Move)
X31.3004 Y52.7804 Z-2.05
(Line Move)
X30.2671 Y50.8329 Z-2.05
(Line Move)
X29.4126 Y48.7997 Z-2.05
(Line Move)
X28.7439 Y46.6972 Z-2.05
(Line Move)
X28.2666 Y44.5424 Z-2.05
(Line Move)
X27.9845 Y42.3527 Z-2.05
(Line Move)
X27.9 Y40.1457 Z-2.05
(Line Move)
X28.0138 Y37.9392 Z-2.05
(Line Move)
X28.3251 Y35.751 Z-2.05
(Line Move)
X28.8316 Y33.5988 Z-2.05
(Line Move)
X29.529 Y31.4999 Z-2.05
(Line Move)
X30.4121 Y29.4712 Z-2.05
(Line Move)
X31.4736 Y27.529 Z-2.05
(Line Move)
X32.7051 Y25.689 Z-2.05
(Line Move)
X34.0968 Y23.9659 Z-2.05
(Line Move)
X35.6377 Y22.3737 Z-2.05
(Line Move)
X37.3154 Y20.9252 Z-2.05
(Line Move)
X39.1164 Y19.632 Z-2.05
(Line Move)
X41.0265 Y18.5045 Z-2.05
(Line Move)
X43.0304 Y17.5518 Z-2.05
(Line Move)
X45.1122 Y16.7817 Z-2.05
(Line Move)
X47.2551 Y16.2002 Z-2.05
(Line Move)
X49.4421 Y15.8122 Z-2.05
(Line Move)
X51.6558 Y15.6208 Z-2.05
(Line Move)
X53.8785 Y15.6276 Z-2.05
(Line Move)
X56.0925 Y15.8326 Z-2.05
(Line Move)
X58.2802 Y16.2342 Z-2.05
(Line Move)
X60.4242 Y16.8294 Z-2.05
(Line Move)
X62.5074 Y17.6135 Z-2.05
(Line Move)
X64.5132 Y18.5803 Z-2.05
(Line Move)
X66.4256 Y19.7221 Z-2.05
(Line Move)
X68.2295 Y21.0301 Z-2.05
(Line Move)
X69.9105 Y22.4938 Z-2.05
(Line Move)
X71.4552 Y24.1018 Z-2.05
(Line Move)
X72.8513 Y25.8413 Z-2.05
(Line Move)
X74.0877 Y27.6987 Z-2.05
(Line Move)
X75.1547 Y29.6592 Z-2.05
(Line Move)
X76.0436 Y31.7074 Z-2.05
(Line Move)
X76.7475 Y33.8272 Z-2.05
(Line Move)
X77.2606 Y36.0018 Z-2.05
(Line Move)
X77.5788 Y38.2142 Z-2.05
(Line Move)
X77.6997 Y40.4468 Z-2.05
(Line Move)
X77.6221 Y42.6821 Z-2.05
(Line Move)
X77.3466 Y44.9025 Z-2.05
(Line Move)
X76.8753 Y47.0905 Z-2.05
(Line Move)
X76.2119 Y49.2289 Z-2.05
(Line Move)
X75.3614 Y51.3009 Z-2.05
(Line Move)
X74.3305 Y53.2902 Z-2.05
(Line Move)
X73.1272 Y55.181 Z-2.05
(Line Move)
X71.7609 Y56.9587 Z-2.05
(Line Move)
X70.2423 Y58.6091 Z-2.05
(Line Move)
X68.5831 Y60.1193 Z-2.05
(Line Move)
X66.7964 Y61.4775 Z-2.05
(Line Move)
X64.896 Y62.6729 Z-2.05
(Line Move)
X62.8968 Y63.6962 Z-2.05
(Line Move)
X60.8144 Y64.5392 Z-2.05
(Line Move)
X58.6649 Y65.1954 Z-2.05
(Line Move)
X56.4652 Y65.6596 Z-2.05
(Line Move)
X54.2324 Y65.9281 Z-2.05
(Line Move)
X51.9838 Y65.9986 Z-2.05
(Line Move)
X49.737 Y65.8707 Z-2.05
(Line Move)
X47.5095 Y65.5452 Z-2.05
(Line Move)
X45.3186 Y65.0245 Z-2.05
(Line Move)
X43.1813 Y64.3127 Z-2.05
(Line Move)
X41.1142 Y63.4153 Z-2.05
(Line Move)
X39.1335 Y62.339 Z-2.05
(Line Move)
X37.2545 Y61.0923 Z-2.05
(Line Move)
X35.4919 Y59.6847 Z-2.05
(Line Move)
X33.8592 Y58.127 Z-2.05
(Line Move)
X32.3693 Y56.4313 Z-2.05
(Line Move)
X31.0337 Y54.6107 Z-2.05
(Line Move)
X29.8627 Y52.6792 Z-2.05
(Line Move)
X28.8656 Y50.6516 Z-2.05
(Line Move)
X28.05 Y48.5436 Z-2.05
(Line Move)
X27.4223 Y46.3714 Z-2.05
(Line Move)
X26.9874 Y44.1519 Z-2.05
(Line Move)
X26.7487 Y41.902 Z-2.05
(Line Move)
X26.7082 Y39.6391 Z-2.05
(Line Move)
X26.8661 Y37.3805 Z-2.05
(Line Move)
X27.2215 Y35.1438 Z-2.05
(Line Move)
X27.7716 Y32.9461 Z-2.05
(Line Move)
X28.5122 Y30.8042 Z-2.05
(Line Move)
X29.4377 Y28.7347 Z-2.05
(Line Move)
X30.5412 Y26.7535 Z-2.05
(Line Move)
X31.8141 Y24.8757 Z-2.05
(Line Move)
X33.2468 Y23.1159 Z-2.05
(Line Move)
X34.8284 Y21.4875 Z-2.05
(Line Move)
X36.5468 Y20.0031 Z-2.05
(Line Move)
X38.3889 Y18.674 Z-2.05
(Line Move)
X40.3407 Y17.5105 Z-2.05
(Line Move)
X42.3873 Y16.5215 Z-2.05
(Line Move)
X44.5131 Y15.7147 Z-2.05
(Line Move)
X46.7018 Y15.0962 Z-2.05
(Line Move)
X48.937 Y14.6708 Z-2.05
(Line Move)
X51.2014 Y14.4419 Z-2.05
(Line Move)
X53.478 Y14.4112 Z-2.05
(Line Move)
X55.7492 Y14.579 Z-2.05
(Line Move)
X57.998 Y14.9442 Z-2.05
(Line Move)
X60.2071 Y15.5041 Z-2.05
(Line Move)
X62.3598 Y16.2543 Z-2.05
(Line Move)
X64.4398 Y17.1894 Z-2.05
(Line Move)
X66.4311 Y18.3023 Z-2.05
(Line Move)
X68.3187 Y19.5846 Z-2.05
(Line Move)
X70.0882 Y21.0266 Z-2.05
(Line Move)
X71.7262 Y22.6174 Z-2.05
(Line Move)
X73.2202 Y24.3452 Z-2.05
(Line Move)
X74.5589 Y26.1968 Z-2.05
(Line Move)
X75.7322 Y28.1583 Z-2.05
(Line Move)
X76.7311 Y30.215 Z-2.05
(Line Move)
X77.5479 Y32.3512 Z-2.05
(Line Move)
X78.1765 Y34.551 Z-2.05
(Line Move)
X78.6121 Y36.7977 Z-2.05
(Line Move)
X78.8513 Y39.0745 Z-2.05
(Line Move)
X78.8923 Y41.3642 Z-2.05
(Line Move)
X78.7346 Y43.6495 Z-2.05
(Line Move)
X78.3794 Y45.9133 Z-2.05
(Line Move)
X77.8294 Y48.1386 Z-2.05
(Line Move)
X77.0885 Y50.3086 Z-2.05
(Line Move)
X76.1622 Y52.4069 Z-2.05
(Line Move)
X75.0576 Y54.4179 Z-2.05
(Line Move)
X73.7827 Y56.3265 Z-2.05
(Line Move)
X72.3471 Y58.1182 Z-2.05
(Line Move)
X70.7615 Y59.7796 Z-2.05
(Line Move)
X69.0376 Y61.2982 Z-2.05
(Line Move)
X67.1885 Y62.6627 Z-2.05
(Line Move)
X65.2278 Y63.8628 Z-2.05
(Line Move)
X63.1701 Y64.8894 Z-2.05
(Line Move)
X61.0308 Y65.7348 Z-2.05
(Line Move)
X58.8259 Y66.3927 Z-2.05
(Line Move)
X56.5717 Y66.8581 Z-2.05
(Line Move)
X54.285 Y67.1275 Z-2.05
(Line Move)
X51.9829 Y67.1987 Z-2.05
(Line Move)
X49.6825 Y67.0712 Z-2.05
(Line Move)
X47.401 Y66.7459 Z-2.05
(Line Move)
X45.1552 Y66.2251 Z-2.05
(Line Move)
X42.9619 Y65.5126 Z-2.05
(Line Move)
X40.8374 Y64.6137 Z-2.05
(Line Move)
X38.7976 Y63.535 Z-2.05
(Line Move)
X36.8574 Y62.2844 Z-2.05
(Line Move)
X35.0315 Y60.8711 Z-2.05
(Line Move)
X33.3333 Y59.3056 Z-2.05
(Line Move)
X31.7754 Y57.5994 Z-2.05
(Line Move)
X30.3695 Y55.765 Z-2.05
(Line Move)
X29.126 Y53.8161 Z-2.05
(Line Move)
X28.0541 Y51.7669 Z-2.05
(Line Move)
X27.1618 Y49.6326 Z-2.05
(Line Move)
X26.4558 Y47.4289 Z-2.05
(Line Move)
X25.9412 Y45.1721 Z-2.05
(Line Move)
X25.6221 Y42.8787 Z-2.05
(Line Move)
X25.5007 Y40.5657 Z-2.05
(Line Move)
X25.5781 Y38.2501 Z-2.05
(Line Move)
X25.8537 Y35.9489 Z-2.05
(Line Move)
X26.3256 Y33.6791 Z-2.05
(Line Move)
X26.9904 Y31.4573 Z-2.05
(Line Move)
X27.8432 Y29.3 Z-2.05
(Line Move)
X28.8779 Y27.2229 Z-2.05
(Line Move)
X30.0869 Y25.2414 Z-2.05
(Line Move)
X31.4614 Y23.37 Z-2.05
(Line Move)
X32.9914 Y21.6225 Z-2.05
(Line Move)
X34.6657 Y20.0117 Z-2.05
(Line Move)
X36.4721 Y18.5494 Z-2.05
(Line Move)
X38.3974 Y17.2464 Z-2.05
(Line Move)
X40.4276 Y16.1123 Z-2.05
(Line Move)
X42.5479 Y15.1554 Z-2.05
(Line Move)
X44.7428 Y14.3828 Z-2.05
(Line Move)
X46.9964 Y13.8002 Z-2.05
(Line Move)
X49.2921 Y13.4118 Z-2.05
(Line Move)
X51.6133 Y13.2206 Z-2.05
(Line Move)
X53.9431 Y13.228 Z-2.05
(Line Move)
X56.2644 Y13.4341 Z-2.05
(Line Move)
X58.5605 Y13.8374 Z-2.05
(Line Move)
X60.8145 Y14.435 Z-2.05
(Line Move)
X63.0101 Y15.2226 Z-2.05
(Line Move)
X65.1313 Y16.1946 Z-2.05
(Line Move)
X67.1627 Y17.3441 Z-2.05
(Line Move)
X69.0895 Y18.6626 Z-2.05
(Line Move)
X70.8977 Y20.1406 Z-2.05
(Line Move)
X72.5741 Y21.7677 Z-2.05
(Line Move)
X74.1066 Y23.5318 Z-2.05
(Line Move)
X75.484 Y25.4205 Z-2.05
(Line Move)
X76.6963 Y27.4199 Z-2.05
(Line Move)
X77.7347 Y29.5157 Z-2.05
(Line Move)
X78.5917 Y31.6929 Z-2.05
(Line Move)
X79.2608 Y33.9355 Z-2.05
(Line Move)
X79.7374 Y36.2276 Z-2.05
(Line Move)
X80.0178 Y38.5525 Z-2.05
(Line Move)
X80.1001 Y40.8936 Z-2.05
(Line Move)
X79.9835 Y43.2339 Z-2.05
(Line Move)
X79.6688 Y45.5565 Z-2.05
(Line Move)
X79.1582 Y47.8449 Z-2.05
(Line Move)
X78.4553 Y50.0824 Z-2.05
(Line Move)
X77.5652 Y52.253 Z-2.05
(Line Move)
X76.4942 Y54.341 Z-2.05
(Line Move)
X75.2498 Y56.3315 Z-2.05
(Line Move)
X73.8411 Y58.21 Z-2.05
(Line Move)
X72.278 Y59.9632 Z-2.05
(Line Move)
X70.5717 Y61.5783 Z-2.05
(Line Move)
X68.7344 Y63.0438 Z-2.05
(Line Move)
X66.7792 Y64.3491 Z-2.05
(Line Move)
X64.72 Y65.4849 Z-2.05
(Line Move)
X62.5716 Y66.4429 Z-2.05
(Line Move)
X60.3494 Y67.2162 Z-2.05
(Line Move)
X58.0691 Y67.7993 Z-2.05
(Line Move)
X55.747 Y68.188 Z-2.05
(Line Move)
X53.3997 Y68.3793 Z-2.05
(Line Move)
X51.0439 Y68.372 Z-2.05
(Line Move)
X48.6965 Y68.1658 Z-2.05
(Line Move)
X46.3741 Y67.7624 Z-2.05
(Line Move)
X44.0933 Y67.1645 Z-2.05
(Line Move)
X41.8704 Y66.3762 Z-2.05
(Line Move)
X39.7211 Y65.4032 Z-2.05
(Line Move)
X37.6609 Y64.2522 Z-2.05
(Line Move)
X35.7043 Y62.9315 Z-2.05
(Line Move)
X33.8653 Y61.4504 Z-2.05
(Line Move)
X32.1569 Y59.8192 Z-2.05
(Line Move)
X30.5914 Y58.0496 Z-2.05
(Line Move)
X29.1799 Y56.154 Z-2.05
(Line Move)
X27.9323 Y54.1459 Z-2.05
(Line Move)
X26.8577 Y52.0394 Z-2.05
(Line Move)
X25.9637 Y49.8494 Z-2.05
(Line Move)
X25.2566 Y47.5913 Z-2.05
(Line Move)
X24.7415 Y45.2812 Z-2.05
(Line Move)
X24.4221 Y42.9353 Z-2.05
(Line Move)
X24.3007 Y40.5702 Z-2.05
(Line Move)
X24.3783 Y38.2026 Z-2.05
(Line Move)
X24.6543 Y35.8491 Z-2.05
(Line Move)
X25.1268 Y33.5264 Z-2.05
(Line Move)
X25.7927 Y31.2509 Z-2.05
(Line Move)
X26.6472 Y29.0385 Z-2.05
(Line Move)
X27.6844 Y26.9049 Z-2.05
(Line Move)
X28.8971 Y24.8651 Z-2.05
(Line Move)
X30.2768 Y22.9335 Z-2.05
(Line Move)
X31.8137 Y21.1237 Z-2.05
(Line Move)
X33.4973 Y19.4484 Z-2.05
(Line Move)
X35.3157 Y17.9195 Z-2.05
(Line Move)
X37.2563 Y16.5476 Z-2.05
(Line Move)
X39.3053 Y15.3426 Z-2.05
(Line Move)
X41.4486 Y14.3128 Z-2.05
(Line Move)
X43.671 Y13.4655 Z-2.05
(Line Move)
X45.9572 Y12.8068 Z-2.05
(Line Move)
X48.2911 Y12.3412 Z-2.05
(Line Move)
X50.6564 Y12.0721 Z-2.05
(Line Move)
X53.0365 Y12.0015 Z-2.05
(Line Move)
X55.415 Y12.1298 Z-2.05
(Line Move)
X57.7751 Y12.4563 Z-2.05
(Line Move)
X60.1004 Y12.9787 Z-2.05
(Line Move)
X62.3747 Y13.6935 Z-2.05
(Line Move)
X64.582 Y14.5956 Z-2.05
(Line Move)
X66.7071 Y15.679 Z-2.05
(Line Move)
X68.7351 Y16.9361 Z-2.05
(Line Move)
X70.6518 Y18.3582 Z-2.05
(Line Move)
X72.4439 Y19.9354 Z-2.05
(Line Move)
X74.0989 Y21.6569 Z-2.05
(Line Move)
X75.6053 Y23.5108 Z-2.05
(Line Move)
X76.9525 Y25.4841 Z-2.05
(Line Move)
X78.1312 Y27.5633 Z-2.05
(Line Move)
X79.1331 Y29.734 Z-2.05
(Line Move)
X79.9512 Y31.9811 Z-2.05
(Line Move)
X80.5799 Y34.289 Z-2.05
(Line Move)
X81.0147 Y36.6419 Z-2.05
(Line Move)
X81.2525 Y39.0235 Z-2.05
(Line Move)
X81.2916 Y41.4173 Z-2.05
(Line Move)
X81.1318 Y43.8067 Z-2.05
(Line Move)
X80.774 Y46.1753 Z-2.05
(Line Move)
X80.2207 Y48.5066 Z-2.05
(Line Move)
X79.4757 Y50.7847 Z-2.05
(Line Move)
X78.5439 Y52.9937 Z-2.05
(Line Move)
X77.4318 Y55.1183 Z-2.05
(Line Move)
X76.147 Y57.1441 Z-2.05
(Line Move)
X74.6984 Y59.0569 Z-2.05
(Line Move)
X73.0957 Y60.8435 Z-2.05
(Line Move)
X71.35 Y62.4917 Z-2.05
(Line Move)
X69.4733 Y63.99 Z-2.05
(Line Move)
X67.4784 Y65.3282 Z-2.05
(Line Move)
X65.379 Y66.4969 Z-2.05
(Line Move)
X63.1894 Y67.4882 Z-2.05
(Line Move)
X60.9247 Y68.2951 Z-2.05
(Line Move)
X58.6004 Y68.9121 Z-2.05
(Line Move)
X56.2324 Y69.3349 Z-2.05
(Line Move)
X53.8368 Y69.5605 Z-2.05
(Line Move)
X51.4301 Y69.5873 Z-2.05
(Line Move)
X49.0288 Y69.4152 Z-2.05
(Line Move)
X46.6492 Y69.0451 Z-2.05
(Line Move)
X44.3077 Y68.4797 Z-2.05
(Line Move)
X42.0203 Y67.7226 Z-2.05
(Line Move)
X39.8025 Y66.7791 Z-2.05
(Line Move)
X37.6696 Y65.6554 Z-2.05
(Line Move)
X35.636 Y64.3593 Z-2.05
(Line Move)
X33.7158 Y62.8994 Z-2.05
(Line Move)
X31.922 Y61.2857 Z-2.05
(Line Move)
X30.2669 Y59.5292 Z-2.05
(Line Move)
X28.7617 Y57.6417 Z-2.05
(Line Move)
X27.4169 Y55.6361 Z-2.05
(Line Move)
X26.2414 Y53.5259 Z-2.05
(Line Move)
X25.2435 Y51.3255 Z-2.05
(Line Move)
X24.4298 Y49.0498 Z-2.05
(Line Move)
X23.8061 Y46.7142 Z-2.05
(Line Move)
X23.3765 Y44.3346 Z-2.05
(Line Move)
X23.1441 Y41.927 Z-2.05
(Line Move)
X23.1105 Y39.5078 Z-2.05
(Line Move)
X23.2759 Y37.0934 Z-2.05
(Line Move)
X23.6393 Y34.7001 Z-2.05
(Line Move)
X24.1983 Y32.3441 Z-2.05
(Line Move)
X24.9492 Y30.0414 Z-2.05
(Line Move)
X25.8869 Y27.8075 Z-2.05
(Line Move)
X27.0052 Y25.6576 Z-2.05
(Line Move)
X28.2965 Y23.6062 Z-2.05
(Line Move)
X29.7523 Y21.6671 Z-2.05
(Line Move)
X31.3627 Y19.8535 Z-2.05
(Line Move)
X33.1168 Y18.1777 Z-2.05
(Line Move)
X35.0031 Y16.651 Z-2.05
(Line Move)
X37.0086 Y15.2837 Z-2.05
(Line Move)
X39.1201 Y14.085 Z-2.05
(Line Move)
X41.3232 Y13.0631 Z-2.05
(Line Move)
X43.6033 Y12.2249 Z-2.05
(Line Move)
X45.945 Y11.5761 Z-2.05
(Line Move)
X48.3327 Y11.121 Z-2.05
(Line Move)
X50.7502 Y10.8629 Z-2.05
(Line Move)
X53.1813 Y10.8034 Z-2.05
(Line Move)
X55.6099 Y10.9431 Z-2.05
(Line Move)
X58.0195 Y11.2811 Z-2.05
(Line Move)
X60.394 Y11.8151 Z-2.05
(Line Move)
X62.7176 Y12.5416 Z-2.05
(Line Move)
X64.9746 Y13.4558 Z-2.05
(Line Move)
X67.15 Y14.5517 Z-2.05
(Line Move)
X69.2291 Y15.822 Z-2.05
(Line Move)
X71.1981 Y17.2582 Z-2.05
(Line Move)
X73.0437 Y18.8508 Z-2.05
(Line Move)
X74.7536 Y20.5892 Z-2.05
(Line Move)
X76.3164 Y22.4619 Z-2.05
(Line Move)
X77.7216 Y24.4563 Z-2.05
(Line Move)
X78.9597 Y26.5592 Z-2.05
(Line Move)
X80.0225 Y28.7567 Z-2.05
(Line Move)
X80.9029 Y31.0341 Z-2.05
(Line Move)
X81.5949 Y33.3763 Z-2.05
(Line Move)
X82.0939 Y35.7678 Z-2.05
(Line Move)
X82.3965 Y38.1926 Z-2.05
(Line Move)
X82.5007 Y40.6346 Z-2.05
(Line Move)
X82.4057 Y43.0776 Z-2.05
(Line Move)
X82.1121 Y45.5055 Z-2.05
(Line Move)
X81.6217 Y47.902 Z-2.05
(Line Move)
X80.9378 Y50.2513 Z-2.05
(Line Move)
X80.0649 Y52.5379 Z-2.05
(Line Move)
X79.0086 Y54.7464 Z-2.05
(Line Move)
X77.776 Y56.8623 Z-2.05
(Line Move)
X76.3752 Y58.8716 Z-2.05
(Line Move)
X74.8153 Y60.7609 Z-2.05
(Line Move)
X73.1066 Y62.5177 Z-2.05
(Line Move)
X71.2604 Y64.1304 Z-2.05
(Line Move)
X69.2889 Y65.5882 Z-2.05
(Line Move)
X67.2049 Y66.8815 Z-2.05
(Line Move)
X65.0224 Y68.0017 Z-2.05
(Line Move)
X62.7555 Y68.9415 Z-2.05
(Line Move)
X60.4193 Y69.6944 Z-2.05
(Line Move)
X58.0291 Y70.2556 Z-2.05
(Line Move)
X55.6007 Y70.6213 Z-2.05
(Line Move)
X53.1499 Y70.7889 Z-2.05
(Line Move)
X50.693 Y70.7575 Z-2.05
(Line Move)
X48.2461 Y70.527 Z-2.05
(Line Move)
X45.8252 Y70.0991 Z-2.05
(Line Move)
X43.4463 Y69.4763 Z-2.05
(Line Move)
X41.1251 Y68.6628 Z-2.05
(Line Move)
X38.8767 Y67.6639 Z-2.05
(Line Move)
X36.7159 Y66.4861 Z-2.05
(Line Move)
X34.657 Y65.1369 Z-2.05
(Line Move)
X32.7133 Y63.6253 Z-2.05
(Line Move)
X30.8978 Y61.9611 Z-2.05
(Line Move)
X29.2223 Y60.1551 Z-2.05
(Line Move)
X27.6979 Y58.2192 Z-2.05
(Line Move)
X26.3344 Y56.1659 Z-2.05
(Line Move)
X25.141 Y54.0086 Z-2.05
(Line Move)
X24.1253 Y51.7614 Z-2.05
(Line Move)
X23.2942 Y49.4389 Z-2.05
(Line Move)
X22.6531 Y47.0564 Z-2.05
(Line Move)
X22.2062 Y44.6292 Z-2.05
(Line Move)
X21.9564 Y42.1733 Z-2.05
(Line Move)
X21.9055 Y39.7046 Z-2.05
(Line Move)
X22.0539 Y37.2392 Z-2.05
(Line Move)
X22.4006 Y34.7932 Z-2.05
(Line Move)
X22.9434 Y32.3824 Z-2.05
(Line Move)
X23.6789 Y30.0226 Z-2.05
(Line Move)
X24.6023 Y27.7291 Z-2.05
(Line Move)
X25.7077 Y25.5169 Z-2.05
(Line Move)
X26.9879 Y23.4003 Z-2.05
(Line Move)
X28.4347 Y21.3931 Z-2.05
(Line Move)
X30.0387 Y19.5083 Z-2.05
(Line Move)
X31.7896 Y17.7583 Z-2.05
(Line Move)
X33.6761 Y16.1543 Z-2.05
(Line Move)
X35.6859 Y14.7069 Z-2.05
(Line Move)
X37.8062 Y13.4254 Z-2.05
(Line Move)
X40.0231 Y12.3181 Z-2.05
(Line Move)
X42.3224 Y11.3923 Z-2.05
(Line Move)
X44.6893 Y10.654 Z-2.05
(Line Move)
X47.1084 Y10.1081 Z-2.05
(Line Move)
X49.5641 Y9.7581 Z-2.05
(Line Move)
X52.0407 Y9.6063 Z-2.05
(Line Move)
X54.5221 Y9.6537 Z-2.05
(Line Move)
X56.9923 Y9.9001 Z-2.05
(Line Move)
X59.4354 Y10.344 Z-2.05
(Line Move)
X61.8356 Y10.9826 Z-2.05
(Line Move)
X64.1775 Y11.8117 Z-2.05
(Line Move)
X66.446 Y12.8262 Z-2.05
(Line Move)
X68.6264 Y14.0194 Z-2.05
(Line Move)
X70.7048 Y15.3839 Z-2.05
(Line Move)
X72.6676 Y16.9108 Z-2.05
(Line Move)
X74.5024 Y18.5904 Z-2.05
(Line Move)
X76.1972 Y20.412 Z-2.05
(Line Move)
X77.7412 Y22.3639 Z-2.05
(Line Move)
X79.1244 Y24.4336 Z-2.05
(Line Move)
X80.3379 Y26.6079 Z-2.05
(Line Move)
X81.3739 Y28.8728 Z-2.05
(Line Move)
X82.2256 Y31.2139 Z-2.05
(Line Move)
X82.8877 Y33.6162 Z-2.05
(Line Move)
X83.3557 Y36.0643 Z-2.05
(Line Move)
X83.6267 Y38.5426 Z-2.05
(Line Move)
X83.6988 Y41.0353 Z-2.05
(Line Move)
X83.5717 Y43.5263 Z-2.05
(Line Move)
X83.2459 Y45.9999 Z-2.05
(Line Move)
X82.7236 Y48.4402 Z-2.05
(Line Move)
X82.008 Y50.8317 Z-2.05
(Line Move)
X81.1037 Y53.159 Z-2.05
(Line Move)
X80.0163 Y55.4072 Z-2.05
(Line Move)
X78.7528 Y57.5622 Z-2.05
(Line Move)
X77.3211 Y59.61 Z-2.05
(Line Move)
X75.7304 Y61.5377 Z-2.05
(Line Move)
X73.9907 Y63.333 Z-2.05
(Line Move)
X72.1129 Y64.9843 Z-2.05
(Line Move)
X70.1092 Y66.4811 Z-2.05
(Line Move)
X67.992 Y67.814 Z-2.05
(Line Move)
X65.7749 Y68.9744 Z-2.05
(Line Move)
X63.4719 Y69.9548 Z-2.05
(Line Move)
X61.0976 Y70.749 Z-2.05
(Line Move)
X58.6671 Y71.352 Z-2.05
(Line Move)
X56.1957 Y71.7598 Z-2.05
(Line Move)
X53.699 Y71.9699 Z-2.05
(Line Move)
X51.1929 Y71.9808 Z-2.05
(Line Move)
X48.6933 Y71.7924 Z-2.05
(Line Move)
X46.216 Y71.4059 Z-2.05
(Line Move)
X43.7766 Y70.8236 Z-2.05
(Line Move)
X41.3906 Y70.0493 Z-2.05
(Line Move)
X39.073 Y69.0876 Z-2.05
(Line Move)
X36.8385 Y67.9447 Z-2.05
(Line Move)
X34.7013 Y66.6278 Z-2.05
(Line Move)
X32.6749 Y65.145 Z-2.05
(Line Move)
X30.772 Y63.5057 Z-2.05
(Line Move)
X29.0047 Y61.7203 Z-2.05
(Line Move)
X27.3841 Y59.7998 Z-2.05
(Line Move)
X25.9206 Y57.7564 Z-2.05
(Line Move)
X24.6233 Y55.6029 Z-2.05
(Line Move)
X23.5004 Y53.3528 Z-2.05
(Line Move)
X22.5592 Y51.0203 Z-2.05
(Line Move)
X21.8054 Y48.62 Z-2.05
(Line Move)
X21.244 Y46.1669 Z-2.05
(Line Move)
X20.8784 Y43.6764 Z-2.05
(Line Move)
X20.7111 Y41.1643 Z-2.05
(Line Move)
X20.7431 Y38.6461 Z-2.05
(Line Move)
X20.9743 Y36.1378 Z-2.05
(Line Move)
X21.4032 Y33.655 Z-2.05
(Line Move)
X22.0273 Y31.2134 Z-2.05
(Line Move)
X22.8427 Y28.8281 Z-2.05
(Line Move)
X23.8443 Y26.5142 Z-2.05
(Line Move)
X25.0259 Y24.2861 Z-2.05
(Line Move)
X26.3801 Y22.1579 Z-2.05
(Line Move)
X27.8986 Y20.1427 Z-2.05
(Line Move)
X29.5719 Y18.2533 Z-2.05
(Line Move)
X31.3896 Y16.5015 Z-2.05
(Line Move)
X33.3403 Y14.8983 Z-2.05
(Line Move)
X35.412 Y13.4536 Z-2.05
(Line Move)
X37.5917 Y12.1766 Z-2.05
(Line Move)
X39.8659 Y11.0752 Z-2.05
(Line Move)
X42.2204 Y10.1564 Z-2.05
(Line Move)
X44.6406 Y9.4259 Z-2.05
(Line Move)
X47.1115 Y8.8882 Z-2.05
(Line Move)
X49.6176 Y8.5469 Z-2.05
(Line Move)
X52.1435 Y8.4041 Z-2.05
(Line Move)
X54.6733 Y8.4607 Z-2.05
(Line Move)
X57.1915 Y8.7164 Z-2.05
(Line Move)
X59.6823 Y9.1696 Z-2.05
(Line Move)
X62.1302 Y9.8177 Z-2.05
(Line Move)
X64.5202 Y10.6566 Z-2.05
(Line Move)
X66.8373 Y11.6812 Z-2.05
(Line Move)
X69.0671 Y12.8851 Z-2.05
(Line Move)
X71.1959 Y14.261 Z-2.05
(Line Move)
X73.2103 Y15.8004 Z-2.05
(Line Move)
X75.098 Y17.4937 Z-2.05
(Line Move)
X76.8472 Y19.3306 Z-2.05
(Line Move)
X78.4471 Y21.2998 Z-2.05
(Line Move)
X79.8876 Y23.389 Z-2.05
(Line Move)
X81.16 Y25.5854 Z-2.05
(Line Move)
X82.2562 Y27.8754 Z-2.05
(Line Move)
X83.1695 Y30.245 Z-2.05
(Line Move)
X83.8941 Y32.6796 Z-2.05
(Line Move)
X84.4257 Y35.1641 Z-2.05
(Line Move)
X84.7608 Y37.6832 Z-2.05
(Line Move)
X84.8973 Y40.2215 Z-2.05
(Line Move)
X84.8344 Y42.7632 Z-2.05
(Line Move)
X84.5724 Y45.2928 Z-2.05
(Line Move)
X84.1128 Y47.7946 Z-2.05
(Line Move)
X83.4584 Y50.2533 Z-2.05
(Line Move)
X82.6132 Y52.6538 Z-2.05
(Line Move)
X81.5824 Y54.9812 Z-2.05
(Line Move)
X80.3723 Y57.2214 Z-2.05
(Line Move)
X78.9901 Y59.3604 Z-2.05
(Line Move)
X77.4444 Y61.3851 Z-2.05
(Line Move)
X75.7447 Y63.2831 Z-2.05
(Line Move)
X73.9012 Y65.0428 Z-2.05
(Line Move)
X71.9253 Y66.6532 Z-2.05
(Line Move)
X69.829 Y68.1046 Z-2.05
(Line Move)
X67.6251 Y69.3879 Z-2.05
(Line Move)
X65.3272 Y70.4953 Z-2.05
(Line Move)
X62.9491 Y71.4199 Z-2.05
(Line Move)
X60.5056 Y72.1561 Z-2.05
(Line Move)
X58.0114 Y72.6994 Z-2.05
(Line Move)
X55.4818 Y73.0463 Z-2.05
(Line Move)
X52.9323 Y73.1946 Z-2.05
(Line Move)
X50.3784 Y73.1435 Z-2.05
(Line Move)
X47.8357 Y72.8932 Z-2.05
(Line Move)
X45.3196 Y72.4452 Z-2.05
(Line Move)
X42.8456 Y71.8021 Z-2.05
(Line Move)
X40.4288 Y70.9678 Z-2.05
(Line Move)
X38.0838 Y69.9474 Z-2.05
(Line Move)
X35.8249 Y68.7471 Z-2.05
(Line Move)
X33.666 Y67.374 Z-2.05
(Line Move)
X31.6201 Y65.8365 Z-2.05
(Line Move)
X29.6998 Y64.144 Z-2.05
(Line Move)
X27.9167 Y62.3066 Z-2.05
(Line Move)
X26.2817 Y60.3355 Z-2.05
(Line Move)
X24.8048 Y58.2426 Z-2.05
(Line Move)
X23.495 Y56.0406 Z-2.05
(Line Move)
X22.3602 Y53.7428 Z-2.05
(Line Move)
X21.4074 Y51.3632 Z-2.05
(Line Move)
X20.6424 Y48.9161 Z-2.05
(Line Move)
X20.0699 Y46.4163 Z-2.05
(Line Move)
X19.6933 Y43.8791 Z-2.05
(Line Move)
X19.5151 Y41.3196 Z-2.05
(Line Move)
X19.5363 Y38.7535 Z-2.05
(Line Move)
X19.7568 Y36.1961 Z-2.05
(Line Move)
X20.1755 Y33.6631 Z-2.05
(Line Move)
X20.7897 Y31.1696 Z-2.05
(Line Move)
X21.5958 Y28.7308 Z-2.05
(Line Move)
X22.5891 Y26.3614 Z-2.05
(Line Move)
X23.7635 Y24.0757 Z-2.05
(Line Move)
X25.112 Y21.8875 Z-2.05
(Line Move)
X26.6265 Y19.81 Z-2.05
(Line Move)
X28.298 Y17.8558 Z-2.05
(Line Move)
X30.1164 Y16.0367 Z-2.05
(Line Move)
X32.0708 Y14.3637 Z-2.05
(Line Move)
X34.1495 Y12.8468 Z-2.05
(Line Move)
X36.3399 Y11.4952 Z-2.05
(Line Move)
X38.629 Y10.3171 Z-2.05
(Line Move)
X41.003 Y9.3196 Z-2.05
(Line Move)
X43.4476 Y8.5088 Z-2.05
(Line Move)
X45.9483 Y7.8895 Z-2.05
(Line Move)
X48.4899 Y7.4656 Z-2.05
(Line Move)
X51.0574 Y7.2396 Z-2.05
(Line Move)
X53.6352 Y7.2128 Z-2.05
(Line Move)
X56.2079 Y7.3856 Z-2.05
(Line Move)
X58.7601 Y7.757 Z-2.05
(Line Move)
X61.2766 Y8.3246 Z-2.05
(Line Move)
X63.7422 Y9.0853 Z-2.05
(Line Move)
X66.1422 Y10.0345 Z-2.05
(Line Move)
X68.4621 Y11.1665 Z-2.05
(Line Move)
X70.6882 Y12.4747 Z-2.05
(Line Move)
X72.8071 Y13.9512 Z-2.05
(Line Move)
X74.8061 Y15.5873 Z-2.05
(Line Move)
X76.6733 Y17.3733 Z-2.05
(Line Move)
X78.3974 Y19.2984 Z-2.05
(Line Move)
X79.9681 Y21.3513 Z-2.05
(Line Move)
X81.3761 Y23.5198 Z-2.05
(Line Move)
X82.613 Y25.791 Z-2.05
(Line Move)
X83.6712 Y28.1512 Z-2.05
(Line Move)
X84.5445 Y30.5866 Z-2.05
(Line Move)
X85.2276 Y33.0827 Z-2.05
(Line Move)
X85.7164 Y35.6245 Z-2.05
(Line Move)
X86.008 Y38.197 Z-2.05
(Line Move)
X86.1006 Y40.7849 Z-2.05
(Line Move)
X85.9935 Y43.3728 Z-2.05
(Line Move)
X85.6875 Y45.9453 Z-2.05
(Line Move)
X85.1841 Y48.4872 Z-2.05
(Line Move)
X84.4865 Y50.9834 Z-2.05
(Line Move)
X83.5986 Y53.4191 Z-2.05
(Line Move)
X82.5258 Y55.7797 Z-2.05
(Line Move)
X81.2743 Y58.0514 Z-2.05
(Line Move)
X79.8514 Y60.2205 Z-2.05
(Line Move)
X78.2657 Y62.2743 Z-2.05
(Line Move)
X76.5264 Y64.2005 Z-2.05
(Line Move)
X74.6437 Y65.9878 Z-2.05
(Line Move)
X72.6289 Y67.6255 Z-2.05
(Line Move)
X70.4937 Y69.1039 Z-2.05
(Line Move)
X68.2508 Y70.4142 Z-2.05
(Line Move)
X65.9134 Y71.5487 Z-2.05
(Line Move)
X63.4953 Y72.5006 Z-2.05
(Line Move)
X61.0107 Y73.2642 Z-2.05
(Line Move)
X58.4742 Y73.8351 Z-2.05
(Line Move)
X56.5186 Y74.1198 Z-2.05
(Line Move)
X56.3852 Y74.1301 Z-2.05
(Line Move)
X54.4452 Y74.2198 Z-2.05
(Line Move)
X52.5 Y74.2498 Z-2.05
(Line Move)
X50.5548 Y74.2198 Z-2.05
(Line Move)
X48.6148 Y74.1301 Z-2.05
(Line Move)
X47.5517 Y74.048 Z-2.05
(Line Move)
X45.5432 Y73.7187 Z-2.05
(Line Move)
X43.0139 Y73.102 Z-2.05
(Line Move)
X40.5389 Y72.2931 Z-2.05
(Line Move)
X38.1325 Y71.2967 Z-2.05
(Line Move)
X35.809 Y70.1187 Z-2.05
(Line Move)
X33.5821 Y68.766 Z-2.05
(Line Move)
X31.4648 Y67.2464 Z-2.05
(Line Move)
X29.4696 Y65.5688 Z-2.05
(Line Move)
X27.6082 Y63.743 Z-2.05
(Line Move)
X25.8916 Y61.7797 Z-2.05
(Line Move)
X24.3298 Y59.6905 Z-2.05
(Line Move)
X22.9322 Y57.4874 Z-2.05
(Line Move)
X21.7068 Y55.1834 Z-2.05
(Line Move)
X20.6609 Y52.7919 Z-2.05
(Line Move)
X19.8006 Y50.327 Z-2.05
(Line Move)
X19.1311 Y47.803 Z-2.05
(Line Move)
X18.6563 Y45.2346 Z-2.05
(Line Move)
X18.379 Y42.6369 Z-2.05
(Line Move)
X18.3008 Y40.0251 Z-2.05
(Line Move)
X18.4223 Y37.4143 Z-2.05
(Line Move)
X18.7429 Y34.8199 Z-2.05
(Line Move)
X19.2606 Y32.257 Z-2.05
(Line Move)
X19.9725 Y29.7404 Z-2.05
(Line Move)
X20.8745 Y27.285 Z-2.05
(Line Move)
X21.9614 Y24.9051 Z-2.05
(Line Move)
X23.2269 Y22.6144 Z-2.05
(Line Move)
X24.6637 Y20.4265 Z-2.05
(Line Move)
X26.2634 Y18.3539 Z-2.05
(Line Move)
X28.0168 Y16.4089 Z-2.05
(Line Move)
X29.9137 Y14.6027 Z-2.05
(Line Move)
X31.9431 Y12.946 Z-2.05
(Line Move)
X34.0932 Y11.4482 Z-2.05
(Line Move)
X36.3517 Y10.1183 Z-2.05
(Line Move)
X38.7053 Y8.9639 Z-2.05
(Line Move)
X41.1405 Y7.9918 Z-2.05
(Line Move)
X42.5683 Y7.5445 Z-2.05
(Line Move)
X42.8767 Y7.4915 Z-2.05
(Line Move)
X44.7708 Y7.2265 Z-2.05
(Line Move)
X46.6851 Y7.019 Z-2.05
(Line Move)
X48.6148 Y6.8699 Z-2.05
(Line Move)
X50.5548 Y6.7802 Z-2.05
(Line Move)
X52.5 Y6.7502 Z-2.05
(Line Move)
X54.4452 Y6.7802 Z-2.05
(Line Move)
X56.3852 Y6.8699 Z-2.05
(Line Move)
X58.3149 Y7.019 Z-2.05
(Line Move)
X60.2292 Y7.2265 Z-2.05
(Line Move)
X62.1233 Y7.4915 Z-2.05
(Line Move)
X63.2877 Y7.6914 Z-2.05
(Line Move)
X64.3109 Y8.0138 Z-2.05
(Line Move)
X66.75 Y8.9913 Z-2.05
(Line Move)
X69.1083 Y10.1515 Z-2.05
(Line Move)
X71.3721 Y11.4878 Z-2.05
(Line Move)
X73.5285 Y12.9923 Z-2.05
(Line Move)
X75.5649 Y14.6565 Z-2.05
(Line Move)
X77.4696 Y16.4708 Z-2.05
(Line Move)
X79.2315 Y18.4248 Z-2.05
(Line Move)
X80.8405 Y20.5072 Z-2.05
(Line Move)
X82.2872 Y22.7061 Z-2.05
(Line Move)
X83.5634 Y25.0089 Z-2.05
(Line Move)
X84.6615 Y27.4022 Z-2.05
(Line Move)
X85.5753 Y29.8725 Z-2.05
(Line Move)
X86.2995 Y32.4054 Z-2.05
(Line Move)
X86.8298 Y34.9864 Z-2.05
(Line Move)
X87.1632 Y37.6008 Z-2.05
(Line Move)
X87.2977 Y40.2334 Z-2.05
(Line Move)
X87.2325 Y42.8692 Z-2.05
(Line Move)
X86.9679 Y45.4931 Z-2.05
(Line Move)
X86.5054 Y48.09 Z-2.05
(Line Move)
X85.8476 Y50.645 Z-2.05
(Line Move)
X84.9982 Y53.1434 Z-2.05
(Line Move)
X83.9621 Y55.5709 Z-2.05
(Line Move)
X82.7451 Y57.9137 Z-2.05
(Line Move)
X81.3542 Y60.1582 Z-2.05
(Line Move)
X79.7974 Y62.2916 Z-2.05
(Line Move)
X78.0834 Y64.3017 Z-2.05
(Line Move)
X76.222 Y66.1769 Z-2.05
(Line Move)
X74.2239 Y67.9066 Z-2.05
(Line Move)
X72.1004 Y69.4807 Z-2.05
(Line Move)
X69.8637 Y70.8903 Z-2.05
(Line Move)
X67.5264 Y72.1272 Z-2.05
(Line Move)
X66.1027 Y72.7481 Z-2.05
(Line Move)
X65.8318 Y72.8123 Z-2.05
(Line Move)
X63.9923 Y73.1876 Z-2.05
(Line Move)
X62.1233 Y73.5085 Z-2.05
(Line Move)
X60.2292 Y73.7735 Z-2.05
(Line Move)
X58.3149 Y73.981 Z-2.05
(Line Move)
X56.3852 Y74.1301 Z-2.05
(Line Move)
X54.4452 Y74.2198 Z-2.05
(Line Move)
X52.5 Y74.2498 Z-2.05
(Line Move)
X50.5548 Y74.2198 Z-2.05
(Line Move)
X48.6148 Y74.1301 Z-2.05
(Line Move)
X46.6851 Y73.981 Z-2.05
(Line Move)
X44.7708 Y73.7735 Z-2.05
(Line Move)
X42.8767 Y73.5085 Z-2.05
(Line Move)
X41.0077 Y73.1876 Z-2.05
(Line Move)
X39.1682 Y72.8123 Z-2.05
(Line Move)
X38.0427 Y72.5457 Z-2.05
(Line Move)
X36.8178 Y72.0004 Z-2.05
(Line Move)
X34.4834 Y70.7427 Z-2.05
(Line Move)
X32.2499 Y69.3126 Z-2.05
(Line Move)
X30.1299 Y67.7181 Z-2.05
(Line Move)
X28.1355 Y65.9682 Z-2.05
(Line Move)
X26.278 Y64.0728 Z-2.05
(Line Move)
X24.568 Y62.0427 Z-2.05
(Line Move)
X23.0152 Y59.8893 Z-2.05
(Line Move)
X21.6284 Y57.6247 Z-2.05
(Line Move)
X20.4155 Y55.2618 Z-2.05
(Line Move)
X19.3834 Y52.814 Z-2.05
(Line Move)
X18.538 Y50.2949 Z-2.05
(Line Move)
X17.8842 Y47.719 Z-2.05
(Line Move)
X17.4255 Y45.1007 Z-2.05
(Line Move)
X17.1647 Y42.4547 Z-2.05
(Line Move)
X17.1034 Y39.7962 Z-2.05
(Line Move)
X17.2418 Y37.1399 Z-2.05
(Line Move)
X17.5792 Y34.501 Z-2.05
(Line Move)
X18.1138 Y31.8944 Z-2.05
(Line Move)
X18.8426 Y29.3346 Z-2.05
(Line Move)
X19.7616 Y26.8362 Z-2.05
(Line Move)
X20.8656 Y24.4133 Z-2.05
(Line Move)
X22.1484 Y22.0795 Z-2.05
(Line Move)
X23.6028 Y19.848 Z-2.05
(Line Move)
X25.2207 Y17.7313 Z-2.05
(Line Move)
X26.9931 Y15.7414 Z-2.05
(Line Move)
X28.9099 Y13.8895 Z-2.05
(Line Move)
X30.9605 Y12.186 Z-2.05
(Line Move)
X33.1334 Y10.6406 Z-2.05
(Line Move)
X35.4163 Y9.2619 Z-2.05
(Line Move)
X35.9268 Y9.0037 Z-2.05
(Line Move)
X37.3626 Y8.6154 Z-2.05
(Line Move)
X39.1682 Y8.1877 Z-2.05
(Line Move)
X41.0077 Y7.8124 Z-2.05
(Line Move)
X42.8767 Y7.4915 Z-2.05
(Line Move)
X44.7708 Y7.2265 Z-2.05
(Line Move)
X46.6851 Y7.019 Z-2.05
(Line Move)
X48.6148 Y6.8699 Z-2.05
(Line Move)
X50.5548 Y6.7802 Z-2.05
(Line Move)
X52.5 Y6.7502 Z-2.05
(Line Move)
X54.4452 Y6.7802 Z-2.05
(Line Move)
X56.3852 Y6.8699 Z-2.05
(Line Move)
X58.3149 Y7.019 Z-2.05
(Line Move)
X60.2292 Y7.2265 Z-2.05
(Line Move)
X62.1233 Y7.4915 Z-2.05
(Line Move)
X63.9923 Y7.8124 Z-2.05
(Line Move)
X65.8318 Y8.1877 Z-2.05
(Line Move)
X67.6374 Y8.6154 Z-2.05
(Line Move)
X69.4052 Y9.0934 Z-2.05
(Line Move)
X69.8975 Y9.2434 Z-2.05
(Line Move)
X71.1263 Y9.9218 Z-2.05
(Line Move)
X73.3652 Y11.3858 Z-2.05
(Line Move)
X75.489 Y13.0133 Z-2.05
(Line Move)
X77.4858 Y14.795 Z-2.05
(Line Move)
X79.3445 Y16.7211 Z-2.05
(Line Move)
X81.0546 Y18.781 Z-2.05
(Line Move)
X82.6067 Y20.9631 Z-2.05
(Line Move)
X83.9921 Y23.2553 Z-2.05
(Line Move)
X85.2029 Y25.645 Z-2.05
(Line Move)
X86.2325 Y28.1187 Z-2.05
(Line Move)
X87.075 Y30.6628 Z-2.05
(Line Move)
X87.7257 Y33.2631 Z-2.05
(Line Move)
X88.1811 Y35.9052 Z-2.05
(Line Move)
X88.4384 Y38.5744 Z-2.05
(Line Move)
X88.4962 Y41.2559 Z-2.05
(Line Move)
X88.3543 Y43.9348 Z-2.05
(Line Move)
X88.0132 Y46.5962 Z-2.05
(Line Move)
X87.4749 Y49.2254 Z-2.05
(Line Move)
X86.7423 Y51.8077 Z-2.05
(Line Move)
X85.8195 Y54.329 Z-2.05
(Line Move)
X84.7114 Y56.775 Z-2.05
(Line Move)
X83.4243 Y59.1324 Z-2.05
(Line Move)
X81.9651 Y61.388 Z-2.05
(Line Move)
X80.342 Y63.5294 Z-2.05
(Line Move)
X78.5639 Y65.5445 Z-2.05
(Line Move)
X76.6406 Y67.4224 Z-2.05
(Line Move)
X74.5826 Y69.1525 Z-2.05
(Line Move)
X72.4014 Y70.7253 Z-2.05
(Line Move)
X71.5841 Y71.2269 Z-2.05
(Line Move)
X71.1314 Y71.3807 Z-2.05
(Line Move)
X69.4052 Y71.9066 Z-2.05
(Line Move)
X67.6374 Y72.3846 Z-2.05
(Line Move)
X65.8318 Y72.8123 Z-2.05
(Line Move)
X63.9923 Y73.1876 Z-2.05
(Line Move)
X62.1233 Y73.5085 Z-2.05
(Line Move)
X60.2292 Y73.7735 Z-2.05
(Line Move)
X58.3149 Y73.981 Z-2.05
(Line Move)
X56.3852 Y74.1301 Z-2.05
(Line Move)
X54.4452 Y74.2198 Z-2.05
(Line Move)
X52.5 Y74.2498 Z-2.05
(Line Move)
X50.5548 Y74.2198 Z-2.05
(Line Move)
X48.6148 Y74.1301 Z-2.05
(Line Move)
X46.6851 Y73.981 Z-2.05
(Line Move)
X44.7708 Y73.7735 Z-2.05
(Line Move)
X42.8767 Y73.5085 Z-2.05
(Line Move)
X41.0077 Y73.1876 Z-2.05
(Line Move)
X39.1682 Y72.8123 Z-2.05
(Line Move)
X37.3626 Y72.3846 Z-2.05
(Line Move)
X35.5948 Y71.9066 Z-2.05
(Line Move)
X33.8686 Y71.3807 Z-2.05
(Line Move)
X32.5517 Y70.9332 Z-2.05
(Line Move)
X31.7827 Y70.4479 Z-2.05
(Line Move)
X29.6136 Y68.8431 Z-2.05
(Line Move)
X27.5689 Y67.0818 Z-2.05
(Line Move)
X25.6598 Y65.1735 Z-2.05
(Line Move)
X23.8968 Y63.1289 Z-2.05
(Line Move)
X22.2896 Y60.959 Z-2.05
(Line Move)
X20.8469 Y58.6757 Z-2.05
(Line Move)
X19.5769 Y56.2915 Z-2.05
(Line Move)
X18.4863 Y53.8194 Z-2.05
(Line Move)
X17.5814 Y51.273 Z-2.05
(Line Move)
X16.8669 Y48.6662 Z-2.05
(Line Move)
X16.347 Y46.0131 Z-2.05
(Line Move)
X16.0244 Y43.3284 Z-2.05
(Line Move)
X15.901 Y40.6266 Z-2.05
(Line Move)
X15.9775 Y37.9226 Z-2.05
(Line Move)
X16.2535 Y35.2311 Z-2.05
(Line Move)
X16.7276 Y32.5668 Z-2.05
(Line Move)
X17.3971 Y29.9442 Z-2.05
(Line Move)
X18.2586 Y27.3777 Z-2.05
(Line Move)
X19.3072 Y24.8813 Z-2.05
(Line Move)
X20.5374 Y22.4685 Z-2.05
(Line Move)
X21.9425 Y20.1526 Z-2.05
(Line Move)
X23.5148 Y17.9462 Z-2.05
(Line Move)
X25.2459 Y15.8614 Z-2.05
(Line Move)
X27.1263 Y13.9094 Z-2.05
(Line Move)
X29.1459 Y12.101 Z-2.05
(Line Move)
X31.0894 Y10.6034 Z-2.05
(Line Move)
X32.1873 Y10.1906 Z-2.05
(Line Move)
X33.8686 Y9.6193 Z-2.05
(Line Move)
X35.5948 Y9.0934 Z-2.05
(Line Move)
X37.3626 Y8.6154 Z-2.05
(Line Move)
X39.1682 Y8.1877 Z-2.05
(Line Move)
X41.0077 Y7.8124 Z-2.05
(Line Move)
X42.8767 Y7.4915 Z-2.05
(Line Move)
X44.7708 Y7.2265 Z-2.05
(Line Move)
X46.6851 Y7.019 Z-2.05
(Line Move)
X48.6148 Y6.8699 Z-2.05
(Line Move)
X50.5548 Y6.7802 Z-2.05
(Line Move)
X52.5 Y6.7502 Z-2.05
(Line Move)
X54.4452 Y6.7802 Z-2.05
(Line Move)
X56.3852 Y6.8699 Z-2.05
(Line Move)
X58.3149 Y7.019 Z-2.05
(Line Move)
X60.2292 Y7.2265 Z-2.05
(Line Move)
X62.1233 Y7.4915 Z-2.05
(Line Move)
X63.9923 Y7.8124 Z-2.05
(Line Move)
X65.8318 Y8.1877 Z-2.05
(Line Move)
X67.6374 Y8.6154 Z-2.05
(Line Move)
X69.4052 Y9.0934 Z-2.05
(Line Move)
X71.1314 Y9.6193 Z-2.05
(Line Move)
X72.8127 Y10.1906 Z-2.05
(Line Move)
X74.446 Y10.8046 Z-2.05
(Line Move)
X74.7761 Y10.941 Z-2.05
(Line Move)
X76.6571 Y12.4271 Z-2.05
(Line Move)
X78.6629 Y14.2665 Z-2.05
(Line Move)
X80.5285 Y16.2485 Z-2.05
(Line Move)
X82.244 Y18.3625 Z-2.05
(Line Move)
X83.8 Y20.5971 Z-2.05
(Line Move)
X85.1881 Y22.9404 Z-2.05
(Line Move)
X86.4009 Y25.3796 Z-2.05
(Line Move)
X87.4316 Y27.9016 Z-2.05
(Line Move)
X88.2748 Y30.493 Z-2.05
(Line Move)
X88.9259 Y33.1397 Z-2.05
(Line Move)
X89.3813 Y35.8275 Z-2.05
(Line Move)
X89.6385 Y38.542 Z-2.05
(Line Move)
X89.6962 Y41.2686 Z-2.05
(Line Move)
X89.5539 Y43.9926 Z-2.05
(Line Move)
X89.2124 Y46.6993 Z-2.05
(Line Move)
X88.6734 Y49.3743 Z-2.05
(Line Move)
X87.94 Y52.0032 Z-2.05
(Line Move)
X87.0158 Y54.5718 Z-2.05
(Line Move)
X85.9059 Y57.0663 Z-2.05
(Line Move)
X84.6162 Y59.4734 Z-2.05
(Line Move)
X83.1536 Y61.7801 Z-2.05
(Line Move)
X81.5258 Y63.9741 Z-2.05
(Line Move)
X79.7416 Y66.0435 Z-2.05
(Line Move)
X77.8104 Y67.9772 Z-2.05
(Line Move)
X75.976 Y69.5632 Z-2.05
(Line Move)
X74.446 Y70.1954 Z-2.05
(Line Move)
X72.8127 Y70.8094 Z-2.05
(Line Move)
X71.1314 Y71.3807 Z-2.05
(Line Move)
X69.4052 Y71.9066 Z-2.05
(Line Move)
X67.6374 Y72.3846 Z-2.05
(Line Move)
X65.8318 Y72.8123 Z-2.05
(Line Move)
X63.9923 Y73.1876 Z-2.05
(Line Move)
X62.1233 Y73.5085 Z-2.05
(Line Move)
X60.2292 Y73.7735 Z-2.05
(Line Move)
X58.3149 Y73.981 Z-2.05
(Line Move)
X56.3852 Y74.1301 Z-2.05
(Line Move)
X54.4452 Y74.2198 Z-2.05
(Line Move)
X52.5 Y74.2498 Z-2.05
(Line Move)
X50.5548 Y74.2198 Z-2.05
(Line Move)
X48.6148 Y74.1301 Z-2.05
(Line Move)
X46.6851 Y73.981 Z-2.05
(Line Move)
X44.7708 Y73.7735 Z-2.05
(Line Move)
X42.8767 Y73.5085 Z-2.05
(Line Move)
X41.0077 Y73.1876 Z-2.05
(Line Move)
X39.1682 Y72.8123 Z-2.05
(Line Move)
X37.3626 Y72.3846 Z-2.05
(Line Move)
X35.5948 Y71.9066 Z-2.05
(Line Move)
X33.8686 Y71.3807 Z-2.05
(Line Move)
X32.1873 Y70.8094 Z-2.05
(Line Move)
X30.554 Y70.1954 Z-2.05
(Line Move)
X28.9713 Y69.5415 Z-2.05
(Line Move)
X28.1322 Y69.1625 Z-2.05
(Line Move)
X27.7825 Y68.8825 Z-2.05
(Line Move)
X25.7709 Y67.0165 Z-2.05
(Line Move)
X23.9002 Y65.0086 Z-2.05
(Line Move)
X22.1804 Y62.8694 Z-2.05
(Line Move)
X20.6206 Y60.6103 Z-2.05
(Line Move)
X19.2292 Y58.2431 Z-2.05
(Line Move)
X18.0135 Y55.7805 Z-2.05
(Line Move)
X16.98 Y53.2355 Z-2.05
(Line Move)
X16.1343 Y50.6215 Z-2.05
(Line Move)
X15.4808 Y47.9524 Z-2.05
(Line Move)
X15.0231 Y45.2424 Z-2.05
(Line Move)
X14.7636 Y42.5058 Z-2.05
(Line Move)
X14.7037 Y39.757 Z-2.05
(Line Move)
X14.8438 Y37.0106 Z-2.05
(Line Move)
X15.1832 Y34.2812 Z-2.05
(Line Move)
X15.7202 Y31.5832 Z-2.05
(Line Move)
X16.4519 Y28.9307 Z-2.05
(Line Move)
X17.3744 Y26.338 Z-2.05
(Line Move)
X18.4831 Y23.8186 Z-2.05
(Line Move)
X19.772 Y21.386 Z-2.05
(Line Move)
X21.2343 Y19.0528 Z-2.05
(Line Move)
X22.8625 Y16.8316 Z-2.05
(Line Move)
X24.6478 Y14.734 Z-2.05
(Line Move)
X26.5811 Y12.7711 Z-2.05
(Line Move)
X27.0952 Y12.3198 Z-2.05
(Line Move)
X27.4416 Y12.1495 Z-2.05
(Line Move)
X28.9713 Y11.4585 Z-2.05
(Line Move)
X30.554 Y10.8046 Z-2.05
(Line Move)
X32.1873 Y10.1906 Z-2.05
(Line Move)
X33.8686 Y9.6193 Z-2.05
(Line Move)
X35.5948 Y9.0934 Z-2.05
(Line Move)
X37.3626 Y8.6154 Z-2.05
(Line Move)
X39.1682 Y8.1877 Z-2.05
(Line Move)
X41.0077 Y7.8124 Z-2.05
(Line Move)
X42.8767 Y7.4915 Z-2.05
(Line Move)
X44.7708 Y7.2265 Z-2.05
(Line Move)
X46.6851 Y7.019 Z-2.05
(Line Move)
X48.6148 Y6.8699 Z-2.05
(Line Move)
X50.5548 Y6.7802 Z-2.05
(Line Move)
X52.5 Y6.7502 Z-2.05
(Line Move)
X54.4452 Y6.7802 Z-2.05
(Line Move)
X56.3852 Y6.8699 Z-2.05
(Line Move)
X58.3149 Y7.019 Z-2.05
(Line Move)
X60.2292 Y7.2265 Z-2.05
(Line Move)
X62.1233 Y7.4915 Z-2.05
(Line Move)
X63.9923 Y7.8124 Z-2.05
(Line Move)
X65.8318 Y8.1877 Z-2.05
(Line Move)
X67.6374 Y8.6154 Z-2.05
(Line Move)
X69.4052 Y9.0934 Z-2.05
(Line Move)
X71.1314 Y9.6193 Z-2.05
(Line Move)
X72.8127 Y10.1906 Z-2.05
(Line Move)
X74.446 Y10.8046 Z-2.05
(Line Move)
X76.0287 Y11.4585 Z-2.05
(Line Move)
X77.5584 Y12.1495 Z-2.05
(Line Move)
X78.8201 Y12.7698 Z-2.05
(Line Move)
X79.1307 Y13.0473 Z-2.05
(Line Move)
X81.0553 Y15.0343 Z-2.05
(Line Move)
X82.8316 Y17.1556 Z-2.05
(Line Move)
X84.4502 Y19.4001 Z-2.05
(Line Move)
X85.9028 Y21.7561 Z-2.05
(Line Move)
X87.1816 Y24.2113 Z-2.05
(Line Move)
X88.2801 Y26.7529 Z-2.05
(Line Move)
X89.1923 Y29.3676 Z-2.05
(Line Move)
X89.9135 Y32.0419 Z-2.05
(Line Move)
X90.44 Y34.7617 Z-2.05
(Line Move)
X90.7689 Y37.513 Z-2.05
(Line Move)
X90.8984 Y40.2813 Z-2.05
(Line Move)
X90.828 Y43.0522 Z-2.05
(Line Move)
X90.5578 Y45.8113 Z-2.05
(Line Move)
X90.0893 Y48.5443 Z-2.05
(Line Move)
X89.4249 Y51.2369 Z-2.05
(Line Move)
X88.5679 Y53.875 Z-2.05
(Line Move)
X87.5228 Y56.4451 Z-2.05
(Line Move)
X86.2951 Y58.9335 Z-2.05
(Line Move)
X84.891 Y61.3275 Z-2.05
(Line Move)
X83.3179 Y63.6146 Z-2.05
(Line Move)
X81.5838 Y65.7828 Z-2.05
(Line Move)
X79.7886 Y67.7227 Z-2.05
(Line Move)
X79.033 Y68.1255 Z-2.05
(Line Move)
X77.5584 Y68.8505 Z-2.05
(Line Move)
X76.0287 Y69.5415 Z-2.05
(Line Move)
X74.446 Y70.1954 Z-2.05
(Line Move)
X72.8127 Y70.8094 Z-2.05
(Line Move)
X71.1314 Y71.3807 Z-2.05
(Line Move)
X69.4052 Y71.9066 Z-2.05
(Line Move)
X67.6374 Y72.3846 Z-2.05
(Line Move)
X65.8318 Y72.8123 Z-2.05
(Line Move)
X63.9923 Y73.1876 Z-2.05
(Line Move)
X62.1233 Y73.5085 Z-2.05
(Line Move)
X60.2292 Y73.7735 Z-2.05
(Line Move)
X58.3149 Y73.981 Z-2.05
(Line Move)
X56.3852 Y74.1301 Z-2.05
(Line Move)
X54.4452 Y74.2198 Z-2.05
(Line Move)
X52.5 Y74.2498 Z-2.05
(Line Move)
X50.5548 Y74.2198 Z-2.05
(Line Move)
X48.6148 Y74.1301 Z-2.05
(Line Move)
X46.6851 Y73.981 Z-2.05
(Line Move)
X44.7708 Y73.7735 Z-2.05
(Line Move)
X42.8767 Y73.5085 Z-2.05
(Line Move)
X41.0077 Y73.1876 Z-2.05
(Line Move)
X39.1682 Y72.8123 Z-2.05
(Line Move)
X37.3626 Y72.3846 Z-2.05
(Line Move)
X35.5948 Y71.9066 Z-2.05
(Line Move)
X33.8686 Y71.3807 Z-2.05
(Line Move)
X32.1873 Y70.8094 Z-2.05
(Line Move)
X30.554 Y70.1954 Z-2.05
(Line Move)
X28.9713 Y69.5415 Z-2.05
(Line Move)
X27.4416 Y68.8505 Z-2.05
(Line Move)
X25.967 Y68.1255 Z-2.05
(Line Move)
X24.5489 Y67.3694 Z-2.05
(Line Move)
X24.3359 Y67.2466 Z-2.05
(Line Move)
X22.7744 Y65.5394 Z-2.05
(Line Move)
X21.0446 Y63.3517 Z-2.05
(Line Move)
X19.4758 Y61.0453 Z-2.05
(Line Move)
X18.0761 Y58.632 Z-2.05
(Line Move)
X16.8527 Y56.124 Z-2.05
(Line Move)
X15.812 Y53.5344 Z-2.05
(Line Move)
X14.9593 Y50.8764 Z-2.05
(Line Move)
X14.2991 Y48.1637 Z-2.05
(Line Move)
X13.8348 Y45.4102 Z-2.05
(Line Move)
X13.5688 Y42.63 Z-2.05
(Line Move)
X13.5025 Y39.8374 Z-2.05
(Line Move)
X13.6364 Y37.0467 Z-2.05
(Line Move)
X13.9696 Y34.2723 Z-2.05
(Line Move)
X14.5006 Y31.5283 Z-2.05
(Line Move)
X15.2267 Y28.8289 Z-2.05
(Line Move)
X16.1442 Y26.1878 Z-2.05
(Line Move)
X17.2485 Y23.6187 Z-2.05
(Line Move)
X18.5338 Y21.1347 Z-2.05
(Line Move)
X19.9937 Y18.7485 Z-2.05
(Line Move)
X21.6207 Y16.4724 Z-2.05
(Line Move)
X23.4066 Y14.3179 Z-2.05
(Line Move)
X23.4681 Y14.2537 Z-2.05
(Line Move)
X24.5489 Y13.6306 Z-2.05
(Line Move)
X25.967 Y12.8745 Z-2.05
(Line Move)
X27.4416 Y12.1495 Z-2.05
(Line Move)
X28.9713 Y11.4585 Z-2.05
(Line Move)
X30.554 Y10.8046 Z-2.05
(Line Move)
X32.1873 Y10.1906 Z-2.05
(Line Move)
X33.8686 Y9.6193 Z-2.05
(Line Move)
X35.5948 Y9.0934 Z-2.05
(Line Move)
X37.3626 Y8.6154 Z-2.05
(Line Move)
X39.1682 Y8.1877 Z-2.05
(Line Move)
X41.0077 Y7.8124 Z-2.05
(Line Move)
X42.8767 Y7.4915 Z-2.05
(Line Move)
X44.7708 Y7.2265 Z-2.05
(Line Move)
X46.6851 Y7.019 Z-2.05
(Line Move)
X48.6148 Y6.8699 Z-2.05
(Line Move)
X50.5548 Y6.7802 Z-2.05
(Line Move)
X52.5 Y6.7502 Z-2.05
(Line Move)
X54.4452 Y6.7802 Z-2.05
(Line Move)
X56.3852 Y6.8699 Z-2.05
(Line Move)
X58.3149 Y7.019 Z-2.05
(Line Move)
X60.2292 Y7.2265 Z-2.05
(Line Move)
X62.1233 Y7.4915 Z-2.05
(Line Move)
X63.9923 Y7.8124 Z-2.05
(Line Move)
X65.8318 Y8.1877 Z-2.05
(Line Move)
X67.6374 Y8.6154 Z-2.05
(Line Move)
X69.4052 Y9.0934 Z-2.05
(Line Move)
X71.1314 Y9.6193 Z-2.05
(Line Move)
X72.8127 Y10.1906 Z-2.05
(Line Move)
X74.446 Y10.8046 Z-2.05
(Line Move)
X76.0287 Y11.4585 Z-2.05
(Line Move)
X77.5584 Y12.1495 Z-2.05
(Line Move)
X79.033 Y12.8745 Z-2.05
(Line Move)
X80.4511 Y13.6306 Z-2.05
(Line Move)
X81.8112 Y14.4147 Z-2.05
(Line Move)
X82.4268 Y14.7975 Z-2.05
(Line Move)
X82.7894 Y15.1975 Z-2.05
(Line Move)
X84.5241 Y17.409 Z-2.05
(Line Move)
X86.0973 Y19.7388 Z-2.05
(Line Move)
X87.5011 Y22.175 Z-2.05
(Line Move)
X88.7282 Y24.7053 Z-2.05
(Line Move)
X89.7725 Y27.3169 Z-2.05
(Line Move)
X90.6286 Y29.9966 Z-2.05
(Line Move)
X91.2921 Y32.7309 Z-2.05
(Line Move)
X91.7596 Y35.5059 Z-2.05
(Line Move)
X92.0288 Y38.3077 Z-2.05
(Line Move)
X92.0983 Y41.1219 Z-2.05
(Line Move)
X91.9676 Y43.9345 Z-2.05
(Line Move)
X91.6374 Y46.7312 Z-2.05
(Line Move)
X91.1093 Y49.4978 Z-2.05
(Line Move)
X90.386 Y52.2204 Z-2.05
(Line Move)
X89.471 Y54.8853 Z-2.05
(Line Move)
X88.369 Y57.4789 Z-2.05
(Line Move)
X87.0854 Y59.9882 Z-2.05
(Line Move)
X85.6268 Y62.4006 Z-2.05
(Line Move)
X84.0004 Y64.7037 Z-2.05
(Line Move)
X83.1354 Y65.7607 Z-2.05
(Line Move)
X83.1125 Y65.776 Z-2.05
(Line Move)
X81.8112 Y66.5853 Z-2.05
(Line Move)
X80.4511 Y67.3694 Z-2.05
(Line Move)
X79.033 Y68.1255 Z-2.05
(Line Move)
X77.5584 Y68.8505 Z-2.05
(Line Move)
X76.0287 Y69.5415 Z-2.05
(Line Move)
X74.446 Y70.1954 Z-2.05
(Line Move)
X72.8127 Y70.8094 Z-2.05
(Line Move)
X71.1314 Y71.3807 Z-2.05
(Line Move)
X69.4052 Y71.9066 Z-2.05
(Line Move)
X67.6374 Y72.3846 Z-2.05
(Line Move)
X65.8318 Y72.8123 Z-2.05
(Line Move)
X63.9923 Y73.1876 Z-2.05
(Line Move)
X62.1233 Y73.5085 Z-2.05
(Line Move)
X60.2292 Y73.7735 Z-2.05
(Line Move)
X58.3149 Y73.981 Z-2.05
(Line Move)
X56.3852 Y74.1301 Z-2.05
(Line Move)
X54.4452 Y74.2198 Z-2.05
(Line Move)
X52.5 Y74.2498 Z-2.05
(Line Move)
X50.5548 Y74.2198 Z-2.05
(Line Move)
X48.6148 Y74.1301 Z-2.05
(Line Move)
X46.6851 Y73.981 Z-2.05
(Line Move)
X44.7708 Y73.7735 Z-2.05
(Line Move)
X42.8767 Y73.5085 Z-2.05
(Line Move)
X41.0077 Y73.1876 Z-2.05
(Line Move)
X39.1682 Y72.8123 Z-2.05
(Line Move)
X37.3626 Y72.3846 Z-2.05
(Line Move)
X35.5948 Y71.9066 Z-2.05
(Line Move)
X33.8686 Y71.3807 Z-2.05
(Line Move)
X32.1873 Y70.8094 Z-2.05
(Line Move)
X30.554 Y70.1954 Z-2.05
(Line Move)
X28.9713 Y69.5415 Z-2.05
(Line Move)
X27.4416 Y68.8505 Z-2.05
(Line Move)
X25.967 Y68.1255 Z-2.05
(Line Move)
X24.5489 Y67.3694 Z-2.05
(Line Move)
X23.2006 Y66.5921 Z-2.05
(Line Move)
X20.8954 Y65.1083 Z-2.05
(Line Move)
X20.4641 Y64.5801 Z-2.05
(Line Move)
X18.8321 Y62.2648 Z-2.05
(Line Move)
X17.3675 Y59.8396 Z-2.05
(Line Move)
X16.0776 Y57.3166 Z-2.05
(Line Move)
X14.9687 Y54.7084 Z-2.05
(Line Move)
X14.0466 Y52.028 Z-2.05
(Line Move)
X13.3158 Y49.2888 Z-2.05
(Line Move)
X12.7801 Y46.5043 Z-2.05
(Line Move)
X12.442 Y43.6885 Z-2.05
(Line Move)
X12.3034 Y40.8554 Z-2.05
(Line Move)
X12.365 Y38.019 Z-2.05
(Line Move)
X12.6264 Y35.1936 Z-2.05
(Line Move)
X13.0865 Y32.3932 Z-2.05
(Line Move)
X13.743 Y29.6317 Z-2.05
(Line Move)
X14.5925 Y26.9229 Z-2.05
(Line Move)
X15.6311 Y24.2802 Z-2.05
(Line Move)
X16.8534 Y21.7169 Z-2.05
(Line Move)
X18.2536 Y19.2456 Z-2.05
(Line Move)
X19.8245 Y16.8786 Z-2.05
(Line Move)
X20.2263 Y16.3571 Z-2.05
(Line Move)
X20.6456 Y16.0554 Z-2.05
(Line Move)
X21.8875 Y15.224 Z-2.05
(Line Move)
X23.1888 Y14.4147 Z-2.05
(Line Move)
X24.5489 Y13.6306 Z-2.05
(Line Move)
X25.967 Y12.8745 Z-2.05
(Line Move)
X27.4416 Y12.1495 Z-2.05
(Line Move)
X28.9713 Y11.4585 Z-2.05
(Line Move)
X30.554 Y10.8046 Z-2.05
(Line Move)
X32.1873 Y10.1906 Z-2.05
(Line Move)
X33.8686 Y9.6193 Z-2.05
(Line Move)
X35.5948 Y9.0934 Z-2.05
(Line Move)
X37.3626 Y8.6154 Z-2.05
(Line Move)
X39.1682 Y8.1877 Z-2.05
(Line Move)
X41.0077 Y7.8124 Z-2.05
(Line Move)
X42.8767 Y7.4915 Z-2.05
(Line Move)
X44.7708 Y7.2265 Z-2.05
(Line Move)
X46.6851 Y7.019 Z-2.05
(Line Move)
X48.6148 Y6.8699 Z-2.05
(Line Move)
X50.5548 Y6.7802 Z-2.05
(Line Move)
X52.5 Y6.7502 Z-2.05
(Line Move)
X54.4452 Y6.7802 Z-2.05
(Line Move)
X56.3852 Y6.8699 Z-2.05
(Line Move)
X58.3149 Y7.019 Z-2.05
(Line Move)
X60.2292 Y7.2265 Z-2.05
(Line Move)
X62.1233 Y7.4915 Z-2.05
(Line Move)
X63.9923 Y7.8124 Z-2.05
(Line Move)
X65.8318 Y8.1877 Z-2.05
(Line Move)
X67.6374 Y8.6154 Z-2.05
(Line Move)
X69.4052 Y9.0934 Z-2.05
(Line Move)
X71.1314 Y9.6193 Z-2.05
(Line Move)
X72.8127 Y10.1906 Z-2.05
(Line Move)
X74.446 Y10.8046 Z-2.05
(Line Move)
X76.0287 Y11.4585 Z-2.05
(Line Move)
X77.5584 Y12.1495 Z-2.05
(Line Move)
X79.033 Y12.8745 Z-2.05
(Line Move)
X80.4511 Y13.6306 Z-2.05
(Line Move)
X81.8112 Y14.4147 Z-2.05
(Line Move)
X83.1125 Y15.224 Z-2.05
(Line Move)
X84.3544 Y16.0554 Z-2.05
(Line Move)
X85.5245 Y16.8974 Z-2.05
(Line Move)
X85.7681 Y17.0923 Z-2.05
(Line Move)
X87.2623 Y19.3405 Z-2.05
(Line Move)
X88.6718 Y21.823 Z-2.05
(Line Move)
X89.9041 Y24.3986 Z-2.05
(Line Move)
X90.953 Y27.0547 Z-2.05
(Line Move)
X91.8135 Y29.7781 Z-2.05
(Line Move)
X92.4811 Y32.5557 Z-2.05
(Line Move)
X92.9526 Y35.3736 Z-2.05
(Line Move)
X93.2256 Y38.2182 Z-2.05
(Line Move)
X93.2988 Y41.0753 Z-2.05
(Line Move)
X93.1718 Y43.931 Z-2.05
(Line Move)
X92.8451 Y46.7713 Z-2.05
(Line Move)
X92.3204 Y49.5823 Z-2.05
(Line Move)
X91.6001 Y52.3501 Z-2.05
(Line Move)
X90.6878 Y55.0611 Z-2.05
(Line Move)
X89.5879 Y57.7022 Z-2.05
(Line Move)
X88.3058 Y60.2602 Z-2.05
(Line Move)
X86.8476 Y62.7228 Z-2.05
(Line Move)
X86.3512 Y63.4414 Z-2.05
(Line Move)
X85.5245 Y64.1026 Z-2.05
(Line Move)
X84.3544 Y64.9446 Z-2.05
(Line Move)
X83.1125 Y65.776 Z-2.05
(Line Move)
X81.8112 Y66.5853 Z-2.05
(Line Move)
X80.4511 Y67.3694 Z-2.05
(Line Move)
X79.033 Y68.1255 Z-2.05
(Line Move)
X77.5584 Y68.8505 Z-2.05
(Line Move)
X76.0287 Y69.5415 Z-2.05
(Line Move)
X74.446 Y70.1954 Z-2.05
(Line Move)
X72.8127 Y70.8094 Z-2.05
(Line Move)
X71.1314 Y71.3807 Z-2.05
(Line Move)
X69.4052 Y71.9066 Z-2.05
(Line Move)
X67.6374 Y72.3846 Z-2.05
(Line Move)
X65.8318 Y72.8123 Z-2.05
(Line Move)
X63.9923 Y73.1876 Z-2.05
(Line Move)
X62.1233 Y73.5085 Z-2.05
(Line Move)
X60.2292 Y73.7735 Z-2.05
(Line Move)
X58.3149 Y73.981 Z-2.05
(Line Move)
X56.3852 Y74.1301 Z-2.05
(Line Move)
X54.4452 Y74.2198 Z-2.05
(Line Move)
X52.5 Y74.2498 Z-2.05
(Line Move)
X50.5548 Y74.2198 Z-2.05
(Line Move)
X48.6148 Y74.1301 Z-2.05
(Line Move)
X46.6851 Y73.981 Z-2.05
(Line Move)
X44.7708 Y73.7735 Z-2.05
(Line Move)
X42.8767 Y73.5085 Z-2.05
(Line Move)
X41.0077 Y73.1876 Z-2.05
(Line Move)
X39.1682 Y72.8123 Z-2.05
(Line Move)
X37.3626 Y72.3846 Z-2.05
(Line Move)
X35.5948 Y71.9066 Z-2.05
(Line Move)
X33.8686 Y71.3807 Z-2.05
(Line Move)
X32.1873 Y70.8094 Z-2.05
(Line Move)
X30.554 Y70.1954 Z-2.05
(Line Move)
X28.9713 Y69.5415 Z-2.05
(Line Move)
X27.4416 Y68.8505 Z-2.05
(Line Move)
X25.967 Y68.1255 Z-2.05
(Line Move)
X24.5489 Y67.3694 Z-2.05
(Line Move)
X23.2006 Y66.5921 Z-2.05
(Line Move)
X20.7202 Y64.9956 Z-2.05
(Line Move)
X18.6107 Y63.4401 Z-2.05
(Line Move)
X17.6967 Y62.6773 Z-2.05
(Line Move)
X17.1386 Y61.8295 Z-2.05
(Line Move)
X15.7282 Y59.3231 Z-2.05
(Line Move)
X14.4954 Y56.7241 Z-2.05
(Line Move)
X13.4462 Y54.0453 Z-2.05
(Line Move)
X12.5858 Y51.2995 Z-2.05
(Line Move)
X11.9184 Y48.5 Z-2.05
(Line Move)
X11.4471 Y45.6605 Z-2.05
(Line Move)
X11.1744 Y42.7946 Z-2.05
(Line Move)
X11.1016 Y39.9162 Z-2.05
(Line Move)
X11.229 Y37.0392 Z-2.05
(Line Move)
X11.5562 Y34.1776 Z-2.05
(Line Move)
X12.0814 Y31.3452 Z-2.05
(Line Move)
X12.8023 Y28.5556 Z-2.05
(Line Move)
X13.7154 Y25.8225 Z-2.05
(Line Move)
X14.8163 Y23.1589 Z-2.05
(Line Move)
X16.0997 Y20.5777 Z-2.05
(Line Move)
X17.1705 Y18.7541 Z-2.05
(Line Move)
X17.2786 Y18.6547 Z-2.05
(Line Move)
X19.4755 Y16.8974 Z-2.05
(Line Move)
X20.6456 Y16.0554 Z-2.05
(Line Move)
X21.8875 Y15.224 Z-2.05
(Line Move)
X23.1888 Y14.4147 Z-2.05
(Line Move)
X24.5489 Y13.6306 Z-2.05
(Line Move)
X25.967 Y12.8745 Z-2.05
(Line Move)
X27.4416 Y12.1495 Z-2.05
(Line Move)
X28.9713 Y11.4585 Z-2.05
(Line Move)
X30.554 Y10.8046 Z-2.05
(Line Move)
X32.1873 Y10.1906 Z-2.05
(Line Move)
X33.8686 Y9.6193 Z-2.05
(Line Move)
X35.5948 Y9.0934 Z-2.05
(Line Move)
X37.3626 Y8.6154 Z-2.05
(Line Move)
X39.1682 Y8.1877 Z-2.05
(Line Move)
X41.0077 Y7.8124 Z-2.05
(Line Move)
X42.8767 Y7.4915 Z-2.05
(Line Move)
X44.7708 Y7.2265 Z-2.05
(Line Move)
X46.6851 Y7.019 Z-2.05
(Line Move)
X48.6148 Y6.8699 Z-2.05
(Line Move)
X50.5548 Y6.7802 Z-2.05
(Line Move)
X52.5 Y6.7502 Z-2.05
(Line Move)
X54.4452 Y6.7802 Z-2.05
(Line Move)
X56.3852 Y6.8699 Z-2.05
(Line Move)
X58.3149 Y7.019 Z-2.05
(Line Move)
X60.2292 Y7.2265 Z-2.05
(Line Move)
X62.1233 Y7.4915 Z-2.05
(Line Move)
X63.9923 Y7.8124 Z-2.05
(Line Move)
X65.8318 Y8.1877 Z-2.05
(Line Move)
X67.6374 Y8.6154 Z-2.05
(Line Move)
X69.4052 Y9.0934 Z-2.05
(Line Move)
X71.1314 Y9.6193 Z-2.05
(Line Move)
X72.8127 Y10.1906 Z-2.05
(Line Move)
X74.446 Y10.8046 Z-2.05
(Line Move)
X76.0287 Y11.4585 Z-2.05
(Line Move)
X77.5584 Y12.1495 Z-2.05
(Line Move)
X79.033 Y12.8745 Z-2.05
(Line Move)
X80.4511 Y13.6306 Z-2.05
(Line Move)
X81.8112 Y14.4147 Z-2.05
(Line Move)
X83.1125 Y15.224 Z-2.05
(Line Move)
X84.3544 Y16.0554 Z-2.05
(Line Move)
X85.5245 Y16.8974 Z-2.05
(Line Move)
X87.7214 Y18.6547 Z-2.05
(Line Move)
X88.8314 Y19.6753 Z-2.05
(Line Move)
X89.4363 Y20.705 Z-2.05
(Line Move)
X90.7277 Y23.2988 Z-2.05
(Line Move)
X91.837 Y25.976 Z-2.05
(Line Move)
X92.7588 Y28.7239 Z-2.05
(Line Move)
X93.4889 Y31.5294 Z-2.05
(Line Move)
X94.0235 Y34.379 Z-2.05
(Line Move)
X94.3601 Y37.2592 Z-2.05
(Line Move)
X94.4972 Y40.1562 Z-2.05
(Line Move)
X94.4339 Y43.0562 Z-2.05
(Line Move)
X94.1707 Y45.9454 Z-2.05
(Line Move)
X93.7086 Y48.8101 Z-2.05
(Line Move)
X93.0499 Y51.6364 Z-2.05
(Line Move)
X92.1977 Y54.4111 Z-2.05
(Line Move)
X91.156 Y57.1207 Z-2.05
(Line Move)
X89.9297 Y59.7526 Z-2.05
(Line Move)
X89.2974 Y60.8963 Z-2.05
(Line Move)
X87.7214 Y62.3453 Z-2.05
(Line Move)
X85.5245 Y64.1026 Z-2.05
(Line Move)
X84.3544 Y64.9446 Z-2.05
(Line Move)
X83.1125 Y65.776 Z-2.05
(Line Move)
X81.8112 Y66.5853 Z-2.05
(Line Move)
X80.4511 Y67.3694 Z-2.05
(Line Move)
X79.033 Y68.1255 Z-2.05
(Line Move)
X77.5584 Y68.8505 Z-2.05
(Line Move)
X76.0287 Y69.5415 Z-2.05
(Line Move)
X74.446 Y70.1954 Z-2.05
(Line Move)
X72.8127 Y70.8094 Z-2.05
(Line Move)
X71.1314 Y71.3807 Z-2.05
(Line Move)
X69.4052 Y71.9066 Z-2.05
(Line Move)
X67.6374 Y72.3846 Z-2.05
(Line Move)
X65.8318 Y72.8123 Z-2.05
(Line Move)
X63.9923 Y73.1876 Z-2.05
(Line Move)
X62.1233 Y73.5085 Z-2.05
(Line Move)
X60.2292 Y73.7735 Z-2.05
(Line Move)
X58.3149 Y73.981 Z-2.05
(Line Move)
X56.3852 Y74.1301 Z-2.05
(Line Move)
X54.4452 Y74.2198 Z-2.05
(Line Move)
X52.5 Y74.2498 Z-2.05
(Line Move)
X50.5548 Y74.2198 Z-2.05
(Line Move)
X48.6148 Y74.1301 Z-2.05
(Line Move)
X46.6851 Y73.981 Z-2.05
(Line Move)
X44.7708 Y73.7735 Z-2.05
(Line Move)
X42.8767 Y73.5085 Z-2.05
(Line Move)
X41.0077 Y73.1876 Z-2.05
(Line Move)
X39.1682 Y72.8123 Z-2.05
(Line Move)
X37.3626 Y72.3846 Z-2.05
(Line Move)
X35.5948 Y71.9066 Z-2.05
(Line Move)
X33.8686 Y71.3807 Z-2.05
(Line Move)
X32.1873 Y70.8094 Z-2.05
(Line Move)
X30.554 Y70.1954 Z-2.05
(Line Move)
X28.9713 Y69.5415 Z-2.05
(Line Move)
X27.4416 Y68.8505 Z-2.05
(Line Move)
X25.967 Y68.1255 Z-2.05
(Line Move)
X24.5489 Y67.3694 Z-2.05
(Line Move)
X23.2006 Y66.5921 Z-2.05
(Line Move)
X20.7202 Y64.9956 Z-2.05
(Line Move)
X18.6107 Y63.4401 Z-2.05
(Line Move)
X16.8114 Y61.9384 Z-2.05
(Line Move)
X15.2792 Y60.5041 Z-2.05
(Line Move)
X14.6766 Y59.876 Z-2.05
(Line Move)
X14.4822 Y59.5224 Z-2.05
(Line Move)
X13.2546 Y56.8745 Z-2.05
(Line Move)
X12.2115 Y54.1482 Z-2.05
(Line Move)
X11.3577 Y51.3563 Z-2.05
(Line Move)
X10.6972 Y48.5119 Z-2.05
(Line Move)
X10.2332 Y45.6286 Z-2.05
(Line Move)
X9.968 Y42.7197 Z-2.05
(Line Move)
X9.9028 Y39.7991 Z-2.05
(Line Move)
X10.0379 Y36.8804 Z-2.05
(Line Move)
X10.3728 Y33.9774 Z-2.05
(Line Move)
X10.9059 Y31.1037 Z-2.05
(Line Move)
X11.6347 Y28.2728 Z-2.05
(Line Move)
X12.5558 Y25.4981 Z-2.05
(Line Move)
X13.665 Y22.7925 Z-2.05
(Line Move)
X14.2676 Y21.5687 Z-2.05
(Line Move)
X15.3292 Y20.4471 Z-2.05
(Line Move)
X17.2786 Y18.6547 Z-2.05
(Line Move)
X19.4755 Y16.8974 Z-2.05
(Line Move)
X20.6456 Y16.0554 Z-2.05
(Line Move)
X21.8875 Y15.224 Z-2.05
(Line Move)
X23.1888 Y14.4147 Z-2.05
(Line Move)
X24.5489 Y13.6306 Z-2.05
(Line Move)
X25.967 Y12.8745 Z-2.05
(Line Move)
X27.4416 Y12.1495 Z-2.05
(Line Move)
X28.9713 Y11.4585 Z-2.05
(Line Move)
X30.554 Y10.8046 Z-2.05
(Line Move)
X32.1873 Y10.1906 Z-2.05
(Line Move)
X33.8686 Y9.6193 Z-2.05
(Line Move)
X35.5948 Y9.0934 Z-2.05
(Line Move)
X37.3626 Y8.6154 Z-2.05
(Line Move)
X39.1682 Y8.1877 Z-2.05
(Line Move)
X41.0077 Y7.8124 Z-2.05
(Line Move)
X42.8767 Y7.4915 Z-2.05
(Line Move)
X44.7708 Y7.2265 Z-2.05
(Line Move)
X46.6851 Y7.019 Z-2.05
(Line Move)
X48.6148 Y6.8699 Z-2.05
(Line Move)
X50.5548 Y6.7802 Z-2.05
(Line Move)
X52.5 Y6.7502 Z-2.05
(Line Move)
X54.4452 Y6.7802 Z-2.05
(Line Move)
X56.3852 Y6.8699 Z-2.05
(Line Move)
X58.3149 Y7.019 Z-2.05
(Line Move)
X60.2292 Y7.2265 Z-2.05
(Line Move)
X62.1233 Y7.4915 Z-2.05
(Line Move)
X63.9923 Y7.8124 Z-2.05
(Line Move)
X65.8318 Y8.1877 Z-2.05
(Line Move)
X67.6374 Y8.6154 Z-2.05
(Line Move)
X69.4052 Y9.0934 Z-2.05
(Line Move)
X71.1314 Y9.6193 Z-2.05
(Line Move)
X72.8127 Y10.1906 Z-2.05
(Line Move)
X74.446 Y10.8046 Z-2.05
(Line Move)
X76.0287 Y11.4585 Z-2.05
(Line Move)
X77.5584 Y12.1495 Z-2.05
(Line Move)
X79.033 Y12.8745 Z-2.05
(Line Move)
X80.4511 Y13.6306 Z-2.05
(Line Move)
X81.8112 Y14.4147 Z-2.05
(Line Move)
X83.1125 Y15.224 Z-2.05
(Line Move)
X84.3544 Y16.0554 Z-2.05
(Line Move)
X85.5245 Y16.8974 Z-2.05
(Line Move)
X87.7214 Y18.6547 Z-2.05
(Line Move)
X89.6708 Y20.4471 Z-2.05
(Line Move)
X91.391 Y22.2646 Z-2.05
(Line Move)
X91.742 Y22.6915 Z-2.05
(Line Move)
X92.3905 Y24.1117 Z-2.05
(Line Move)
X93.4266 Y26.863 Z-2.05
(Line Move)
X94.2729 Y29.679 Z-2.05
(Line Move)
X94.9257 Y32.5464 Z-2.05
(Line Move)
X95.3817 Y35.4521 Z-2.05
(Line Move)
X95.6389 Y38.3826 Z-2.05
(Line Move)
X95.6959 Y41.3242 Z-2.05
(Line Move)
X95.5526 Y44.2633 Z-2.05
(Line Move)
X95.2096 Y47.1863 Z-2.05
(Line Move)
X94.6684 Y50.0797 Z-2.05
(Line Move)
X93.9314 Y52.9299 Z-2.05
(Line Move)
X93.0022 Y55.7238 Z-2.05
(Line Move)
X92.1416 Y57.8224 Z-2.05
(Line Move)
X91.391 Y58.7354 Z-2.05
(Line Move)
X89.6708 Y60.5529 Z-2.05
(Line Move)
X87.7214 Y62.3453 Z-2.05
(Line Move)
X85.5245 Y64.1026 Z-2.05
(Line Move)
X84.3544 Y64.9446 Z-2.05
(Line Move)
X83.1125 Y65.776 Z-2.05
(Line Move)
X81.8112 Y66.5853 Z-2.05
(Line Move)
X80.4511 Y67.3694 Z-2.05
(Line Move)
X79.033 Y68.1255 Z-2.05
(Line Move)
X77.5584 Y68.8505 Z-2.05
(Line Move)
X76.0287 Y69.5415 Z-2.05
(Line Move)
X74.446 Y70.1954 Z-2.05
(Line Move)
X72.8127 Y70.8094 Z-2.05
(Line Move)
X71.1314 Y71.3807 Z-2.05
(Line Move)
X69.4052 Y71.9066 Z-2.05
(Line Move)
X67.6374 Y72.3846 Z-2.05
(Line Move)
X65.8318 Y72.8123 Z-2.05
(Line Move)
X63.9923 Y73.1876 Z-2.05
(Line Move)
X62.1233 Y73.5085 Z-2.05
(Line Move)
X60.2292 Y73.7735 Z-2.05
(Line Move)
X58.3149 Y73.981 Z-2.05
(Line Move)
X56.3852 Y74.1301 Z-2.05
(Line Move)
X54.4452 Y74.2198 Z-2.05
(Line Move)
X52.5 Y74.2498 Z-2.05
(Line Move)
X50.5548 Y74.2198 Z-2.05
(Line Move)
X48.6148 Y74.1301 Z-2.05
(Line Move)
X46.6851 Y73.981 Z-2.05
(Line Move)
X44.7708 Y73.7735 Z-2.05
(Line Move)
X42.8767 Y73.5085 Z-2.05
(Line Move)
X41.0077 Y73.1876 Z-2.05
(Line Move)
X39.1682 Y72.8123 Z-2.05
(Line Move)
X37.3626 Y72.3846 Z-2.05
(Line Move)
X35.5948 Y71.9066 Z-2.05
(Line Move)
X33.8686 Y71.3807 Z-2.05
(Line Move)
X32.1873 Y70.8094 Z-2.05
(Line Move)
X30.554 Y70.1954 Z-2.05
(Line Move)
X28.9713 Y69.5415 Z-2.05
(Line Move)
X27.4416 Y68.8505 Z-2.05
(Line Move)
X25.967 Y68.1255 Z-2.05
(Line Move)
X24.5489 Y67.3694 Z-2.05
(Line Move)
X23.2006 Y66.5921 Z-2.05
(Line Move)
X20.7202 Y64.9956 Z-2.05
(Line Move)
X18.6107 Y63.4401 Z-2.05
(Line Move)
X16.8114 Y61.9384 Z-2.05
(Line Move)
X15.2792 Y60.5041 Z-2.05
(Line Move)
X13.9754 Y59.1451 Z-2.05
(Line Move)
X12.866 Y57.8651 Z-2.05
(Line Move)
X11.9219 Y56.6649 Z-2.05
(Line Move)
X11.864 Y56.5841 Z-2.05
(Line Move)
X11.2411 Y55.0079 Z-2.05
(Line Move)
X10.3417 Y52.1869 Z-2.05
(Line Move)
X9.6351 Y49.311 Z-2.05
(Line Move)
X9.1245 Y46.3936 Z-2.05
(Line Move)
X8.8124 Y43.4478 Z-2.05
(Line Move)
X8.7001 Y40.4873 Z-2.05
(Line Move)
X8.7883 Y37.5254 Z-2.05
(Line Move)
X9.0765 Y34.5759 Z-2.05
(Line Move)
X9.5635 Y31.6522 Z-2.05
(Line Move)
X10.2471 Y28.7676 Z-2.05
(Line Move)
X11.1241 Y25.9354 Z-2.05
(Line Move)
X11.5123 Y24.9281 Z-2.05
(Line Move)
X12.1083 Y24.0899 Z-2.05
(Line Move)
X13.609 Y22.2646 Z-2.05
(Line Move)
X15.3292 Y20.4471 Z-2.05
(Line Move)
X17.2786 Y18.6547 Z-2.05
(Line Move)
X19.4755 Y16.8974 Z-2.05
(Line Move)
X20.6456 Y16.0554 Z-2.05
(Line Move)
X21.8875 Y15.224 Z-2.05
(Line Move)
X23.1888 Y14.4147 Z-2.05
(Line Move)
X24.5489 Y13.6306 Z-2.05
(Line Move)
X25.967 Y12.8745 Z-2.05
(Line Move)
X27.4416 Y12.1495 Z-2.05
(Line Move)
X28.9713 Y11.4585 Z-2.05
(Line Move)
X30.554 Y10.8046 Z-2.05
(Line Move)
X32.1873 Y10.1906 Z-2.05
(Line Move)
X33.8686 Y9.6193 Z-2.05
(Line Move)
X35.5948 Y9.0934 Z-2.05
(Line Move)
X37.3626 Y8.6154 Z-2.05
(Line Move)
X39.1682 Y8.1877 Z-2.05
(Line Move)
X41.0077 Y7.8124 Z-2.05
(Line Move)
X42.8767 Y7.4915 Z-2.05
(Line Move)
X44.7708 Y7.2265 Z-2.05
(Line Move)
X46.6851 Y7.019 Z-2.05
(Line Move)
X48.6148 Y6.8699 Z-2.05
(Line Move)
X50.5548 Y6.7802 Z-2.05
(Line Move)
X52.5 Y6.7502 Z-2.05
(Line Move)
X54.4452 Y6.7802 Z-2.05
(Line Move)
X56.3852 Y6.8699 Z-2.05
(Line Move)
X58.3149 Y7.019 Z-2.05
(Line Move)
X60.2292 Y7.2265 Z-2.05
(Line Move)
X62.1233 Y7.4915 Z-2.05
(Line Move)
X63.9923 Y7.8124 Z-2.05
(Line Move)
X65.8318 Y8.1877 Z-2.05
(Line Move)
X67.6374 Y8.6154 Z-2.05
(Line Move)
X69.4052 Y9.0934 Z-2.05
(Line Move)
X71.1314 Y9.6193 Z-2.05
(Line Move)
X72.8127 Y10.1906 Z-2.05
(Line Move)
X74.446 Y10.8046 Z-2.05
(Line Move)
X76.0287 Y11.4585 Z-2.05
(Line Move)
X77.5584 Y12.1495 Z-2.05
(Line Move)
X79.033 Y12.8745 Z-2.05
(Line Move)
X80.4511 Y13.6306 Z-2.05
(Line Move)
X81.8112 Y14.4147 Z-2.05
(Line Move)
X83.1125 Y15.224 Z-2.05
(Line Move)
X84.3544 Y16.0554 Z-2.05
(Line Move)
X85.5245 Y16.8974 Z-2.05
(Line Move)
X87.7214 Y18.6547 Z-2.05
(Line Move)
X89.6708 Y20.4471 Z-2.05
(Line Move)
X91.391 Y22.2646 Z-2.05
(Line Move)
X92.8917 Y24.0899 Z-2.05
(Line Move)
X94.1844 Y25.908 Z-2.05
(Line Move)
X94.5656 Y26.5323 Z-2.05
(Line Move)
X94.7512 Y27.0468 Z-2.05
(Line Move)
X95.5721 Y29.9132 Z-2.05
(Line Move)
X96.1987 Y32.8287 Z-2.05
(Line Move)
X96.6281 Y35.7801 Z-2.05
(Line Move)
X96.8583 Y38.7541 Z-2.05
(Line Move)
X96.8882 Y41.7373 Z-2.05
(Line Move)
X96.7178 Y44.7163 Z-2.05
(Line Move)
X96.3476 Y47.6775 Z-2.05
(Line Move)
X95.7794 Y50.6076 Z-2.05
(Line Move)
X95.0157 Y53.4933 Z-2.05
(Line Move)
X94.8361 Y54.0247 Z-2.05
(Line Move)
X94.1844 Y55.092 Z-2.05
(Line Move)
X92.8917 Y56.9101 Z-2.05
(Line Move)
X91.391 Y58.7354 Z-2.05
(Line Move)
X89.6708 Y60.5529 Z-2.05
(Line Move)
X87.7214 Y62.3453 Z-2.05
(Line Move)
X85.5245 Y64.1026 Z-2.05
(Line Move)
X84.3544 Y64.9446 Z-2.05
(Line Move)
X83.1125 Y65.776 Z-2.05
(Line Move)
X81.8112 Y66.5853 Z-2.05
(Line Move)
X80.4511 Y67.3694 Z-2.05
(Line Move)
X79.033 Y68.1255 Z-2.05
(Line Move)
X77.5584 Y68.8505 Z-2.05
(Line Move)
X76.0287 Y69.5415 Z-2.05
(Line Move)
X74.446 Y70.1954 Z-2.05
(Line Move)
X72.8127 Y70.8094 Z-2.05
(Line Move)
X71.1314 Y71.3807 Z-2.05
(Line Move)
X69.4052 Y71.9066 Z-2.05
(Line Move)
X67.6374 Y72.3846 Z-2.05
(Line Move)
X65.8318 Y72.8123 Z-2.05
(Line Move)
X63.9923 Y73.1876 Z-2.05
(Line Move)
X62.1233 Y73.5085 Z-2.05
(Line Move)
X60.2292 Y73.7735 Z-2.05
(Line Move)
X58.3149 Y73.981 Z-2.05
(Line Move)
X56.3852 Y74.1301 Z-2.05
(Line Move)
X54.4452 Y74.2198 Z-2.05
(Line Move)
X52.5 Y74.2498 Z-2.05
(Line Move)
X50.5548 Y74.2198 Z-2.05
(Line Move)
X48.6148 Y74.1301 Z-2.05
(Line Move)
X46.6851 Y73.981 Z-2.05
(Line Move)
X44.7708 Y73.7735 Z-2.05
(Line Move)
X42.8767 Y73.5085 Z-2.05
(Line Move)
X41.0077 Y73.1876 Z-2.05
(Line Move)
X39.1682 Y72.8123 Z-2.05
(Line Move)
X37.3626 Y72.3846 Z-2.05
(Line Move)
X35.5948 Y71.9066 Z-2.05
(Line Move)
X33.8686 Y71.3807 Z-2.05
(Line Move)
X32.1873 Y70.8094 Z-2.05
(Line Move)
X30.554 Y70.1954 Z-2.05
(Line Move)
X28.9713 Y69.5415 Z-2.05
