(Start of Tape)

(Made in : UPC)
(G Code optimized for RS-CNC32 with GRBL V0.9j controller)

( PART NUMBER=1 )
( PART NAME= )
( PROGRAMMER= )
( OPERATION NUMBER= )
( DATE= )

G90 G17 G21 G80

(Init Tool Change)
(3MM CRB 2FL 12 LOC)
G53
G0 Z2 
G54
S5000 M3
M9
G4 P1 
(Rapid From Tool Change)
G0 G90 X17.2151 Y56.562
(Rapid Z Down)
Z3.
(Line Leadin Move)
G1 X16.1442 Y57.6963 Z2.9787 F400.
(Arc Move)
G2 X16.0623 Y57.9023 Z2.9756 I.2181 J.2059
(Arc Move)
X16.0624 Y57.9109 Z2.9755 I.3 J0
(Line Move)
G1 X16.0711 Y58.2108 Z2.9714 F750.
(Line Move)
X16.0915 Y58.9207 Z2.9617
(Line Move)
X16.2212 Y60.4003 Z2.9414
(Line Move)
X16.4509 Y61.9374 Z2.9201
(Line Move)
X16.7925 Y63.5306 Z2.8979
(Line Move)
X17.259 Y65.1775 Z2.8745
(Line Move)
X17.8639 Y66.8745 Z2.8498
(Line Move)
X18.6213 Y68.6166 Z2.8239
(Line Move)
X19.5457 Y70.3972 Z2.7965
(Line Move)
X20.6516 Y72.2076 Z2.7675
(Line Move)
X21.953 Y74.0373 Z2.7368
(Line Move)
X23.4631 Y75.8734 Z2.7043
(Line Move)
X25.1934 Y77.7009 Z2.6699
(Line Move)
X27.1534 Y79.5024 Z2.6335
(Line Move)
X29.3596 Y81.2664 Z2.5949
(Line Move)
X30.537 Y82.1134 Z2.5751
(Line Move)
X31.7846 Y82.9483 Z2.5546
(Line Move)
X33.0916 Y83.7608 Z2.5336
(Line Move)
X34.4575 Y84.548 Z2.512
(Line Move)
X35.8813 Y85.3068 Z2.49
(Line Move)
X37.3617 Y86.0344 Z2.4674
(Line Move)
X38.8971 Y86.7277 Z2.4444
(Line Move)
X40.4856 Y87.3838 Z2.4209
(Line Move)
X42.1247 Y87.9997 Z2.397
(Line Move)
X43.8117 Y88.5728 Z2.3727
(Line Move)
X45.5437 Y89.1002 Z2.3479
(Line Move)
X47.3172 Y89.5796 Z2.3228
(Line Move)
X49.1286 Y90.0085 Z2.2974
(Line Move)
X50.9738 Y90.3848 Z2.2716
(Line Move)
X52.8485 Y90.7066 Z2.2456
(Line Move)
X54.7482 Y90.9723 Z2.2194
(Line Move)
X56.6682 Y91.1804 Z2.193
(Line Move)
X58.6035 Y91.3298 Z2.1665
(Line Move)
X60.5492 Y91.4198 Z2.1399
(Line Move)
X62.5 Y91.4498 Z2.1132
(Line Move)
X64.4508 Y91.4198 Z2.0866
(Line Move)
X66.3965 Y91.3298 Z2.06
(Line Move)
X68.3318 Y91.1804 Z2.0334
(Line Move)
X70.2518 Y90.9723 Z2.007
(Line Move)
X72.1515 Y90.7066 Z1.9808
(Line Move)
X74.0262 Y90.3848 Z1.9548
(Line Move)
X75.8714 Y90.0085 Z1.9291
(Line Move)
X77.6828 Y89.5796 Z1.9037
(Line Move)
X79.4563 Y89.1002 Z1.8786
(Line Move)
X81.1883 Y88.5728 Z1.8538
(Line Move)
X82.8753 Y87.9997 Z1.8295
(Line Move)
X84.5144 Y87.3838 Z1.8055
(Line Move)
X86.1029 Y86.7277 Z1.7821
(Line Move)
X87.6383 Y86.0344 Z1.759
(Line Move)
X89.1187 Y85.3068 Z1.7365
(Line Move)
X90.5425 Y84.548 Z1.7144
(Line Move)
X91.9084 Y83.7608 Z1.6929
(Line Move)
X93.2154 Y82.9483 Z1.6719
(Line Move)
X94.463 Y82.1134 Z1.6514
(Line Move)
X95.6404 Y81.2664 Z1.6315
(Line Move)
X97.8466 Y79.5024 Z1.5929
(Line Move)
X99.8066 Y77.7009 Z1.5566
(Line Move)
X101.5369 Y75.8734 Z1.5222
(Line Move)
X103.047 Y74.0373 Z1.4897
(Line Move)
X104.3484 Y72.2076 Z1.459
(Line Move)
X105.4543 Y70.3972 Z1.43
(Line Move)
X106.3787 Y68.6166 Z1.4026
(Line Move)
X107.1361 Y66.8745 Z1.3766
(Line Move)
X107.741 Y65.1775 Z1.352
(Line Move)
X108.2075 Y63.5306 Z1.3286
(Line Move)
X108.5491 Y61.9374 Z1.3064
(Line Move)
X108.7788 Y60.4003 Z1.2851
(Line Move)
X108.9085 Y58.9207 Z1.2648
(Line Move)
X108.9491 Y57.5095 Z1.2455
(Line Move)
X108.8637 Y55.4518 Z1.2174
(Line Move)
X108.5859 Y53.272 Z1.1874
(Line Move)
X108.2824 Y51.7806 Z1.1666
(Line Move)
X107.6922 Y49.6709 Z1.1366
(Line Move)
X107.2642 Y48.4554 Z1.119
(Line Move)
X106.6722 Y47.02 Z1.0978
(Line Move)
X105.8587 Y45.3451 Z1.0723
(Line Move)
X104.7262 Y43.3791 Z1.0413
(Line Move)
X104.0438 Y42.3381 Z1.0243
(Line Move)
X103.2344 Y41.2093 Z1.0054
(Line Move)
X102.2842 Y40.0019 Z.9844
(Line Move)
X101.1681 Y38.7145 Z.9611
(Line Move)
X99.8567 Y37.3481 Z.9352
(Line Move)
X98.316 Y35.9064 Z.9064
(Line Move)
X96.5075 Y34.3976 Z.8742
(Line Move)
X94.3878 Y32.8352 Z.8382
(Line Move)
X91.8983 Y31.2334 Z.7977
(Line Move)
X90.5425 Y30.452 Z.7764
(Line Move)
X89.1187 Y29.6932 Z.7543
(Line Move)
X87.6383 Y28.9656 Z.7318
(Line Move)
X86.1029 Y28.2723 Z.7087
(Line Move)
X84.5144 Y27.6162 Z.6853
(Line Move)
X82.8753 Y27.0003 Z.6613
(Line Move)
X81.1883 Y26.4272 Z.637
(Line Move)
X79.4563 Y25.8998 Z.6122
(Line Move)
X77.6828 Y25.4204 Z.5871
(Line Move)
X75.8714 Y24.9915 Z.5617
(Line Move)
X74.0262 Y24.6152 Z.536
(Line Move)
X72.1515 Y24.2934 Z.51
(Line Move)
X70.2518 Y24.0277 Z.4838
(Line Move)
X68.3318 Y23.8196 Z.4574
(Line Move)
X66.3965 Y23.6702 Z.4308
(Line Move)
X64.4508 Y23.5802 Z.4042
(Line Move)
X62.5 Y23.5502 Z.3776
(Line Move)
X60.5492 Y23.5802 Z.3509
(Line Move)
X58.6035 Y23.6702 Z.3243
(Line Move)
X56.6682 Y23.8196 Z.2978
(Line Move)
X54.7482 Y24.0277 Z.2714
(Line Move)
X52.8485 Y24.2934 Z.2451
(Line Move)
X50.9738 Y24.6152 Z.2192
(Line Move)
X49.1286 Y24.9915 Z.1934
(Line Move)
X47.3172 Y25.4204 Z.168
(Line Move)
X45.5437 Y25.8998 Z.1429
(Line Move)
X43.8117 Y26.4272 Z.1181
(Line Move)
X42.1247 Y27.0003 Z.0938
(Line Move)
X40.4856 Y27.6162 Z.0699
(Line Move)
X38.8971 Y28.2723 Z.0464
(Line Move)
X37.3617 Y28.9656 Z.0234
(Line Move)
X35.8813 Y29.6932 Z.0008
(Line Move)
X34.4575 Y30.452 Z-.0212
(Line Move)
X33.0916 Y31.2392 Z-.0428
(Line Move)
X31.7846 Y32.0517 Z-.0638
(Line Move)
X30.537 Y32.8866 Z-.0843
(Line Move)
X29.3596 Y33.7336 Z-.1041
(Line Move)
X27.1534 Y35.4976 Z-.1427
(Line Move)
X25.1934 Y37.2991 Z-.1791
(Line Move)
X23.4631 Y39.1266 Z-.2135
(Line Move)
X21.953 Y40.9627 Z-.246
(Line Move)
X20.6516 Y42.7924 Z-.2767
(Line Move)
X19.5457 Y44.6028 Z-.3057
(Line Move)
X18.6213 Y46.3834 Z-.3331
(Line Move)
X17.8639 Y48.1255 Z-.359
(Line Move)
X17.259 Y49.8225 Z-.3837
(Line Move)
X16.7925 Y51.4694 Z-.4071
(Line Move)
X16.4509 Y53.0626 Z-.4293
(Line Move)
X16.2212 Y54.5997 Z-.4506
(Line Move)
X16.0915 Y56.0793 Z-.4709
(Line Move)
X16.0506 Y57.5 Z-.4903
(Line Move)
X16.0711 Y58.2108 Z-.5
(Line Move)
X16.0915 Y58.9207 Z-.5028
(Line Move)
X16.2212 Y60.4003 Z-.5086
(Line Move)
X16.4509 Y61.9374 Z-.5148
(Line Move)
X16.7925 Y63.5306 Z-.5212
(Line Move)
X17.259 Y65.1775 Z-.5279
(Line Move)
X17.8639 Y66.8745 Z-.535
(Line Move)
X18.6213 Y68.6166 Z-.5425
(Line Move)
X19.5457 Y70.3972 Z-.5504
(Line Move)
X20.6516 Y72.2076 Z-.5587
(Line Move)
X21.953 Y74.0373 Z-.5676
(Line Move)
X23.4631 Y75.8734 Z-.5769
(Line Move)
X25.1934 Y77.7009 Z-.5868
(Line Move)
X27.1534 Y79.5024 Z-.5973
(Line Move)
X29.3596 Y81.2664 Z-.6084
(Line Move)
X30.537 Y82.1134 Z-.6141
(Line Move)
X31.7846 Y82.9483 Z-.6201
(Line Move)
X33.0916 Y83.7608 Z-.6261
(Line Move)
X34.4575 Y84.548 Z-.6323
(Line Move)
X35.8813 Y85.3068 Z-.6387
(Line Move)
X37.3617 Y86.0344 Z-.6452
(Line Move)
X38.8971 Y86.7277 Z-.6518
(Line Move)
X40.4856 Y87.3838 Z-.6586
(Line Move)
X42.1247 Y87.9997 Z-.6655
(Line Move)
X43.8117 Y88.5728 Z-.6725
(Line Move)
X45.5437 Y89.1002 Z-.6796
(Line Move)
X47.3172 Y89.5796 Z-.6868
(Line Move)
X49.1286 Y90.0085 Z-.6942
(Line Move)
X50.9738 Y90.3848 Z-.7016
(Line Move)
X52.8485 Y90.7066 Z-.7091
(Line Move)
X54.7482 Y90.9723 Z-.7166
(Line Move)
X56.6682 Y91.1804 Z-.7242
(Line Move)
X58.6035 Y91.3298 Z-.7319
(Line Move)
X60.5492 Y91.4198 Z-.7395
(Line Move)
X62.5 Y91.4498 Z-.7472
(Line Move)
X64.4508 Y91.4198 Z-.7549
(Line Move)
X66.3965 Y91.3298 Z-.7625
(Line Move)
X68.3318 Y91.1804 Z-.7702
(Line Move)
X70.2518 Y90.9723 Z-.7778
(Line Move)
X72.1515 Y90.7066 Z-.7853
(Line Move)
X74.0262 Y90.3848 Z-.7928
(Line Move)
X75.8714 Y90.0085 Z-.8002
(Line Move)
X77.6828 Y89.5796 Z-.8076
(Line Move)
X79.4563 Y89.1002 Z-.8148
(Line Move)
X81.1883 Y88.5728 Z-.8219
(Line Move)
X82.8753 Y87.9997 Z-.8289
(Line Move)
X84.5144 Y87.3838 Z-.8358
(Line Move)
X86.1029 Y86.7277 Z-.8426
(Line Move)
X87.6383 Y86.0344 Z-.8492
(Line Move)
X89.1187 Y85.3068 Z-.8557
(Line Move)
X90.5425 Y84.548 Z-.8621
(Line Move)
X91.9084 Y83.7608 Z-.8683
(Line Move)
X93.2154 Y82.9483 Z-.8743
(Line Move)
X94.463 Y82.1134 Z-.8803
(Line Move)
X95.6404 Y81.2664 Z-.886
(Line Move)
X97.8466 Y79.5024 Z-.8971
(Line Move)
X99.8066 Y77.7009 Z-.9076
(Line Move)
X101.5369 Y75.8734 Z-.9175
(Line Move)
X103.047 Y74.0373 Z-.9268
(Line Move)
X104.3484 Y72.2076 Z-.9357
(Line Move)
X105.4543 Y70.3972 Z-.944
(Line Move)
X106.3787 Y68.6166 Z-.9519
(Line Move)
X107.1361 Y66.8745 Z-.9594
(Line Move)
X107.741 Y65.1775 Z-.9665
(Line Move)
X108.2075 Y63.5306 Z-.9732
(Line Move)
X108.5491 Y61.9374 Z-.9796
(Line Move)
X108.7788 Y60.4003 Z-.9858
(Line Move)
X108.9085 Y58.9207 Z-.9916
(Line Move)
X108.9491 Y57.5095 Z-.9972
(Line Move)
X108.8637 Y55.4518 Z-1.0053
(Line Move)
X108.5859 Y53.272 Z-1.0139
(Line Move)
X108.2824 Y51.7806 Z-1.0199
(Line Move)
X107.6922 Y49.6709 Z-1.0285
(Line Move)
X107.2642 Y48.4554 Z-1.0336
(Line Move)
X106.6722 Y47.02 Z-1.0397
(Line Move)
X105.8587 Y45.3451 Z-1.0471
(Line Move)
X104.7262 Y43.3791 Z-1.056
(Line Move)
X104.0438 Y42.3381 Z-1.0609
(Line Move)
X103.2344 Y41.2093 Z-1.0664
(Line Move)
X102.2842 Y40.0019 Z-1.0724
(Line Move)
X101.1681 Y38.7145 Z-1.0791
(Line Move)
X99.8567 Y37.3481 Z-1.0866
(Line Move)
X98.316 Y35.9064 Z-1.0949
(Line Move)
X96.5075 Y34.3976 Z-1.1041
(Line Move)
X94.3878 Y32.8352 Z-1.1145
(Line Move)
X91.8983 Y31.2334 Z-1.1262
(Line Move)
X90.5425 Y30.452 Z-1.1323
(Line Move)
X89.1187 Y29.6932 Z-1.1387
(Line Move)
X87.6383 Y28.9656 Z-1.1452
(Line Move)
X86.1029 Y28.2723 Z-1.1518
(Line Move)
X84.5144 Y27.6162 Z-1.1586
(Line Move)
X82.8753 Y27.0003 Z-1.1655
(Line Move)
X81.1883 Y26.4272 Z-1.1725
(Line Move)
X79.4563 Y25.8998 Z-1.1796
(Line Move)
X77.6828 Y25.4204 Z-1.1868
(Line Move)
X75.8714 Y24.9915 Z-1.1942
(Line Move)
X74.0262 Y24.6152 Z-1.2016
(Line Move)
X72.1515 Y24.2934 Z-1.2091
(Line Move)
X70.2518 Y24.0277 Z-1.2166
(Line Move)
X68.3318 Y23.8196 Z-1.2242
(Line Move)
X66.3965 Y23.6702 Z-1.2319
(Line Move)
X64.4508 Y23.5802 Z-1.2395
(Line Move)
X62.5 Y23.5502 Z-1.2472
(Line Move)
X60.5492 Y23.5802 Z-1.2549
(Line Move)
X58.6035 Y23.6702 Z-1.2625
(Line Move)
X56.6682 Y23.8196 Z-1.2702
(Line Move)
X54.7482 Y24.0277 Z-1.2778
(Line Move)
X52.8485 Y24.2934 Z-1.2853
(Line Move)
X50.9738 Y24.6152 Z-1.2928
(Line Move)
X49.1286 Y24.9915 Z-1.3002
(Line Move)
X47.3172 Y25.4204 Z-1.3076
(Line Move)
X45.5437 Y25.8998 Z-1.3148
(Line Move)
X43.8117 Y26.4272 Z-1.3219
(Line Move)
X42.1247 Y27.0003 Z-1.3289
(Line Move)
X40.4856 Y27.6162 Z-1.3358
(Line Move)
X38.8971 Y28.2723 Z-1.3426
(Line Move)
X37.3617 Y28.9656 Z-1.3492
(Line Move)
X35.8813 Y29.6932 Z-1.3557
(Line Move)
X34.4575 Y30.452 Z-1.3621
(Line Move)
X33.0916 Y31.2392 Z-1.3683
(Line Move)
X31.7846 Y32.0517 Z-1.3743
(Line Move)
X30.537 Y32.8866 Z-1.3803
(Line Move)
X29.3596 Y33.7336 Z-1.386
(Line Move)
X27.1534 Y35.4976 Z-1.3971
(Line Move)
X25.1934 Y37.2991 Z-1.4076
(Line Move)
X23.4631 Y39.1266 Z-1.4175
(Line Move)
X21.953 Y40.9627 Z-1.4268
(Line Move)
X20.6516 Y42.7924 Z-1.4357
(Line Move)
X19.5457 Y44.6028 Z-1.444
(Line Move)
X18.6213 Y46.3834 Z-1.4519
(Line Move)
X17.8639 Y48.1255 Z-1.4594
(Line Move)
X17.259 Y49.8225 Z-1.4665
(Line Move)
X16.7925 Y51.4694 Z-1.4732
(Line Move)
X16.4509 Y53.0626 Z-1.4796
(Line Move)
X16.2212 Y54.5997 Z-1.4858
(Line Move)
X16.0915 Y56.0793 Z-1.4916
(Line Move)
X16.0506 Y57.5 Z-1.4972
(Line Move)
X16.0711 Y58.2108 Z-1.5
(Line Move)
X16.0915 Y58.9207 Z-1.5028
(Line Move)
X16.2212 Y60.4003 Z-1.5086
(Line Move)
X16.4509 Y61.9374 Z-1.5148
(Line Move)
X16.7925 Y63.5306 Z-1.5212
(Line Move)
X17.259 Y65.1775 Z-1.5279
(Line Move)
X17.8639 Y66.8745 Z-1.535
(Line Move)
X18.6213 Y68.6166 Z-1.5425
(Line Move)
X19.5457 Y70.3972 Z-1.5504
(Line Move)
X20.6516 Y72.2076 Z-1.5587
(Line Move)
X21.953 Y74.0373 Z-1.5676
(Line Move)
X23.4631 Y75.8734 Z-1.5769
(Line Move)
X25.1934 Y77.7009 Z-1.5868
(Line Move)
X27.1534 Y79.5024 Z-1.5973
(Line Move)
X29.3596 Y81.2664 Z-1.6084
(Line Move)
X30.537 Y82.1134 Z-1.6141
(Line Move)
X31.7846 Y82.9483 Z-1.6201
(Line Move)
X33.0916 Y83.7608 Z-1.6261
(Line Move)
X34.4575 Y84.548 Z-1.6323
(Line Move)
X35.8813 Y85.3068 Z-1.6387
(Line Move)
X37.3617 Y86.0344 Z-1.6452
(Line Move)
X38.8971 Y86.7277 Z-1.6518
(Line Move)
X40.4856 Y87.3838 Z-1.6586
(Line Move)
X42.1247 Y87.9997 Z-1.6655
(Line Move)
X43.8117 Y88.5728 Z-1.6725
(Line Move)
X45.5437 Y89.1002 Z-1.6796
(Line Move)
X47.3172 Y89.5796 Z-1.6868
(Line Move)
X49.1286 Y90.0085 Z-1.6942
(Line Move)
X50.9738 Y90.3848 Z-1.7016
(Line Move)
X52.8485 Y90.7066 Z-1.7091
(Line Move)
X54.7482 Y90.9723 Z-1.7166
(Line Move)
X56.6682 Y91.1804 Z-1.7242
(Line Move)
X58.6035 Y91.3298 Z-1.7319
(Line Move)
X60.5492 Y91.4198 Z-1.7395
(Line Move)
X62.5 Y91.4498 Z-1.7472
(Line Move)
X64.4508 Y91.4198 Z-1.7549
(Line Move)
X66.3965 Y91.3298 Z-1.7625
(Line Move)
X68.3318 Y91.1804 Z-1.7702
(Line Move)
X70.2518 Y90.9723 Z-1.7778
(Line Move)
X72.1515 Y90.7066 Z-1.7853
(Line Move)
X74.0262 Y90.3848 Z-1.7928
(Line Move)
X75.8714 Y90.0085 Z-1.8002
(Line Move)
X77.6828 Y89.5796 Z-1.8076
(Line Move)
X79.4563 Y89.1002 Z-1.8148
(Line Move)
X81.1883 Y88.5728 Z-1.8219
(Line Move)
X82.8753 Y87.9997 Z-1.8289
(Line Move)
X84.5144 Y87.3838 Z-1.8358
(Line Move)
X86.1029 Y86.7277 Z-1.8426
(Line Move)
X87.6383 Y86.0344 Z-1.8492
(Line Move)
X89.1187 Y85.3068 Z-1.8557
(Line Move)
X90.5425 Y84.548 Z-1.8621
(Line Move)
X91.9084 Y83.7608 Z-1.8683
(Line Move)
X93.2154 Y82.9483 Z-1.8743
(Line Move)
X94.463 Y82.1134 Z-1.8803
(Line Move)
X95.6404 Y81.2664 Z-1.886
(Line Move)
X97.8466 Y79.5024 Z-1.8971
(Line Move)
X99.8066 Y77.7009 Z-1.9076
(Line Move)
X101.5369 Y75.8734 Z-1.9175
(Line Move)
X103.047 Y74.0373 Z-1.9268
(Line Move)
X104.3484 Y72.2076 Z-1.9357
(Line Move)
X105.4543 Y70.3972 Z-1.944
(Line Move)
X106.3787 Y68.6166 Z-1.9519
(Line Move)
X107.1361 Y66.8745 Z-1.9594
(Line Move)
X107.741 Y65.1775 Z-1.9665
(Line Move)
X108.2075 Y63.5306 Z-1.9732
(Line Move)
X108.5491 Y61.9374 Z-1.9796
(Line Move)
X108.7788 Y60.4003 Z-1.9858
(Line Move)
X108.9085 Y58.9207 Z-1.9916
(Line Move)
X108.9491 Y57.5095 Z-1.9972
(Line Move)
X108.8637 Y55.4518 Z-2.0053
(Line Move)
X108.5859 Y53.272 Z-2.0139
(Line Move)
X108.2824 Y51.7806 Z-2.0199
(Line Move)
X107.6922 Y49.6709 Z-2.0285
(Line Move)
X107.2642 Y48.4554 Z-2.0336
(Line Move)
X106.6722 Y47.02 Z-2.0397
(Line Move)
X105.8587 Y45.3451 Z-2.0471
(Line Move)
X104.7262 Y43.3791 Z-2.056
(Line Move)
X104.0438 Y42.3381 Z-2.0609
(Line Move)
X103.2344 Y41.2093 Z-2.0664
(Line Move)
X102.2842 Y40.0019 Z-2.0724
(Line Move)
X101.1681 Y38.7145 Z-2.0791
(Line Move)
X99.8567 Y37.3481 Z-2.0866
(Line Move)
X98.316 Y35.9064 Z-2.0949
(Line Move)
X96.5075 Y34.3976 Z-2.1041
(Line Move)
X94.3878 Y32.8352 Z-2.1145
(Line Move)
X91.8983 Y31.2334 Z-2.1262
(Line Move)
X90.5425 Y30.452 Z-2.1323
(Line Move)
X89.1187 Y29.6932 Z-2.1387
(Line Move)
X87.6383 Y28.9656 Z-2.1452
(Line Move)
X86.1029 Y28.2723 Z-2.1518
(Line Move)
X84.5144 Y27.6162 Z-2.1586
(Line Move)
X82.8753 Y27.0003 Z-2.1655
(Line Move)
X81.1883 Y26.4272 Z-2.1725
(Line Move)
X79.4563 Y25.8998 Z-2.1796
(Line Move)
X77.6828 Y25.4204 Z-2.1868
(Line Move)
X75.8714 Y24.9915 Z-2.1942
(Line Move)
X74.0262 Y24.6152 Z-2.2016
(Line Move)
X72.1515 Y24.2934 Z-2.2091
(Line Move)
X70.2518 Y24.0277 Z-2.2166
(Line Move)
X68.3318 Y23.8196 Z-2.2242
(Line Move)
X66.3965 Y23.6702 Z-2.2319
(Line Move)
X64.4508 Y23.5802 Z-2.2395
(Line Move)
X62.5 Y23.5502 Z-2.2472
(Line Move)
X60.5492 Y23.5802 Z-2.2549
(Line Move)
X58.6035 Y23.6702 Z-2.2625
(Line Move)
X56.6682 Y23.8196 Z-2.2702
(Line Move)
X54.7482 Y24.0277 Z-2.2778
(Line Move)
X52.8485 Y24.2934 Z-2.2853
(Line Move)
X50.9738 Y24.6152 Z-2.2928
(Line Move)
X49.1286 Y24.9915 Z-2.3002
(Line Move)
X47.3172 Y25.4204 Z-2.3076
(Line Move)
X45.5437 Y25.8998 Z-2.3148
(Line Move)
X43.8117 Y26.4272 Z-2.3219
(Line Move)
X42.1247 Y27.0003 Z-2.3289
(Line Move)
X40.4856 Y27.6162 Z-2.3358
(Line Move)
X38.8971 Y28.2723 Z-2.3426
(Line Move)
X37.3617 Y28.9656 Z-2.3492
(Line Move)
X35.8813 Y29.6932 Z-2.3557
(Line Move)
X34.4575 Y30.452 Z-2.3621
(Line Move)
X33.0916 Y31.2392 Z-2.3683
(Line Move)
X31.7846 Y32.0517 Z-2.3743
(Line Move)
X30.537 Y32.8866 Z-2.3803
(Line Move)
X29.3596 Y33.7336 Z-2.386
(Line Move)
X27.1534 Y35.4976 Z-2.3971
(Line Move)
X25.1934 Y37.2991 Z-2.4076
(Line Move)
X23.4631 Y39.1266 Z-2.4175
(Line Move)
X21.953 Y40.9627 Z-2.4268
(Line Move)
X20.6516 Y42.7924 Z-2.4357
(Line Move)
X19.5457 Y44.6028 Z-2.444
(Line Move)
X18.6213 Y46.3834 Z-2.4519
(Line Move)
X17.8639 Y48.1255 Z-2.4594
(Line Move)
X17.259 Y49.8225 Z-2.4665
(Line Move)
X16.7925 Y51.4694 Z-2.4732
(Line Move)
X16.4509 Y53.0626 Z-2.4796
(Line Move)
X16.2212 Y54.5997 Z-2.4858
(Line Move)
X16.0915 Y56.0793 Z-2.4916
(Line Move)
X16.0506 Y57.5 Z-2.4972
(Line Move)
X16.0711 Y58.2108 Z-2.5
(Line Move)
X16.0915 Y58.9207 Z-2.5028
(Line Move)
X16.2212 Y60.4003 Z-2.5086
(Line Move)
X16.4509 Y61.9374 Z-2.5148
(Line Move)
X16.7925 Y63.5306 Z-2.5212
(Line Move)
X17.259 Y65.1775 Z-2.5279
(Line Move)
X17.8639 Y66.8745 Z-2.535
(Line Move)
X18.6213 Y68.6166 Z-2.5425
(Line Move)
X19.5457 Y70.3972 Z-2.5504
(Line Move)
X20.6516 Y72.2076 Z-2.5587
(Line Move)
X21.953 Y74.0373 Z-2.5676
(Line Move)
X23.4631 Y75.8734 Z-2.5769
(Line Move)
X25.1934 Y77.7009 Z-2.5868
(Line Move)
X27.1534 Y79.5024 Z-2.5973
(Line Move)
X29.3596 Y81.2664 Z-2.6084
(Line Move)
X30.537 Y82.1134 Z-2.6141
(Line Move)
X31.7846 Y82.9483 Z-2.6201
(Line Move)
X33.0916 Y83.7608 Z-2.6261
(Line Move)
X34.4575 Y84.548 Z-2.6323
(Line Move)
X35.8813 Y85.3068 Z-2.6387
(Line Move)
X37.3617 Y86.0344 Z-2.6452
(Line Move)
X38.8971 Y86.7277 Z-2.6518
(Line Move)
X40.4856 Y87.3838 Z-2.6586
(Line Move)
X42.1247 Y87.9997 Z-2.6655
(Line Move)
X43.8117 Y88.5728 Z-2.6725
(Line Move)
X45.5437 Y89.1002 Z-2.6796
(Line Move)
X47.3172 Y89.5796 Z-2.6868
(Line Move)
X49.1286 Y90.0085 Z-2.6942
(Line Move)
X50.9738 Y90.3848 Z-2.7016
(Line Move)
X52.8485 Y90.7066 Z-2.7091
(Line Move)
X54.7482 Y90.9723 Z-2.7166
(Line Move)
X56.6682 Y91.1804 Z-2.7242
(Line Move)
X58.6035 Y91.3298 Z-2.7319
(Line Move)
X60.5492 Y91.4198 Z-2.7395
(Line Move)
X62.5 Y91.4498 Z-2.7472
(Line Move)
X64.4508 Y91.4198 Z-2.7549
(Line Move)
X66.3965 Y91.3298 Z-2.7625
(Line Move)
X68.3318 Y91.1804 Z-2.7702
(Line Move)
X70.2518 Y90.9723 Z-2.7778
(Line Move)
X72.1515 Y90.7066 Z-2.7853
(Line Move)
X74.0262 Y90.3848 Z-2.7928
(Line Move)
X75.8714 Y90.0085 Z-2.8002
(Line Move)
X77.6828 Y89.5796 Z-2.8076
(Line Move)
X79.4563 Y89.1002 Z-2.8148
(Line Move)
X81.1883 Y88.5728 Z-2.8219
(Line Move)
X82.8753 Y87.9997 Z-2.8289
(Line Move)
X84.5144 Y87.3838 Z-2.8358
(Line Move)
X86.1029 Y86.7277 Z-2.8426
(Line Move)
X87.6383 Y86.0344 Z-2.8492
(Line Move)
X89.1187 Y85.3068 Z-2.8557
(Line Move)
X90.5425 Y84.548 Z-2.8621
(Line Move)
X91.9084 Y83.7608 Z-2.8683
(Line Move)
X93.2154 Y82.9483 Z-2.8743
(Line Move)
X94.463 Y82.1134 Z-2.8803
(Line Move)
X95.6404 Y81.2664 Z-2.886
(Line Move)
X97.8466 Y79.5024 Z-2.8971
(Line Move)
X99.8066 Y77.7009 Z-2.9076
(Line Move)
X101.5369 Y75.8734 Z-2.9175
(Line Move)
X103.047 Y74.0373 Z-2.9268
(Line Move)
X104.3484 Y72.2076 Z-2.9357
(Line Move)
X105.4543 Y70.3972 Z-2.944
(Line Move)
X106.3787 Y68.6166 Z-2.9519
(Line Move)
X107.1361 Y66.8745 Z-2.9594
(Line Move)
X107.741 Y65.1775 Z-2.9665
(Line Move)
X108.2075 Y63.5306 Z-2.9732
(Line Move)
X108.5491 Y61.9374 Z-2.9796
(Line Move)
X108.7788 Y60.4003 Z-2.9858
(Line Move)
X108.9085 Y58.9207 Z-2.9916
(Line Move)
X108.9491 Y57.5095 Z-2.9972
(Line Move)
X108.8637 Y55.4518 Z-3.0053
(Line Move)
X108.5859 Y53.272 Z-3.0139
(Line Move)
X108.2824 Y51.7806 Z-3.0199
(Line Move)
X107.6922 Y49.6709 Z-3.0285
(Line Move)
X107.2642 Y48.4554 Z-3.0336
(Line Move)
X106.6722 Y47.02 Z-3.0397
(Line Move)
X105.8587 Y45.3451 Z-3.0471
(Line Move)
X104.7262 Y43.3791 Z-3.056
(Line Move)
X104.0438 Y42.3381 Z-3.0609
(Line Move)
X103.2344 Y41.2093 Z-3.0664
(Line Move)
X102.2842 Y40.0019 Z-3.0724
(Line Move)
X101.1681 Y38.7145 Z-3.0791
(Line Move)
X99.8567 Y37.3481 Z-3.0866
(Line Move)
X98.316 Y35.9064 Z-3.0949
(Line Move)
X96.5075 Y34.3976 Z-3.1041
(Line Move)
X94.3878 Y32.8352 Z-3.1145
(Line Move)
X91.8983 Y31.2334 Z-3.1262
(Line Move)
X90.5425 Y30.452 Z-3.1323
(Line Move)
X89.1187 Y29.6932 Z-3.1387
(Line Move)
X87.6383 Y28.9656 Z-3.1452
(Line Move)
X86.1029 Y28.2723 Z-3.1518
(Line Move)
X84.5144 Y27.6162 Z-3.1586
(Line Move)
X82.8753 Y27.0003 Z-3.1655
(Line Move)
X81.1883 Y26.4272 Z-3.1725
(Line Move)
X79.4563 Y25.8998 Z-3.1796
(Line Move)
X77.6828 Y25.4204 Z-3.1868
(Line Move)
X75.8714 Y24.9915 Z-3.1942
(Line Move)
X74.0262 Y24.6152 Z-3.2016
(Line Move)
X72.1515 Y24.2934 Z-3.2091
(Line Move)
X70.2518 Y24.0277 Z-3.2166
(Line Move)
X68.3318 Y23.8196 Z-3.2242
(Line Move)
X66.3965 Y23.6702 Z-3.2319
(Line Move)
X64.4508 Y23.5802 Z-3.2395
(Line Move)
X62.5 Y23.5502 Z-3.2472
(Line Move)
X60.5492 Y23.5802 Z-3.2549
(Line Move)
X58.6035 Y23.6702 Z-3.2625
(Line Move)
X56.6682 Y23.8196 Z-3.2702
(Line Move)
X54.7482 Y24.0277 Z-3.2778
(Line Move)
X52.8485 Y24.2934 Z-3.2853
(Line Move)
X50.9738 Y24.6152 Z-3.2928
(Line Move)
X49.1286 Y24.9915 Z-3.3002
(Line Move)
X47.3172 Y25.4204 Z-3.3076
(Line Move)
X45.5437 Y25.8998 Z-3.3148
(Line Move)
X43.8117 Y26.4272 Z-3.3219
(Line Move)
X42.1247 Y27.0003 Z-3.3289
(Line Move)
X40.4856 Y27.6162 Z-3.3358
(Line Move)
X38.8971 Y28.2723 Z-3.3426
(Line Move)
X37.3617 Y28.9656 Z-3.3492
(Line Move)
X35.8813 Y29.6932 Z-3.3557
(Line Move)
X34.4575 Y30.452 Z-3.3621
(Line Move)
X33.0916 Y31.2392 Z-3.3683
(Line Move)
X31.7846 Y32.0517 Z-3.3743
(Line Move)
X30.537 Y32.8866 Z-3.3803
(Line Move)
X29.3596 Y33.7336 Z-3.386
(Line Move)
X27.1534 Y35.4976 Z-3.3971
(Line Move)
X25.1934 Y37.2991 Z-3.4076
(Line Move)
X23.4631 Y39.1266 Z-3.4175
(Line Move)
X21.953 Y40.9627 Z-3.4268
(Line Move)
X20.6516 Y42.7924 Z-3.4357
(Line Move)
X19.5457 Y44.6028 Z-3.444
(Line Move)
X18.6213 Y46.3834 Z-3.4519
(Line Move)
X17.8639 Y48.1255 Z-3.4594
(Line Move)
X17.259 Y49.8225 Z-3.4665
(Line Move)
X16.7925 Y51.4694 Z-3.4732
(Line Move)
X16.4509 Y53.0626 Z-3.4796
(Line Move)
X16.2212 Y54.5997 Z-3.4858
(Line Move)
X16.0915 Y56.0793 Z-3.4916
(Line Move)
X16.0506 Y57.5 Z-3.4972
(Line Move)
X16.0711 Y58.2108 Z-3.5
(Line Move)
X16.0915 Y58.9207 Z-3.5028
(Line Move)
X16.2212 Y60.4003 Z-3.5086
(Line Move)
X16.4509 Y61.9374 Z-3.5148
(Line Move)
X16.7925 Y63.5306 Z-3.5212
(Line Move)
X17.259 Y65.1775 Z-3.5279
(Line Move)
X17.8639 Y66.8745 Z-3.535
(Line Move)
X18.6213 Y68.6166 Z-3.5425
(Line Move)
X19.5457 Y70.3972 Z-3.5504
(Line Move)
X20.6516 Y72.2076 Z-3.5587
(Line Move)
X21.953 Y74.0373 Z-3.5676
(Line Move)
X23.4631 Y75.8734 Z-3.5769
(Line Move)
X25.1934 Y77.7009 Z-3.5868
(Line Move)
X27.1534 Y79.5024 Z-3.5973
(Line Move)
X29.3596 Y81.2664 Z-3.6084
(Line Move)
X30.537 Y82.1134 Z-3.6141
(Line Move)
X31.7846 Y82.9483 Z-3.6201
(Line Move)
X33.0916 Y83.7608 Z-3.6261
(Line Move)
X34.4575 Y84.548 Z-3.6323
(Line Move)
X35.8813 Y85.3068 Z-3.6387
(Line Move)
X37.3617 Y86.0344 Z-3.6452
(Line Move)
X38.8971 Y86.7277 Z-3.6518
(Line Move)
X40.4856 Y87.3838 Z-3.6586
(Line Move)
X42.1247 Y87.9997 Z-3.6655
(Line Move)
X43.8117 Y88.5728 Z-3.6725
(Line Move)
X45.5437 Y89.1002 Z-3.6796
(Line Move)
X47.3172 Y89.5796 Z-3.6868
(Line Move)
X49.1286 Y90.0085 Z-3.6942
(Line Move)
X50.9738 Y90.3848 Z-3.7016
(Line Move)
X52.8485 Y90.7066 Z-3.7091
(Line Move)
X54.7482 Y90.9723 Z-3.7166
(Line Move)
X56.6682 Y91.1804 Z-3.7242
(Line Move)
X58.6035 Y91.3298 Z-3.7319
(Line Move)
X60.5492 Y91.4198 Z-3.7395
(Line Move)
X62.5 Y91.4498 Z-3.7472
(Line Move)
X64.4508 Y91.4198 Z-3.7549
(Line Move)
X66.3965 Y91.3298 Z-3.7625
(Line Move)
X68.3318 Y91.1804 Z-3.7702
(Line Move)
X70.2518 Y90.9723 Z-3.7778
(Line Move)
X72.1515 Y90.7066 Z-3.7853
(Line Move)
X74.0262 Y90.3848 Z-3.7928
(Line Move)
X75.8714 Y90.0085 Z-3.8002
(Line Move)
X77.6828 Y89.5796 Z-3.8076
(Line Move)
X79.4563 Y89.1002 Z-3.8148
(Line Move)
X81.1883 Y88.5728 Z-3.8219
(Line Move)
X82.8753 Y87.9997 Z-3.8289
(Line Move)
X84.5144 Y87.3838 Z-3.8358
(Line Move)
X86.1029 Y86.7277 Z-3.8426
(Line Move)
X87.6383 Y86.0344 Z-3.8492
(Line Move)
X89.1187 Y85.3068 Z-3.8557
(Line Move)
X90.5425 Y84.548 Z-3.8621
(Line Move)
X91.9084 Y83.7608 Z-3.8683
(Line Move)
X93.2154 Y82.9483 Z-3.8743
(Line Move)
X94.463 Y82.1134 Z-3.8803
(Line Move)
X95.6404 Y81.2664 Z-3.886
(Line Move)
X97.8466 Y79.5024 Z-3.8971
(Line Move)
X99.8066 Y77.7009 Z-3.9076
(Line Move)
X101.5369 Y75.8734 Z-3.9175
(Line Move)
X103.047 Y74.0373 Z-3.9268
(Line Move)
X104.3484 Y72.2076 Z-3.9357
(Line Move)
X105.4543 Y70.3972 Z-3.944
(Line Move)
X106.3787 Y68.6166 Z-3.9519
(Line Move)
X107.1361 Y66.8745 Z-3.9594
(Line Move)
X107.741 Y65.1775 Z-3.9665
(Line Move)
X108.2075 Y63.5306 Z-3.9732
(Line Move)
X108.5491 Y61.9374 Z-3.9796
(Line Move)
X108.7788 Y60.4003 Z-3.9858
(Line Move)
X108.9085 Y58.9207 Z-3.9916
(Line Move)
X108.9491 Y57.5095 Z-3.9972
(Line Move)
X108.8637 Y55.4518 Z-4.0053
(Line Move)
X108.5859 Y53.272 Z-4.0139
(Line Move)
X108.2824 Y51.7806 Z-4.0199
(Line Move)
X107.6922 Y49.6709 Z-4.0285
(Line Move)
X107.2642 Y48.4554 Z-4.0336
(Line Move)
X106.6722 Y47.02 Z-4.0397
(Line Move)
X105.8587 Y45.3451 Z-4.0471
(Line Move)
X104.7262 Y43.3791 Z-4.056
(Line Move)
X104.0438 Y42.3381 Z-4.0609
(Line Move)
X103.2344 Y41.2093 Z-4.0664
(Line Move)
X102.2842 Y40.0019 Z-4.0724
(Line Move)
X101.1681 Y38.7145 Z-4.0791
(Line Move)
X99.8567 Y37.3481 Z-4.0866
(Line Move)
X98.316 Y35.9064 Z-4.0949
(Line Move)
X96.5075 Y34.3976 Z-4.1041
(Line Move)
X94.3878 Y32.8352 Z-4.1145
(Line Move)
X91.8983 Y31.2334 Z-4.1262
(Line Move)
X90.5425 Y30.452 Z-4.1323
(Line Move)
X89.1187 Y29.6932 Z-4.1387
(Line Move)
X87.6383 Y28.9656 Z-4.1452
(Line Move)
X86.1029 Y28.2723 Z-4.1518
(Line Move)
X84.5144 Y27.6162 Z-4.1586
(Line Move)
X82.8753 Y27.0003 Z-4.1655
(Line Move)
X81.1883 Y26.4272 Z-4.1725
(Line Move)
X79.4563 Y25.8998 Z-4.1796
(Line Move)
X77.6828 Y25.4204 Z-4.1868
(Line Move)
X75.8714 Y24.9915 Z-4.1942
(Line Move)
X74.0262 Y24.6152 Z-4.2016
(Line Move)
X72.1515 Y24.2934 Z-4.2091
(Line Move)
X70.2518 Y24.0277 Z-4.2166
(Line Move)
X68.3318 Y23.8196 Z-4.2242
(Line Move)
X66.3965 Y23.6702 Z-4.2319
(Line Move)
X64.4508 Y23.5802 Z-4.2395
(Line Move)
X62.5 Y23.5502 Z-4.2472
(Line Move)
X60.5492 Y23.5802 Z-4.2549
(Line Move)
X58.6035 Y23.6702 Z-4.2625
(Line Move)
X56.6682 Y23.8196 Z-4.2702
(Line Move)
X54.7482 Y24.0277 Z-4.2778
(Line Move)
X52.8485 Y24.2934 Z-4.2853
(Line Move)
X50.9738 Y24.6152 Z-4.2928
(Line Move)
X49.1286 Y24.9915 Z-4.3002
(Line Move)
X47.3172 Y25.4204 Z-4.3076
(Line Move)
X45.5437 Y25.8998 Z-4.3148
(Line Move)
X43.8117 Y26.4272 Z-4.3219
(Line Move)
X42.1247 Y27.0003 Z-4.3289
(Line Move)
X40.4856 Y27.6162 Z-4.3358
(Line Move)
X38.8971 Y28.2723 Z-4.3426
(Line Move)
X37.3617 Y28.9656 Z-4.3492
(Line Move)
X35.8813 Y29.6932 Z-4.3557
(Line Move)
X34.4575 Y30.452 Z-4.3621
(Line Move)
X33.0916 Y31.2392 Z-4.3683
(Line Move)
X31.7846 Y32.0517 Z-4.3743
(Line Move)
X30.537 Y32.8866 Z-4.3803
(Line Move)
X29.3596 Y33.7336 Z-4.386
(Line Move)
X27.1534 Y35.4976 Z-4.3971
(Line Move)
X25.1934 Y37.2991 Z-4.4076
(Line Move)
X23.4631 Y39.1266 Z-4.4175
(Line Move)
X21.953 Y40.9627 Z-4.4268
(Line Move)
X20.6516 Y42.7924 Z-4.4357
(Line Move)
X19.5457 Y44.6028 Z-4.444
(Line Move)
X18.6213 Y46.3834 Z-4.4519
(Line Move)
X17.8639 Y48.1255 Z-4.4594
(Line Move)
X17.259 Y49.8225 Z-4.4665
(Line Move)
X16.7925 Y51.4694 Z-4.4732
(Line Move)
X16.4509 Y53.0626 Z-4.4796
(Line Move)
X16.2212 Y54.5997 Z-4.4858
(Line Move)
X16.0915 Y56.0793 Z-4.4916
(Line Move)
X16.0506 Y57.5 Z-4.4972
(Line Move)
X16.0711 Y58.2108 Z-4.5
(Line Move)
X16.0915 Y58.9207 Z-4.5028
(Line Move)
X16.2212 Y60.4003 Z-4.5086
(Line Move)
X16.4509 Y61.9374 Z-4.5148
(Line Move)
X16.7925 Y63.5306 Z-4.5212
(Line Move)
X17.259 Y65.1775 Z-4.5279
(Line Move)
X17.8639 Y66.8745 Z-4.535
(Line Move)
X18.6213 Y68.6166 Z-4.5425
(Line Move)
X19.5457 Y70.3972 Z-4.5504
(Line Move)
X20.6516 Y72.2076 Z-4.5587
(Line Move)
X21.953 Y74.0373 Z-4.5676
(Line Move)
X23.4631 Y75.8734 Z-4.5769
(Line Move)
X25.1934 Y77.7009 Z-4.5868
(Line Move)
X27.1534 Y79.5024 Z-4.5973
(Line Move)
X29.3596 Y81.2664 Z-4.6084
(Line Move)
X30.537 Y82.1134 Z-4.6141
(Line Move)
X31.7846 Y82.9483 Z-4.6201
(Line Move)
X33.0916 Y83.7608 Z-4.6261
(Line Move)
X34.4575 Y84.548 Z-4.6323
(Line Move)
X35.8813 Y85.3068 Z-4.6387
(Line Move)
X37.3617 Y86.0344 Z-4.6452
(Line Move)
X38.8971 Y86.7277 Z-4.6518
(Line Move)
X40.4856 Y87.3838 Z-4.6586
(Line Move)
X42.1247 Y87.9997 Z-4.6655
(Line Move)
X43.8117 Y88.5728 Z-4.6725
(Line Move)
X45.5437 Y89.1002 Z-4.6796
(Line Move)
X47.3172 Y89.5796 Z-4.6868
(Line Move)
X49.1286 Y90.0085 Z-4.6942
(Line Move)
X50.9738 Y90.3848 Z-4.7016
(Line Move)
X52.8485 Y90.7066 Z-4.7091
(Line Move)
X54.7482 Y90.9723 Z-4.7166
(Line Move)
X56.6682 Y91.1804 Z-4.7242
(Line Move)
X58.6035 Y91.3298 Z-4.7319
(Line Move)
X60.5492 Y91.4198 Z-4.7395
(Line Move)
X62.5 Y91.4498 Z-4.7472
(Line Move)
X64.4508 Y91.4198 Z-4.7549
(Line Move)
X66.3965 Y91.3298 Z-4.7625
(Line Move)
X68.3318 Y91.1804 Z-4.7702
(Line Move)
X70.2518 Y90.9723 Z-4.7778
(Line Move)
X72.1515 Y90.7066 Z-4.7853
(Line Move)
X74.0262 Y90.3848 Z-4.7928
(Line Move)
X75.8714 Y90.0085 Z-4.8002
(Line Move)
X77.6828 Y89.5796 Z-4.8076
(Line Move)
X79.4563 Y89.1002 Z-4.8148
(Line Move)
X81.1883 Y88.5728 Z-4.8219
(Line Move)
X82.8753 Y87.9997 Z-4.8289
(Line Move)
X84.5144 Y87.3838 Z-4.8358
(Line Move)
X86.1029 Y86.7277 Z-4.8426
(Line Move)
X87.6383 Y86.0344 Z-4.8492
(Line Move)
X89.1187 Y85.3068 Z-4.8557
(Line Move)
X90.5425 Y84.548 Z-4.8621
(Line Move)
X91.9084 Y83.7608 Z-4.8683
(Line Move)
X93.2154 Y82.9483 Z-4.8743
(Line Move)
X94.463 Y82.1134 Z-4.8803
(Line Move)
X95.6404 Y81.2664 Z-4.886
(Line Move)
X97.8466 Y79.5024 Z-4.8971
(Line Move)
X99.8066 Y77.7009 Z-4.9076
(Line Move)
X101.5369 Y75.8734 Z-4.9175
(Line Move)
X103.047 Y74.0373 Z-4.9268
(Line Move)
X104.3484 Y72.2076 Z-4.9357
(Line Move)
X105.4543 Y70.3972 Z-4.944
(Line Move)
X106.3787 Y68.6166 Z-4.9519
(Line Move)
X107.1361 Y66.8745 Z-4.9594
(Line Move)
X107.741 Y65.1775 Z-4.9665
(Line Move)
X108.2075 Y63.5306 Z-4.9732
(Line Move)
X108.5491 Y61.9374 Z-4.9796
(Line Move)
X108.7788 Y60.4003 Z-4.9858
(Line Move)
X108.9085 Y58.9207 Z-4.9916
(Line Move)
X108.9491 Y57.5095 Z-4.9972
(Line Move)
X108.8637 Y55.4518 Z-5.0053
(Line Move)
X108.5859 Y53.272 Z-5.0139
(Line Move)
X108.2824 Y51.7806 Z-5.0199
(Line Move)
X107.6922 Y49.6709 Z-5.0285
(Line Move)
X107.2642 Y48.4554 Z-5.0336
(Line Move)
X106.6722 Y47.02 Z-5.0397
(Line Move)
X105.8587 Y45.3451 Z-5.0471
(Line Move)
X104.7262 Y43.3791 Z-5.056
(Line Move)
X104.0438 Y42.3381 Z-5.0609
(Line Move)
X103.2344 Y41.2093 Z-5.0664
(Line Move)
X102.2842 Y40.0019 Z-5.0724
(Line Move)
X101.1681 Y38.7145 Z-5.0791
(Line Move)
X99.8567 Y37.3481 Z-5.0866
(Line Move)
X98.316 Y35.9064 Z-5.0949
(Line Move)
X96.5075 Y34.3976 Z-5.1041
(Line Move)
X94.3878 Y32.8352 Z-5.1145
(Line Move)
X91.8983 Y31.2334 Z-5.1262
(Line Move)
X90.5425 Y30.452 Z-5.1323
(Line Move)
X89.1187 Y29.6932 Z-5.1387
(Line Move)
X87.6383 Y28.9656 Z-5.1452
(Line Move)
X86.1029 Y28.2723 Z-5.1518
(Line Move)
X84.5144 Y27.6162 Z-5.1586
(Line Move)
X82.8753 Y27.0003 Z-5.1655
(Line Move)
X81.1883 Y26.4272 Z-5.1725
(Line Move)
X79.4563 Y25.8998 Z-5.1796
(Line Move)
X77.6828 Y25.4204 Z-5.1868
(Line Move)
X75.8714 Y24.9915 Z-5.1942
(Line Move)
X74.0262 Y24.6152 Z-5.2016
(Line Move)
X72.1515 Y24.2934 Z-5.2091
(Line Move)
X70.2518 Y24.0277 Z-5.2166
(Line Move)
X68.3318 Y23.8196 Z-5.2242
(Line Move)
X66.3965 Y23.6702 Z-5.2319
(Line Move)
X64.4508 Y23.5802 Z-5.2395
(Line Move)
X62.5 Y23.5502 Z-5.2472
(Line Move)
X60.5492 Y23.5802 Z-5.2549
(Line Move)
X58.6035 Y23.6702 Z-5.2625
(Line Move)
X56.6682 Y23.8196 Z-5.2702
(Line Move)
X54.7482 Y24.0277 Z-5.2778
(Line Move)
X52.8485 Y24.2934 Z-5.2853
(Line Move)
X50.9738 Y24.6152 Z-5.2928
(Line Move)
X49.1286 Y24.9915 Z-5.3002
(Line Move)
X47.3172 Y25.4204 Z-5.3076
(Line Move)
X45.5437 Y25.8998 Z-5.3148
(Line Move)
X43.8117 Y26.4272 Z-5.3219
(Line Move)
X42.1247 Y27.0003 Z-5.3289
(Line Move)
X40.4856 Y27.6162 Z-5.3358
(Line Move)
X38.8971 Y28.2723 Z-5.3426
(Line Move)
X37.3617 Y28.9656 Z-5.3492
(Line Move)
X35.8813 Y29.6932 Z-5.3557
(Line Move)
X34.4575 Y30.452 Z-5.3621
(Line Move)
X33.0916 Y31.2392 Z-5.3683
(Line Move)
X31.7846 Y32.0517 Z-5.3743
(Line Move)
X30.537 Y32.8866 Z-5.3803
(Line Move)
X29.3596 Y33.7336 Z-5.386
(Line Move)
X27.1534 Y35.4976 Z-5.3971
(Line Move)
X25.1934 Y37.2991 Z-5.4076
(Line Move)
X23.4631 Y39.1266 Z-5.4175
(Line Move)
X21.953 Y40.9627 Z-5.4268
(Line Move)
X20.6516 Y42.7924 Z-5.4357
(Line Move)
X19.5457 Y44.6028 Z-5.444
(Line Move)
X18.6213 Y46.3834 Z-5.4519
(Line Move)
X17.8639 Y48.1255 Z-5.4594
(Line Move)
X17.259 Y49.8225 Z-5.4665
(Line Move)
X16.7925 Y51.4694 Z-5.4732
(Line Move)
X16.4509 Y53.0626 Z-5.4796
(Line Move)
X16.2212 Y54.5997 Z-5.4858
(Line Move)
X16.0915 Y56.0793 Z-5.4916
(Line Move)
X16.0506 Y57.5 Z-5.4972
(Line Move)
X16.0711 Y58.2108 Z-5.5
(Line Move)
X16.0915 Y58.9207 Z-5.5028
(Line Move)
X16.2212 Y60.4003 Z-5.5086
(Line Move)
X16.4509 Y61.9374 Z-5.5148
(Line Move)
X16.7925 Y63.5306 Z-5.5212
(Line Move)
X17.259 Y65.1775 Z-5.5279
(Line Move)
X17.8639 Y66.8745 Z-5.535
(Line Move)
X18.6213 Y68.6166 Z-5.5425
(Line Move)
X19.5457 Y70.3972 Z-5.5504
(Line Move)
X20.6516 Y72.2076 Z-5.5587
(Line Move)
X21.953 Y74.0373 Z-5.5676
(Line Move)
X23.4631 Y75.8734 Z-5.5769
(Line Move)
X25.1934 Y77.7009 Z-5.5868
(Line Move)
X27.1534 Y79.5024 Z-5.5973
(Line Move)
X29.3596 Y81.2664 Z-5.6084
(Line Move)
X30.537 Y82.1134 Z-5.6141
(Line Move)
X31.7846 Y82.9483 Z-5.6201
(Line Move)
X33.0916 Y83.7608 Z-5.6261
(Line Move)
X34.4575 Y84.548 Z-5.6323
(Line Move)
X35.8813 Y85.3068 Z-5.6387
(Line Move)
X37.3617 Y86.0344 Z-5.6452
(Line Move)
X38.8971 Y86.7277 Z-5.6518
(Line Move)
X40.4856 Y87.3838 Z-5.6586
(Line Move)
X42.1247 Y87.9997 Z-5.6655
(Line Move)
X43.8117 Y88.5728 Z-5.6725
(Line Move)
X45.5437 Y89.1002 Z-5.6796
(Line Move)
X47.3172 Y89.5796 Z-5.6868
(Line Move)
X49.1286 Y90.0085 Z-5.6942
(Line Move)
X50.9738 Y90.3848 Z-5.7016
(Line Move)
X52.8485 Y90.7066 Z-5.7091
(Line Move)
X54.7482 Y90.9723 Z-5.7166
(Line Move)
X56.6682 Y91.1804 Z-5.7242
(Line Move)
X58.6035 Y91.3298 Z-5.7319
(Line Move)
X60.5492 Y91.4198 Z-5.7395
(Line Move)
X62.5 Y91.4498 Z-5.7472
(Line Move)
X64.4508 Y91.4198 Z-5.7549
(Line Move)
X66.3965 Y91.3298 Z-5.7625
(Line Move)
X68.3318 Y91.1804 Z-5.7702
(Line Move)
X70.2518 Y90.9723 Z-5.7778
(Line Move)
X72.1515 Y90.7066 Z-5.7853
(Line Move)
X74.0262 Y90.3848 Z-5.7928
(Line Move)
X75.8714 Y90.0085 Z-5.8002
(Line Move)
X77.6828 Y89.5796 Z-5.8076
(Line Move)
X79.4563 Y89.1002 Z-5.8148
(Line Move)
X81.1883 Y88.5728 Z-5.8219
(Line Move)
X82.8753 Y87.9997 Z-5.8289
(Line Move)
X84.5144 Y87.3838 Z-5.8358
(Line Move)
X86.1029 Y86.7277 Z-5.8426
(Line Move)
X87.6383 Y86.0344 Z-5.8492
(Line Move)
X89.1187 Y85.3068 Z-5.8557
(Line Move)
X90.5425 Y84.548 Z-5.8621
(Line Move)
X91.9084 Y83.7608 Z-5.8683
(Line Move)
X93.2154 Y82.9483 Z-5.8743
(Line Move)
X94.463 Y82.1134 Z-5.8803
(Line Move)
X95.6404 Y81.2664 Z-5.886
(Line Move)
X97.8466 Y79.5024 Z-5.8971
(Line Move)
X99.8066 Y77.7009 Z-5.9076
(Line Move)
X101.5369 Y75.8734 Z-5.9175
(Line Move)
X103.047 Y74.0373 Z-5.9268
(Line Move)
X104.3484 Y72.2076 Z-5.9357
(Line Move)
X105.4543 Y70.3972 Z-5.944
(Line Move)
X106.1542 Y69.0491 Z-5.95
(Line Move)
X106.3787 Y68.6166 Z-5.95
(Line Move)
X107.1361 Y66.8745 Z-5.95
(Line Move)
X107.741 Y65.1775 Z-5.95
(Line Move)
X108.2075 Y63.5306 Z-5.95
(Line Move)
X108.5491 Y61.9374 Z-5.95
(Line Move)
X108.7788 Y60.4003 Z-5.95
(Line Move)
X108.9085 Y58.9207 Z-5.95
(Line Move)
X108.9491 Y57.5095 Z-5.95
(Line Move)
X108.8637 Y55.4518 Z-5.95
(Line Move)
X108.5859 Y53.272 Z-5.95
(Line Move)
X108.2824 Y51.7806 Z-5.95
(Line Move)
X107.6922 Y49.6709 Z-5.95
(Line Move)
X107.2642 Y48.4554 Z-5.95
(Line Move)
X106.6722 Y47.02 Z-5.95
(Line Move)
X105.8587 Y45.3451 Z-5.95
(Line Move)
X104.7262 Y43.3791 Z-5.95
(Line Move)
X104.0438 Y42.3381 Z-5.95
(Line Move)
X103.2344 Y41.2093 Z-5.95
(Line Move)
X102.2842 Y40.0019 Z-5.95
(Line Move)
X101.1681 Y38.7145 Z-5.95
(Line Move)
X99.8567 Y37.3481 Z-5.95
(Line Move)
X98.316 Y35.9064 Z-5.95
(Line Move)
X96.5075 Y34.3976 Z-5.95
(Line Move)
X94.3878 Y32.8352 Z-5.95
(Line Move)
X91.8983 Y31.2334 Z-5.95
(Line Move)
X90.5425 Y30.452 Z-5.95
(Line Move)
X89.1187 Y29.6932 Z-5.95
(Line Move)
X87.6383 Y28.9656 Z-5.95
(Line Move)
X86.1029 Y28.2723 Z-5.95
(Line Move)
X84.5144 Y27.6162 Z-5.95
(Line Move)
X82.8753 Y27.0003 Z-5.95
(Line Move)
X81.1883 Y26.4272 Z-5.95
(Line Move)
X79.4563 Y25.8998 Z-5.95
(Line Move)
X77.6828 Y25.4204 Z-5.95
(Line Move)
X75.8714 Y24.9915 Z-5.95
(Line Move)
X74.0262 Y24.6152 Z-5.95
(Line Move)
X72.1515 Y24.2934 Z-5.95
(Line Move)
X70.2518 Y24.0277 Z-5.95
(Line Move)
X68.3318 Y23.8196 Z-5.95
(Line Move)
X66.3965 Y23.6702 Z-5.95
(Line Move)
X64.4508 Y23.5802 Z-5.95
(Line Move)
X62.5 Y23.5502 Z-5.95
(Line Move)
X60.5492 Y23.5802 Z-5.95
(Line Move)
X58.6035 Y23.6702 Z-5.95
(Line Move)
X56.6682 Y23.8196 Z-5.95
(Line Move)
X54.7482 Y24.0277 Z-5.95
(Line Move)
X52.8485 Y24.2934 Z-5.95
(Line Move)
X50.9738 Y24.6152 Z-5.95
(Line Move)
X49.1286 Y24.9915 Z-5.95
(Line Move)
X47.3172 Y25.4204 Z-5.95
(Line Move)
X45.5437 Y25.8998 Z-5.95
(Line Move)
X43.8117 Y26.4272 Z-5.95
(Line Move)
X42.1247 Y27.0003 Z-5.95
(Line Move)
X40.4856 Y27.6162 Z-5.95
(Line Move)
X38.8971 Y28.2723 Z-5.95
(Line Move)
X37.3617 Y28.9656 Z-5.95
(Line Move)
X35.8813 Y29.6932 Z-5.95
(Line Move)
X34.4575 Y30.452 Z-5.95
(Line Move)
X33.0916 Y31.2392 Z-5.95
(Line Move)
X31.7846 Y32.0517 Z-5.95
(Line Move)
X30.537 Y32.8866 Z-5.95
(Line Move)
X29.3596 Y33.7336 Z-5.95
(Line Move)
X27.1534 Y35.4976 Z-5.95
(Line Move)
X25.1934 Y37.2991 Z-5.95
(Line Move)
X23.4631 Y39.1266 Z-5.95
(Line Move)
X21.953 Y40.9627 Z-5.95
(Line Move)
X20.6516 Y42.7924 Z-5.95
(Line Move)
X19.5457 Y44.6028 Z-5.95
(Line Move)
X18.6213 Y46.3834 Z-5.95
(Line Move)
X17.8639 Y48.1255 Z-5.95
(Line Move)
X17.259 Y49.8225 Z-5.95
(Line Move)
X16.7925 Y51.4694 Z-5.95
(Line Move)
X16.4509 Y53.0626 Z-5.95
(Line Move)
X16.2212 Y54.5997 Z-5.95
(Line Move)
X16.0915 Y56.0793 Z-5.95
(Line Move)
X16.0506 Y57.5 Z-5.95
(Line Move)
X16.0915 Y58.9207 Z-5.95
(Line Move)
X16.2212 Y60.4003 Z-5.95
(Line Move)
X16.4509 Y61.9374 Z-5.95
(Line Move)
X16.7925 Y63.5306 Z-5.95
(Line Move)
X17.259 Y65.1775 Z-5.95
(Line Move)
X17.8639 Y66.8745 Z-5.95
(Line Move)
X18.6213 Y68.6166 Z-5.95
(Line Move)
X19.5457 Y70.3972 Z-5.95
(Line Move)
X20.6516 Y72.2076 Z-5.95
(Line Move)
X21.953 Y74.0373 Z-5.95
(Line Move)
X23.4631 Y75.8734 Z-5.95
(Line Move)
X25.1934 Y77.7009 Z-5.95
(Line Move)
X27.1534 Y79.5024 Z-5.95
(Line Move)
X29.3596 Y81.2664 Z-5.95
(Line Move)
X30.537 Y82.1134 Z-5.95
(Line Move)
X31.7846 Y82.9483 Z-5.95
(Line Move)
X33.0916 Y83.7608 Z-5.95
(Line Move)
X34.4575 Y84.548 Z-5.95
(Line Move)
X35.8813 Y85.3068 Z-5.95
(Line Move)
X37.3617 Y86.0344 Z-5.95
(Line Move)
X38.8971 Y86.7277 Z-5.95
(Line Move)
X40.4856 Y87.3838 Z-5.95
(Line Move)
X42.1247 Y87.9997 Z-5.95
(Line Move)
X43.8117 Y88.5728 Z-5.95
(Line Move)
X45.5437 Y89.1002 Z-5.95
(Line Move)
X47.3172 Y89.5796 Z-5.95
(Line Move)
X49.1286 Y90.0085 Z-5.95
(Line Move)
X50.9738 Y90.3848 Z-5.95
(Line Move)
X52.8485 Y90.7066 Z-5.95
(Line Move)
X54.7482 Y90.9723 Z-5.95
(Line Move)
X56.6682 Y91.1804 Z-5.95
(Line Move)
X58.6035 Y91.3298 Z-5.95
(Line Move)
X60.5492 Y91.4198 Z-5.95
(Line Move)
X62.5 Y91.4498 Z-5.95
(Line Move)
X64.4508 Y91.4198 Z-5.95
(Line Move)
X66.3965 Y91.3298 Z-5.95
(Line Move)
X68.3318 Y91.1804 Z-5.95
(Line Move)
X70.2518 Y90.9723 Z-5.95
(Line Move)
X72.1515 Y90.7066 Z-5.95
(Line Move)
X74.0262 Y90.3848 Z-5.95
(Line Move)
X75.8714 Y90.0085 Z-5.95
(Line Move)
X77.6828 Y89.5796 Z-5.95
(Line Move)
X79.4563 Y89.1002 Z-5.95
(Line Move)
X81.1883 Y88.5728 Z-5.95
(Line Move)
X82.8753 Y87.9997 Z-5.95
(Line Move)
X84.5144 Y87.3838 Z-5.95
(Line Move)
X86.1029 Y86.7277 Z-5.95
(Line Move)
X87.6383 Y86.0344 Z-5.95
(Line Move)
X89.1187 Y85.3068 Z-5.95
(Line Move)
X90.5425 Y84.548 Z-5.95
(Line Move)
X91.9084 Y83.7608 Z-5.95
(Line Move)
X93.2154 Y82.9483 Z-5.95
(Line Move)
X94.463 Y82.1134 Z-5.95
(Line Move)
X95.6404 Y81.2664 Z-5.95
(Line Move)
X97.8466 Y79.5024 Z-5.95
(Line Move)
X99.8066 Y77.7009 Z-5.95
(Line Move)
X101.5369 Y75.8734 Z-5.95
(Line Move)
X103.047 Y74.0373 Z-5.95
(Line Move)
X104.3484 Y72.2076 Z-5.95
(Line Move)
X105.4543 Y70.3972 Z-5.95
(Line Move)
X106.1542 Y69.0491 Z-5.95
(Line Move)
X106.2924 Y68.7828 Z-5.95
(Arc Move)
G2 X106.3262 Y68.6446 I-.2663 J-.1382
(Arc Move)
X106.3122 Y68.5541 I-.3 J0
(Line Leadout Move)
G1 X105.8415 Y67.0668
(Rapid Z up)
G0 Z3.
(Rapid Z up)
Z5.
(Rapid Move)
X14.55 Y102.5
(Rapid Z Down)
Z3.
(Line Leadin Move)
G1 X14.5084 Y101.1496 F400.
(Line Leadin Move)
X13.2082 Y102.0115 Z2.5599
(Arc Move)
G2 X13.0799 Y102.202 Z2.4934 I.1658 J.25
(Arc Move)
X13.05 Y102.5 Z2.4088 I1.4701 J.298 F750.
(Arc Move)
X14.55 Y104. Z1.7441 I1.5 J0
(Arc Move)
X16.05 Y102.5 Z1.0794 I0 J-1.5
(Arc Move)
X14.55 Y101. Z.4147 I-1.5 J0
(Arc Move)
X13.05 Y102.5 Z-.25 I0 J1.5
(Arc Move)
X14.55 Y104. Z-.3125 I1.5 J0
(Arc Move)
X16.05 Y102.5 Z-.375 I0 J-1.5
(Arc Move)
X14.55 Y101. Z-.4375 I-1.5 J0
(Arc Move)
X13.05 Y102.5 Z-.5 I0 J1.5
(Arc Move)
X14.55 Y104. Z-.5625 I1.5 J0
(Arc Move)
X16.05 Y102.5 Z-.625 I0 J-1.5
(Arc Move)
X14.55 Y101. Z-.6875 I-1.5 J0
(Arc Move)
X13.05 Y102.5 Z-.75 I0 J1.5
(Arc Move)
X14.55 Y104. Z-.8125 I1.5 J0
(Arc Move)
X16.05 Y102.5 Z-.875 I0 J-1.5
(Arc Move)
X14.55 Y101. Z-.9375 I-1.5 J0
(Arc Move)
X13.05 Y102.5 Z-1. I0 J1.5
(Arc Move)
X14.55 Y104. Z-1.0625 I1.5 J0
(Arc Move)
X16.05 Y102.5 Z-1.125 I0 J-1.5
(Arc Move)
X14.55 Y101. Z-1.1875 I-1.5 J0
(Arc Move)
X13.05 Y102.5 Z-1.25 I0 J1.5
(Arc Move)
X14.55 Y104. Z-1.3125 I1.5 J0
(Arc Move)
X16.05 Y102.5 Z-1.375 I0 J-1.5
(Arc Move)
X14.55 Y101. Z-1.4375 I-1.5 J0
(Arc Move)
X13.05 Y102.5 Z-1.5 I0 J1.5
(Arc Move)
X14.55 Y104. Z-1.5625 I1.5 J0
(Arc Move)
X16.05 Y102.5 Z-1.625 I0 J-1.5
(Arc Move)
X14.55 Y101. Z-1.6875 I-1.5 J0
(Arc Move)
X13.05 Y102.5 Z-1.75 I0 J1.5
(Arc Move)
X14.55 Y104. Z-1.8125 I1.5 J0
(Arc Move)
X16.05 Y102.5 Z-1.875 I0 J-1.5
(Arc Move)
X14.55 Y101. Z-1.9375 I-1.5 J0
(Arc Move)
X13.05 Y102.5 Z-2. I0 J1.5
(Arc Move)
X14.55 Y104. Z-2.0625 I1.5 J0
(Arc Move)
X16.05 Y102.5 Z-2.125 I0 J-1.5
(Arc Move)
X14.55 Y101. Z-2.1875 I-1.5 J0
(Arc Move)
X13.05 Y102.5 Z-2.25 I0 J1.5
(Arc Move)
X14.55 Y104. Z-2.3125 I1.5 J0
(Arc Move)
X16.05 Y102.5 Z-2.375 I0 J-1.5
(Arc Move)
X14.55 Y101. Z-2.4375 I-1.5 J0
(Arc Move)
X13.05 Y102.5 Z-2.5 I0 J1.5
(Arc Move)
X14.55 Y104. Z-2.5625 I1.5 J0
(Arc Move)
X16.05 Y102.5 Z-2.625 I0 J-1.5
(Arc Move)
X14.55 Y101. Z-2.6875 I-1.5 J0
(Arc Move)
X13.05 Y102.5 Z-2.75 I0 J1.5
(Arc Move)
X14.55 Y104. Z-2.8125 I1.5 J0
(Arc Move)
X16.05 Y102.5 Z-2.875 I0 J-1.5
(Arc Move)
X14.55 Y101. Z-2.9375 I-1.5 J0
(Arc Move)
X13.05 Y102.5 Z-3. I0 J1.5
(Arc Move)
X14.55 Y104. Z-3.0625 I1.5 J0
(Arc Move)
X16.05 Y102.5 Z-3.125 I0 J-1.5
(Arc Move)
X14.55 Y101. Z-3.1875 I-1.5 J0
(Arc Move)
X13.05 Y102.5 Z-3.25 I0 J1.5
(Arc Move)
X14.55 Y104. Z-3.3125 I1.5 J0
(Arc Move)
X16.05 Y102.5 Z-3.375 I0 J-1.5
(Arc Move)
X14.55 Y101. Z-3.4375 I-1.5 J0
(Arc Move)
X13.05 Y102.5 Z-3.5 I0 J1.5
(Arc Move)
X14.55 Y104. Z-3.5625 I1.5 J0
(Arc Move)
X16.05 Y102.5 Z-3.625 I0 J-1.5
(Arc Move)
X14.55 Y101. Z-3.6875 I-1.5 J0
(Arc Move)
X13.05 Y102.5 Z-3.75 I0 J1.5
(Arc Move)
X14.55 Y104. Z-3.8125 I1.5 J0
(Arc Move)
X16.05 Y102.5 Z-3.875 I0 J-1.5
(Arc Move)
X14.55 Y101. Z-3.9375 I-1.5 J0
(Arc Move)
X13.05 Y102.5 Z-4. I0 J1.5
(Arc Move)
X14.55 Y104. Z-4.0625 I1.5 J0
(Arc Move)
X16.05 Y102.5 Z-4.125 I0 J-1.5
(Arc Move)
X14.55 Y101. Z-4.1875 I-1.5 J0
(Arc Move)
X13.05 Y102.5 Z-4.25 I0 J1.5
(Arc Move)
X14.55 Y104. Z-4.3125 I1.5 J0
(Arc Move)
X16.05 Y102.5 Z-4.375 I0 J-1.5
(Arc Move)
X14.55 Y101. Z-4.4375 I-1.5 J0
(Arc Move)
X13.05 Y102.5 Z-4.5 I0 J1.5
(Arc Move)
X14.55 Y104. Z-4.5625 I1.5 J0
(Arc Move)
X16.05 Y102.5 Z-4.625 I0 J-1.5
(Arc Move)
X14.55 Y101. Z-4.6875 I-1.5 J0
(Arc Move)
X13.05 Y102.5 Z-4.75 I0 J1.5
(Arc Move)
X14.55 Y104. Z-4.8125 I1.5 J0
(Arc Move)
X16.05 Y102.5 Z-4.875 I0 J-1.5
(Arc Move)
X14.55 Y101. Z-4.9375 I-1.5 J0
(Arc Move)
X13.05 Y102.5 Z-5. I0 J1.5
(Arc Move)
X14.55 Y104. Z-5.0625 I1.5 J0
(Arc Move)
X16.05 Y102.5 Z-5.125 I0 J-1.5
(Arc Move)
X14.55 Y101. Z-5.1875 I-1.5 J0
(Arc Move)
X13.05 Y102.5 Z-5.25 I0 J1.5
(Arc Move)
X14.55 Y104. Z-5.3125 I1.5 J0
(Arc Move)
X16.05 Y102.5 Z-5.375 I0 J-1.5
(Arc Move)
X14.55 Y101. Z-5.4375 I-1.5 J0
(Arc Move)
X13.05 Y102.5 Z-5.5 I0 J1.5
(Arc Move)
X14.55 Y104. Z-5.5625 I1.5 J0
(Arc Move)
X16.05 Y102.5 Z-5.625 I0 J-1.5
(Arc Move)
X14.55 Y101. Z-5.6875 I-1.5 J0
(Arc Move)
X13.05 Y102.5 Z-5.75 I0 J1.5
(Arc Move)
X14.55 Y104. Z-5.8125 I1.5 J0
(Arc Move)
X16.05 Y102.5 Z-5.875 I0 J-1.5
(Arc Move)
X14.55 Y101. Z-5.9375 I-1.5 J0
(Arc Move)
X14.0865 Y101.0734 Z-5.95 I0 J1.5
(Arc Move)
X13.05 Y102.5 I.4635 J1.4266
(Arc Move)
X14.55 Y104. I1.5 J0
(Arc Move)
X16.05 Y102.5 I0 J-1.5
(Arc Move)
X14.55 Y101. I-1.5 J0
(Arc Move)
X14.0865 Y101.0734 I0 J1.5
(Arc Move)
X13.8123 Y101.1939 I.4635 J1.4266
(Arc Move)
X13.6708 Y101.3748 I.1475 J.2612
(Line Leadout Move)
G1 X13.2528 Y102.8777
(Rapid Z up)
G0 Z3.
(Rapid Z up)
Z5.
(Rapid Move)
X14.55 Y12.5
(Rapid Z Down)
Z3.
(Line Leadin Move)
G1 X14.5084 Y11.1496 F400.
(Line Leadin Move)
X13.2082 Y12.0115 Z2.5599
(Arc Move)
G2 X13.0799 Y12.202 Z2.4934 I.1658 J.25
(Arc Move)
X13.05 Y12.5 Z2.4088 I1.4701 J.298 F750.
(Arc Move)
X14.55 Y14. Z1.7441 I1.5 J0
(Arc Move)
X16.05 Y12.5 Z1.0794 I0 J-1.5
(Arc Move)
X14.55 Y11. Z.4147 I-1.5 J0
(Arc Move)
X13.05 Y12.5 Z-.25 I0 J1.5
(Arc Move)
X14.55 Y14. Z-.3125 I1.5 J0
(Arc Move)
X16.05 Y12.5 Z-.375 I0 J-1.5
(Arc Move)
X14.55 Y11. Z-.4375 I-1.5 J0
(Arc Move)
X13.05 Y12.5 Z-.5 I0 J1.5
(Arc Move)
X14.55 Y14. Z-.5625 I1.5 J0
(Arc Move)
X16.05 Y12.5 Z-.625 I0 J-1.5
(Arc Move)
X14.55 Y11. Z-.6875 I-1.5 J0
(Arc Move)
X13.05 Y12.5 Z-.75 I0 J1.5
(Arc Move)
X14.55 Y14. Z-.8125 I1.5 J0
(Arc Move)
X16.05 Y12.5 Z-.875 I0 J-1.5
(Arc Move)
X14.55 Y11. Z-.9375 I-1.5 J0
(Arc Move)
X13.05 Y12.5 Z-1. I0 J1.5
(Arc Move)
X14.55 Y14. Z-1.0625 I1.5 J0
(Arc Move)
X16.05 Y12.5 Z-1.125 I0 J-1.5
(Arc Move)
X14.55 Y11. Z-1.1875 I-1.5 J0
(Arc Move)
X13.05 Y12.5 Z-1.25 I0 J1.5
(Arc Move)
X14.55 Y14. Z-1.3125 I1.5 J0
(Arc Move)
X16.05 Y12.5 Z-1.375 I0 J-1.5
(Arc Move)
X14.55 Y11. Z-1.4375 I-1.5 J0
(Arc Move)
X13.05 Y12.5 Z-1.5 I0 J1.5
(Arc Move)
X14.55 Y14. Z-1.5625 I1.5 J0
(Arc Move)
X16.05 Y12.5 Z-1.625 I0 J-1.5
(Arc Move)
X14.55 Y11. Z-1.6875 I-1.5 J0
(Arc Move)
X13.05 Y12.5 Z-1.75 I0 J1.5
(Arc Move)
X14.55 Y14. Z-1.8125 I1.5 J0
(Arc Move)
X16.05 Y12.5 Z-1.875 I0 J-1.5
(Arc Move)
X14.55 Y11. Z-1.9375 I-1.5 J0
(Arc Move)
X13.05 Y12.5 Z-2. I0 J1.5
(Arc Move)
X14.55 Y14. Z-2.0625 I1.5 J0
(Arc Move)
X16.05 Y12.5 Z-2.125 I0 J-1.5
(Arc Move)
X14.55 Y11. Z-2.1875 I-1.5 J0
(Arc Move)
X13.05 Y12.5 Z-2.25 I0 J1.5
(Arc Move)
X14.55 Y14. Z-2.3125 I1.5 J0
(Arc Move)
X16.05 Y12.5 Z-2.375 I0 J-1.5
(Arc Move)
X14.55 Y11. Z-2.4375 I-1.5 J0
(Arc Move)
X13.05 Y12.5 Z-2.5 I0 J1.5
(Arc Move)
X14.55 Y14. Z-2.5625 I1.5 J0
(Arc Move)
X16.05 Y12.5 Z-2.625 I0 J-1.5
(Arc Move)
X14.55 Y11. Z-2.6875 I-1.5 J0
(Arc Move)
X13.05 Y12.5 Z-2.75 I0 J1.5
(Arc Move)
X14.55 Y14. Z-2.8125 I1.5 J0
(Arc Move)
X16.05 Y12.5 Z-2.875 I0 J-1.5
(Arc Move)
X14.55 Y11. Z-2.9375 I-1.5 J0
(Arc Move)
X13.05 Y12.5 Z-3. I0 J1.5
(Arc Move)
X14.55 Y14. Z-3.0625 I1.5 J0
(Arc Move)
X16.05 Y12.5 Z-3.125 I0 J-1.5
(Arc Move)
X14.55 Y11. Z-3.1875 I-1.5 J0
(Arc Move)
X13.05 Y12.5 Z-3.25 I0 J1.5
(Arc Move)
X14.55 Y14. Z-3.3125 I1.5 J0
(Arc Move)
X16.05 Y12.5 Z-3.375 I0 J-1.5
(Arc Move)
X14.55 Y11. Z-3.4375 I-1.5 J0
(Arc Move)
X13.05 Y12.5 Z-3.5 I0 J1.5
(Arc Move)
X14.55 Y14. Z-3.5625 I1.5 J0
(Arc Move)
X16.05 Y12.5 Z-3.625 I0 J-1.5
(Arc Move)
X14.55 Y11. Z-3.6875 I-1.5 J0
(Arc Move)
X13.05 Y12.5 Z-3.75 I0 J1.5
(Arc Move)
X14.55 Y14. Z-3.8125 I1.5 J0
(Arc Move)
X16.05 Y12.5 Z-3.875 I0 J-1.5
(Arc Move)
X14.55 Y11. Z-3.9375 I-1.5 J0
(Arc Move)
X13.05 Y12.5 Z-4. I0 J1.5
(Arc Move)
X14.55 Y14. Z-4.0625 I1.5 J0
(Arc Move)
X16.05 Y12.5 Z-4.125 I0 J-1.5
(Arc Move)
X14.55 Y11. Z-4.1875 I-1.5 J0
(Arc Move)
X13.05 Y12.5 Z-4.25 I0 J1.5
(Arc Move)
X14.55 Y14. Z-4.3125 I1.5 J0
(Arc Move)
X16.05 Y12.5 Z-4.375 I0 J-1.5
(Arc Move)
X14.55 Y11. Z-4.4375 I-1.5 J0
(Arc Move)
X13.05 Y12.5 Z-4.5 I0 J1.5
(Arc Move)
X14.55 Y14. Z-4.5625 I1.5 J0
(Arc Move)
X16.05 Y12.5 Z-4.625 I0 J-1.5
(Arc Move)
X14.55 Y11. Z-4.6875 I-1.5 J0
(Arc Move)
X13.05 Y12.5 Z-4.75 I0 J1.5
(Arc Move)
X14.55 Y14. Z-4.8125 I1.5 J0
(Arc Move)
X16.05 Y12.5 Z-4.875 I0 J-1.5
(Arc Move)
X14.55 Y11. Z-4.9375 I-1.5 J0
(Arc Move)
X13.05 Y12.5 Z-5. I0 J1.5
(Arc Move)
X14.55 Y14. Z-5.0625 I1.5 J0
(Arc Move)
X16.05 Y12.5 Z-5.125 I0 J-1.5
(Arc Move)
X14.55 Y11. Z-5.1875 I-1.5 J0
(Arc Move)
X13.05 Y12.5 Z-5.25 I0 J1.5
(Arc Move)
X14.55 Y14. Z-5.3125 I1.5 J0
(Arc Move)
X16.05 Y12.5 Z-5.375 I0 J-1.5
(Arc Move)
X14.55 Y11. Z-5.4375 I-1.5 J0
(Arc Move)
X13.05 Y12.5 Z-5.5 I0 J1.5
(Arc Move)
X14.55 Y14. Z-5.5625 I1.5 J0
(Arc Move)
X16.05 Y12.5 Z-5.625 I0 J-1.5
(Arc Move)
X14.55 Y11. Z-5.6875 I-1.5 J0
(Arc Move)
X13.05 Y12.5 Z-5.75 I0 J1.5
(Arc Move)
X14.55 Y14. Z-5.8125 I1.5 J0
(Arc Move)
X16.05 Y12.5 Z-5.875 I0 J-1.5
(Arc Move)
X14.55 Y11. Z-5.9375 I-1.5 J0
(Arc Move)
X14.0865 Y11.0734 Z-5.95 I0 J1.5
(Arc Move)
X13.05 Y12.5 I.4635 J1.4266
(Arc Move)
X14.55 Y14. I1.5 J0
(Arc Move)
X16.05 Y12.5 I0 J-1.5
(Arc Move)
X14.55 Y11. I-1.5 J0
(Arc Move)
X14.0865 Y11.0734 I0 J1.5
(Arc Move)
X13.8123 Y11.1939 I.4635 J1.4266
(Arc Move)
X13.6708 Y11.3748 I.1475 J.2612
(Line Leadout Move)
G1 X13.2528 Y12.8777
(Rapid Z up)
G0 Z3.
(Rapid Z up)
Z5.
(Rapid Move)
X110.45 Y12.5
(Rapid Z Down)
Z3.
(Line Leadin Move)
G1 X110.4084 Y11.1496 F400.
(Line Leadin Move)
X109.1082 Y12.0115 Z2.5599
(Arc Move)
G2 X108.9799 Y12.202 Z2.4934 I.1658 J.25
(Arc Move)
X108.95 Y12.5 Z2.4088 I1.4701 J.298 F750.
(Arc Move)
X110.45 Y14. Z1.7441 I1.5 J0
(Arc Move)
X111.95 Y12.5 Z1.0794 I0 J-1.5
(Arc Move)
X110.45 Y11. Z.4147 I-1.5 J0
(Arc Move)
X108.95 Y12.5 Z-.25 I0 J1.5
(Arc Move)
X110.45 Y14. Z-.3125 I1.5 J0
(Arc Move)
X111.95 Y12.5 Z-.375 I0 J-1.5
(Arc Move)
X110.45 Y11. Z-.4375 I-1.5 J0
(Arc Move)
X108.95 Y12.5 Z-.5 I0 J1.5
(Arc Move)
X110.45 Y14. Z-.5625 I1.5 J0
(Arc Move)
X111.95 Y12.5 Z-.625 I0 J-1.5
(Arc Move)
X110.45 Y11. Z-.6875 I-1.5 J0
(Arc Move)
X108.95 Y12.5 Z-.75 I0 J1.5
(Arc Move)
X110.45 Y14. Z-.8125 I1.5 J0
(Arc Move)
X111.95 Y12.5 Z-.875 I0 J-1.5
(Arc Move)
X110.45 Y11. Z-.9375 I-1.5 J0
(Arc Move)
X108.95 Y12.5 Z-1. I0 J1.5
(Arc Move)
X110.45 Y14. Z-1.0625 I1.5 J0
(Arc Move)
X111.95 Y12.5 Z-1.125 I0 J-1.5
(Arc Move)
X110.45 Y11. Z-1.1875 I-1.5 J0
(Arc Move)
X108.95 Y12.5 Z-1.25 I0 J1.5
(Arc Move)
X110.45 Y14. Z-1.3125 I1.5 J0
(Arc Move)
X111.95 Y12.5 Z-1.375 I0 J-1.5
(Arc Move)
X110.45 Y11. Z-1.4375 I-1.5 J0
(Arc Move)
X108.95 Y12.5 Z-1.5 I0 J1.5
(Arc Move)
X110.45 Y14. Z-1.5625 I1.5 J0
(Arc Move)
X111.95 Y12.5 Z-1.625 I0 J-1.5
(Arc Move)
X110.45 Y11. Z-1.6875 I-1.5 J0
(Arc Move)
X108.95 Y12.5 Z-1.75 I0 J1.5
(Arc Move)
X110.45 Y14. Z-1.8125 I1.5 J0
(Arc Move)
X111.95 Y12.5 Z-1.875 I0 J-1.5
(Arc Move)
X110.45 Y11. Z-1.9375 I-1.5 J0
(Arc Move)
X108.95 Y12.5 Z-2. I0 J1.5
(Arc Move)
X110.45 Y14. Z-2.0625 I1.5 J0
(Arc Move)
X111.95 Y12.5 Z-2.125 I0 J-1.5
(Arc Move)
X110.45 Y11. Z-2.1875 I-1.5 J0
(Arc Move)
X108.95 Y12.5 Z-2.25 I0 J1.5
(Arc Move)
X110.45 Y14. Z-2.3125 I1.5 J0
(Arc Move)
X111.95 Y12.5 Z-2.375 I0 J-1.5
(Arc Move)
X110.45 Y11. Z-2.4375 I-1.5 J0
(Arc Move)
X108.95 Y12.5 Z-2.5 I0 J1.5
(Arc Move)
X110.45 Y14. Z-2.5625 I1.5 J0
(Arc Move)
X111.95 Y12.5 Z-2.625 I0 J-1.5
(Arc Move)
X110.45 Y11. Z-2.6875 I-1.5 J0
(Arc Move)
X108.95 Y12.5 Z-2.75 I0 J1.5
(Arc Move)
X110.45 Y14. Z-2.8125 I1.5 J0
(Arc Move)
X111.95 Y12.5 Z-2.875 I0 J-1.5
(Arc Move)
X110.45 Y11. Z-2.9375 I-1.5 J0
(Arc Move)
X108.95 Y12.5 Z-3. I0 J1.5
(Arc Move)
X110.45 Y14. Z-3.0625 I1.5 J0
(Arc Move)
X111.95 Y12.5 Z-3.125 I0 J-1.5
(Arc Move)
X110.45 Y11. Z-3.1875 I-1.5 J0
(Arc Move)
X108.95 Y12.5 Z-3.25 I0 J1.5
(Arc Move)
X110.45 Y14. Z-3.3125 I1.5 J0
(Arc Move)
X111.95 Y12.5 Z-3.375 I0 J-1.5
(Arc Move)
X110.45 Y11. Z-3.4375 I-1.5 J0
(Arc Move)
X108.95 Y12.5 Z-3.5 I0 J1.5
(Arc Move)
X110.45 Y14. Z-3.5625 I1.5 J0
(Arc Move)
X111.95 Y12.5 Z-3.625 I0 J-1.5
(Arc Move)
X110.45 Y11. Z-3.6875 I-1.5 J0
(Arc Move)
X108.95 Y12.5 Z-3.75 I0 J1.5
(Arc Move)
X110.45 Y14. Z-3.8125 I1.5 J0
(Arc Move)
X111.95 Y12.5 Z-3.875 I0 J-1.5
(Arc Move)
X110.45 Y11. Z-3.9375 I-1.5 J0
(Arc Move)
X108.95 Y12.5 Z-4. I0 J1.5
(Arc Move)
X110.45 Y14. Z-4.0625 I1.5 J0
(Arc Move)
X111.95 Y12.5 Z-4.125 I0 J-1.5
(Arc Move)
X110.45 Y11. Z-4.1875 I-1.5 J0
(Arc Move)
X108.95 Y12.5 Z-4.25 I0 J1.5
(Arc Move)
X110.45 Y14. Z-4.3125 I1.5 J0
(Arc Move)
X111.95 Y12.5 Z-4.375 I0 J-1.5
(Arc Move)
X110.45 Y11. Z-4.4375 I-1.5 J0
(Arc Move)
X108.95 Y12.5 Z-4.5 I0 J1.5
(Arc Move)
X110.45 Y14. Z-4.5625 I1.5 J0
(Arc Move)
X111.95 Y12.5 Z-4.625 I0 J-1.5
(Arc Move)
X110.45 Y11. Z-4.6875 I-1.5 J0
(Arc Move)
X108.95 Y12.5 Z-4.75 I0 J1.5
(Arc Move)
X110.45 Y14. Z-4.8125 I1.5 J0
(Arc Move)
X111.95 Y12.5 Z-4.875 I0 J-1.5
(Arc Move)
X110.45 Y11. Z-4.9375 I-1.5 J0
(Arc Move)
X108.95 Y12.5 Z-5. I0 J1.5
(Arc Move)
X110.45 Y14. Z-5.0625 I1.5 J0
(Arc Move)
X111.95 Y12.5 Z-5.125 I0 J-1.5
(Arc Move)
X110.45 Y11. Z-5.1875 I-1.5 J0
(Arc Move)
X108.95 Y12.5 Z-5.25 I0 J1.5
(Arc Move)
X110.45 Y14. Z-5.3125 I1.5 J0
(Arc Move)
X111.95 Y12.5 Z-5.375 I0 J-1.5
(Arc Move)
X110.45 Y11. Z-5.4375 I-1.5 J0
(Arc Move)
X108.95 Y12.5 Z-5.5 I0 J1.5
(Arc Move)
X110.45 Y14. Z-5.5625 I1.5 J0
(Arc Move)
X111.95 Y12.5 Z-5.625 I0 J-1.5
(Arc Move)
X110.45 Y11. Z-5.6875 I-1.5 J0
(Arc Move)
X108.95 Y12.5 Z-5.75 I0 J1.5
(Arc Move)
X110.45 Y14. Z-5.8125 I1.5 J0
(Arc Move)
X111.95 Y12.5 Z-5.875 I0 J-1.5
(Arc Move)
X110.45 Y11. Z-5.9375 I-1.5 J0
(Arc Move)
X109.9865 Y11.0734 Z-5.95 I0 J1.5
(Arc Move)
X108.95 Y12.5 I.4635 J1.4266
(Arc Move)
X110.45 Y14. I1.5 J0
(Arc Move)
X111.95 Y12.5 I0 J-1.5
(Arc Move)
X110.45 Y11. I-1.5 J0
(Arc Move)
X109.9865 Y11.0734 I0 J1.5
(Arc Move)
X109.7123 Y11.1939 I.4635 J1.4266
(Arc Move)
X109.5708 Y11.3748 I.1475 J.2612
(Line Leadout Move)
G1 X109.1528 Y12.8777
(Rapid Z up)
G0 Z3.
(Rapid Z up)
Z5.
(Rapid Move)
X110.45 Y102.5
(Rapid Z Down)
Z3.
(Line Leadin Move)
G1 X110.4084 Y101.1496 F400.
(Line Leadin Move)
X109.1082 Y102.0115 Z2.5599
(Arc Move)
G2 X108.9799 Y102.202 Z2.4934 I.1658 J.25
(Arc Move)
X108.95 Y102.5 Z2.4088 I1.4701 J.298 F750.
(Arc Move)
X110.45 Y104. Z1.7441 I1.5 J0
(Arc Move)
X111.95 Y102.5 Z1.0794 I0 J-1.5
(Arc Move)
X110.45 Y101. Z.4147 I-1.5 J0
(Arc Move)
X108.95 Y102.5 Z-.25 I0 J1.5
(Arc Move)
X110.45 Y104. Z-.3125 I1.5 J0
(Arc Move)
X111.95 Y102.5 Z-.375 I0 J-1.5
(Arc Move)
X110.45 Y101. Z-.4375 I-1.5 J0
(Arc Move)
X108.95 Y102.5 Z-.5 I0 J1.5
(Arc Move)
X110.45 Y104. Z-.5625 I1.5 J0
(Arc Move)
X111.95 Y102.5 Z-.625 I0 J-1.5
(Arc Move)
X110.45 Y101. Z-.6875 I-1.5 J0
(Arc Move)
X108.95 Y102.5 Z-.75 I0 J1.5
(Arc Move)
X110.45 Y104. Z-.8125 I1.5 J0
(Arc Move)
X111.95 Y102.5 Z-.875 I0 J-1.5
(Arc Move)
X110.45 Y101. Z-.9375 I-1.5 J0
(Arc Move)
X108.95 Y102.5 Z-1. I0 J1.5
(Arc Move)
X110.45 Y104. Z-1.0625 I1.5 J0
(Arc Move)
X111.95 Y102.5 Z-1.125 I0 J-1.5
(Arc Move)
X110.45 Y101. Z-1.1875 I-1.5 J0
(Arc Move)
X108.95 Y102.5 Z-1.25 I0 J1.5
(Arc Move)
X110.45 Y104. Z-1.3125 I1.5 J0
(Arc Move)
X111.95 Y102.5 Z-1.375 I0 J-1.5
(Arc Move)
X110.45 Y101. Z-1.4375 I-1.5 J0
(Arc Move)
X108.95 Y102.5 Z-1.5 I0 J1.5
(Arc Move)
X110.45 Y104. Z-1.5625 I1.5 J0
(Arc Move)
X111.95 Y102.5 Z-1.625 I0 J-1.5
(Arc Move)
X110.45 Y101. Z-1.6875 I-1.5 J0
(Arc Move)
X108.95 Y102.5 Z-1.75 I0 J1.5
(Arc Move)
X110.45 Y104. Z-1.8125 I1.5 J0
(Arc Move)
X111.95 Y102.5 Z-1.875 I0 J-1.5
(Arc Move)
X110.45 Y101. Z-1.9375 I-1.5 J0
(Arc Move)
X108.95 Y102.5 Z-2. I0 J1.5
(Arc Move)
X110.45 Y104. Z-2.0625 I1.5 J0
(Arc Move)
X111.95 Y102.5 Z-2.125 I0 J-1.5
(Arc Move)
X110.45 Y101. Z-2.1875 I-1.5 J0
(Arc Move)
X108.95 Y102.5 Z-2.25 I0 J1.5
(Arc Move)
X110.45 Y104. Z-2.3125 I1.5 J0
(Arc Move)
X111.95 Y102.5 Z-2.375 I0 J-1.5
(Arc Move)
X110.45 Y101. Z-2.4375 I-1.5 J0
(Arc Move)
X108.95 Y102.5 Z-2.5 I0 J1.5
(Arc Move)
X110.45 Y104. Z-2.5625 I1.5 J0
(Arc Move)
X111.95 Y102.5 Z-2.625 I0 J-1.5
(Arc Move)
X110.45 Y101. Z-2.6875 I-1.5 J0
(Arc Move)
X108.95 Y102.5 Z-2.75 I0 J1.5
(Arc Move)
X110.45 Y104. Z-2.8125 I1.5 J0
(Arc Move)
X111.95 Y102.5 Z-2.875 I0 J-1.5
(Arc Move)
X110.45 Y101. Z-2.9375 I-1.5 J0
(Arc Move)
X108.95 Y102.5 Z-3. I0 J1.5
(Arc Move)
X110.45 Y104. Z-3.0625 I1.5 J0
(Arc Move)
X111.95 Y102.5 Z-3.125 I0 J-1.5
(Arc Move)
X110.45 Y101. Z-3.1875 I-1.5 J0
(Arc Move)
X108.95 Y102.5 Z-3.25 I0 J1.5
(Arc Move)
X110.45 Y104. Z-3.3125 I1.5 J0
(Arc Move)
X111.95 Y102.5 Z-3.375 I0 J-1.5
(Arc Move)
X110.45 Y101. Z-3.4375 I-1.5 J0
(Arc Move)
X108.95 Y102.5 Z-3.5 I0 J1.5
(Arc Move)
X110.45 Y104. Z-3.5625 I1.5 J0
(Arc Move)
X111.95 Y102.5 Z-3.625 I0 J-1.5
(Arc Move)
X110.45 Y101. Z-3.6875 I-1.5 J0
(Arc Move)
X108.95 Y102.5 Z-3.75 I0 J1.5
(Arc Move)
X110.45 Y104. Z-3.8125 I1.5 J0
(Arc Move)
X111.95 Y102.5 Z-3.875 I0 J-1.5
(Arc Move)
X110.45 Y101. Z-3.9375 I-1.5 J0
(Arc Move)
X108.95 Y102.5 Z-4. I0 J1.5
(Arc Move)
X110.45 Y104. Z-4.0625 I1.5 J0
(Arc Move)
X111.95 Y102.5 Z-4.125 I0 J-1.5
(Arc Move)
X110.45 Y101. Z-4.1875 I-1.5 J0
(Arc Move)
X108.95 Y102.5 Z-4.25 I0 J1.5
(Arc Move)
X110.45 Y104. Z-4.3125 I1.5 J0
(Arc Move)
X111.95 Y102.5 Z-4.375 I0 J-1.5
(Arc Move)
X110.45 Y101. Z-4.4375 I-1.5 J0
(Arc Move)
X108.95 Y102.5 Z-4.5 I0 J1.5
(Arc Move)
X110.45 Y104. Z-4.5625 I1.5 J0
(Arc Move)
X111.95 Y102.5 Z-4.625 I0 J-1.5
(Arc Move)
X110.45 Y101. Z-4.6875 I-1.5 J0
(Arc Move)
X108.95 Y102.5 Z-4.75 I0 J1.5
(Arc Move)
X110.45 Y104. Z-4.8125 I1.5 J0
(Arc Move)
X111.95 Y102.5 Z-4.875 I0 J-1.5
(Arc Move)
X110.45 Y101. Z-4.9375 I-1.5 J0
(Arc Move)
X108.95 Y102.5 Z-5. I0 J1.5
(Arc Move)
X110.45 Y104. Z-5.0625 I1.5 J0
(Arc Move)
X111.95 Y102.5 Z-5.125 I0 J-1.5
(Arc Move)
X110.45 Y101. Z-5.1875 I-1.5 J0
(Arc Move)
X108.95 Y102.5 Z-5.25 I0 J1.5
(Arc Move)
X110.45 Y104. Z-5.3125 I1.5 J0
(Arc Move)
X111.95 Y102.5 Z-5.375 I0 J-1.5
(Arc Move)
X110.45 Y101. Z-5.4375 I-1.5 J0
(Arc Move)
X108.95 Y102.5 Z-5.5 I0 J1.5
(Arc Move)
X110.45 Y104. Z-5.5625 I1.5 J0
(Arc Move)
X111.95 Y102.5 Z-5.625 I0 J-1.5
(Arc Move)
X110.45 Y101. Z-5.6875 I-1.5 J0
(Arc Move)
X108.95 Y102.5 Z-5.75 I0 J1.5
(Arc Move)
X110.45 Y104. Z-5.8125 I1.5 J0
(Arc Move)
X111.95 Y102.5 Z-5.875 I0 J-1.5
(Arc Move)
X110.45 Y101. Z-5.9375 I-1.5 J0
(Arc Move)
X109.9865 Y101.0734 Z-5.95 I0 J1.5
(Arc Move)
X108.95 Y102.5 I.4635 J1.4266
(Arc Move)
X110.45 Y104. I1.5 J0
(Arc Move)
X111.95 Y102.5 I0 J-1.5
(Arc Move)
X110.45 Y101. I-1.5 J0
(Arc Move)
X109.9865 Y101.0734 I0 J1.5
(Arc Move)
X109.7123 Y101.1939 I.4635 J1.4266
(Arc Move)
X109.5708 Y101.3748 I.1475 J.2612
(Line Leadout Move)
G1 X109.1528 Y102.8777
(Rapid Z up)
G0 Z3.
(Rapid Z up)
Z5.
(Rapid Move)
X125.6875 Y-.6875
(Rapid Z Down)
Z3.
(Feed Z Down)
G1 Z-1. F184.15
(Line Move)
X125.6875 Y115.6875 Z-1. F736.6
(Line Move)
X122.4254 Y115.6875 Z-1.
(Arc Move)
G2 X124.2 Y112.5 I-1.9754 J-3.1875
(Line Move)
G1 X124.2 Y2.5 Z-1.
(Arc Move)
G2 X122.4254 Y-.6875 I-3.75 J0
(Line Move)
G1 X125.6875 Y-.6875 Z-1.
(Line Move)
X122.4254 Y-.6875 Z-1.
(Arc Move)
G3 X124.2 Y2.5 I-1.9754 J3.1875
(Line Move)
G1 X124.2 Y112.5 Z-1.
(Arc Move)
G3 X122.4254 Y115.6875 I-3.75 J0
(Line Move)
G1 X125.6875 Y115.6875 Z-1.
(Line Move)
X125.6875 Y-.6875 Z-1.
(Rapid Z up)
G0 Z3.
(Rapid Z Down)
Z2.
(Feed Z Down)
G1 Z-1.961 F184.15
(Line Move)
X125.6875 Y115.6875 Z-1.961 F736.6
(Line Move)
X122.4254 Y115.6875 Z-1.961
(Arc Move)
G2 X124.2 Y112.5 I-1.9754 J-3.1875
(Line Move)
G1 X124.2 Y2.5 Z-1.961
(Arc Move)
G2 X122.4254 Y-.6875 I-3.75 J0
(Line Move)
G1 X125.6875 Y-.6875 Z-1.961
(Line Move)
X122.4254 Y-.6875 Z-1.961
(Arc Move)
G3 X124.2 Y2.5 I-1.9754 J3.1875
(Line Move)
G1 X124.2 Y112.5 Z-1.961
(Arc Move)
G3 X122.4254 Y115.6875 I-3.75 J0
(Line Move)
G1 X125.6875 Y115.6875 Z-1.961
(Line Move)
X125.6875 Y-.6875 Z-1.961
(Rapid Z up)
G0 Z3.
(Rapid Z Down)
Z1.039
(Feed Z Down)
G1 Z-2.922 F184.15
(Line Move)
X125.6875 Y115.6875 Z-2.922 F736.6
(Line Move)
X122.4254 Y115.6875 Z-2.922
(Arc Move)
G2 X124.2 Y112.5 I-1.9754 J-3.1875
(Line Move)
G1 X124.2 Y2.5 Z-2.922
(Arc Move)
G2 X122.4254 Y-.6875 I-3.75 J0
(Line Move)
G1 X125.6875 Y-.6875 Z-2.922
(Line Move)
X122.4254 Y-.6875 Z-2.922
(Arc Move)
G3 X124.2 Y2.5 I-1.9754 J3.1875
(Line Move)
G1 X124.2 Y112.5 Z-2.922
(Arc Move)
G3 X122.4254 Y115.6875 I-3.75 J0
(Line Move)
G1 X125.6875 Y115.6875 Z-2.922
(Line Move)
X125.6875 Y-.6875 Z-2.922
(Rapid Z up)
G0 Z3.
(Rapid Z Down)
Z.078
(Feed Z Down)
G1 Z-3.883 F184.15
(Line Move)
X125.6875 Y115.6875 Z-3.883 F736.6
(Line Move)
X122.4254 Y115.6875 Z-3.883
(Arc Move)
G2 X124.2 Y112.5 I-1.9754 J-3.1875
(Line Move)
G1 X124.2 Y2.5 Z-3.883
(Arc Move)
G2 X122.4254 Y-.6875 I-3.75 J0
(Line Move)
G1 X125.6875 Y-.6875 Z-3.883
(Line Move)
X122.4254 Y-.6875 Z-3.883
(Arc Move)
G3 X124.2 Y2.5 I-1.9754 J3.1875
(Line Move)
G1 X124.2 Y112.5 Z-3.883
(Arc Move)
G3 X122.4254 Y115.6875 I-3.75 J0
(Line Move)
G1 X125.6875 Y115.6875 Z-3.883
(Line Move)
X125.6875 Y-.6875 Z-3.883
(Rapid Z up)
G0 Z3.
(Rapid Z Down)
Z-.883
(Feed Z Down)
G1 Z-4.844 F184.15
(Line Move)
X125.6875 Y115.6875 Z-4.844 F736.6
(Line Move)
X122.4254 Y115.6875 Z-4.844
(Arc Move)
G2 X124.2 Y112.5 I-1.9754 J-3.1875
(Line Move)
G1 X124.2 Y2.5 Z-4.844
(Arc Move)
G2 X122.4254 Y-.6875 I-3.75 J0
(Line Move)
G1 X125.6875 Y-.6875 Z-4.844
(Line Move)
X122.4254 Y-.6875 Z-4.844
(Arc Move)
G3 X124.2 Y2.5 I-1.9754 J3.1875
(Line Move)
G1 X124.2 Y112.5 Z-4.844
(Arc Move)
G3 X122.4254 Y115.6875 I-3.75 J0
(Line Move)
G1 X125.6875 Y115.6875 Z-4.844
(Line Move)
X125.6875 Y-.6875 Z-4.844
(Rapid Z up)
G0 Z3.
(Rapid Z Down)
Z-1.844
(Feed Z Down)
G1 Z-5.805 F184.15
(Line Move)
X125.6875 Y115.6875 Z-5.805 F736.6
(Line Move)
X122.4254 Y115.6875 Z-5.805
(Arc Move)
G2 X124.2 Y112.5 I-1.9754 J-3.1875
(Line Move)
G1 X124.2 Y2.5 Z-5.805
(Arc Move)
G2 X122.4254 Y-.6875 I-3.75 J0
(Line Move)
G1 X125.6875 Y-.6875 Z-5.805
(Line Move)
X122.4254 Y-.6875 Z-5.805
(Arc Move)
G3 X124.2 Y2.5 I-1.9754 J3.1875
(Line Move)
G1 X124.2 Y112.5 Z-5.805
(Arc Move)
G3 X122.4254 Y115.6875 I-3.75 J0
(Line Move)
G1 X125.6875 Y115.6875 Z-5.805
(Line Move)
X125.6875 Y-.6875 Z-5.805
(Rapid Z up)
G0 Z3.
(Rapid Z Down)
Z-2.805
(Feed Z Down)
G1 Z-6.055 F184.15
(Line Move)
X125.6875 Y115.6875 Z-6.055 F736.6
(Line Move)
X122.4254 Y115.6875 Z-6.055
(Arc Move)
G2 X124.2 Y112.5 I-1.9754 J-3.1875
(Line Move)
G1 X124.2 Y2.5 Z-6.055
(Arc Move)
G2 X122.4254 Y-.6875 I-3.75 J0
(Line Move)
G1 X125.6875 Y-.6875 Z-6.055
(Line Move)
X122.4254 Y-.6875 Z-6.055
(Arc Move)
G3 X124.2 Y2.5 I-1.9754 J3.1875
(Line Move)
G1 X124.2 Y112.5 Z-6.055
(Arc Move)
G3 X122.4254 Y115.6875 I-3.75 J0
(Line Move)
G1 X125.6875 Y115.6875 Z-6.055
(Line Move)
X125.6875 Y-.6875 Z-6.055
(Rapid Z up)
G0 Z3.
(Rapid Move)
X2.5746 Y-.6875
(Feed Z Down)
G1 Z-1. F184.15
(Arc Move)
G2 X.8 Y2.5 I1.9754 J3.1875 F736.6
(Line Move)
G1 X.8 Y112.5 Z-1.
(Arc Move)
G2 X2.5746 Y115.6875 I3.75 J0
(Line Move)
G1 X-.6875 Y115.6875 Z-1.
(Line Move)
X-.6875 Y-.6875 Z-1.
(Line Move)
X2.5746 Y-.6875 Z-1.
(Line Move)
X-.6875 Y-.6875 Z-1.
(Line Move)
X-.6875 Y115.6875 Z-1.
(Line Move)
X2.5746 Y115.6875 Z-1.
(Arc Move)
G3 X.8 Y112.5 I1.9754 J-3.1875
(Line Move)
G1 X.8 Y2.5 Z-1.
(Arc Move)
G3 X2.5746 Y-.6875 I3.75 J0
(Rapid Z up)
G0 Z3.
(Rapid Z Down)
Z2.
(Feed Z Down)
G1 Z-1.961 F184.15
(Arc Move)
G2 X.8 Y2.5 I1.9754 J3.1875 F736.6
(Line Move)
G1 X.8 Y112.5 Z-1.961
(Arc Move)
G2 X2.5746 Y115.6875 I3.75 J0
(Line Move)
G1 X-.6875 Y115.6875 Z-1.961
(Line Move)
X-.6875 Y-.6875 Z-1.961
(Line Move)
X2.5746 Y-.6875 Z-1.961
(Line Move)
X-.6875 Y-.6875 Z-1.961
(Line Move)
X-.6875 Y115.6875 Z-1.961
(Line Move)
X2.5746 Y115.6875 Z-1.961
(Arc Move)
G3 X.8 Y112.5 I1.9754 J-3.1875
(Line Move)
G1 X.8 Y2.5 Z-1.961
(Arc Move)
G3 X2.5746 Y-.6875 I3.75 J0
(Rapid Z up)
G0 Z3.
(Rapid Z Down)
Z1.039
(Feed Z Down)
G1 Z-2.922 F184.15
(Arc Move)
G2 X.8 Y2.5 I1.9754 J3.1875 F736.6
(Line Move)
G1 X.8 Y112.5 Z-2.922
(Arc Move)
G2 X2.5746 Y115.6875 I3.75 J0
(Line Move)
G1 X-.6875 Y115.6875 Z-2.922
(Line Move)
X-.6875 Y-.6875 Z-2.922
(Line Move)
X2.5746 Y-.6875 Z-2.922
(Line Move)
X-.6875 Y-.6875 Z-2.922
(Line Move)
X-.6875 Y115.6875 Z-2.922
(Line Move)
X2.5746 Y115.6875 Z-2.922
(Arc Move)
G3 X.8 Y112.5 I1.9754 J-3.1875
(Line Move)
G1 X.8 Y2.5 Z-2.922
(Arc Move)
G3 X2.5746 Y-.6875 I3.75 J0
(Rapid Z up)
G0 Z3.
(Rapid Z Down)
Z.078
(Feed Z Down)
G1 Z-3.883 F184.15
(Arc Move)
G2 X.8 Y2.5 I1.9754 J3.1875 F736.6
(Line Move)
G1 X.8 Y112.5 Z-3.883
(Arc Move)
G2 X2.5746 Y115.6875 I3.75 J0
(Line Move)
G1 X-.6875 Y115.6875 Z-3.883
(Line Move)
X-.6875 Y-.6875 Z-3.883
(Line Move)
X2.5746 Y-.6875 Z-3.883
(Line Move)
X-.6875 Y-.6875 Z-3.883
(Line Move)
X-.6875 Y115.6875 Z-3.883
(Line Move)
X2.5746 Y115.6875 Z-3.883
(Arc Move)
G3 X.8 Y112.5 I1.9754 J-3.1875
(Line Move)
G1 X.8 Y2.5 Z-3.883
(Arc Move)
G3 X2.5746 Y-.6875 I3.75 J0
(Rapid Z up)
G0 Z3.
(Rapid Z Down)
Z-.883
(Feed Z Down)
G1 Z-4.844 F184.15
(Arc Move)
G2 X.8 Y2.5 I1.9754 J3.1875 F736.6
(Line Move)
G1 X.8 Y112.5 Z-4.844
(Arc Move)
G2 X2.5746 Y115.6875 I3.75 J0
(Line Move)
G1 X-.6875 Y115.6875 Z-4.844
(Line Move)
X-.6875 Y-.6875 Z-4.844
(Line Move)
X2.5746 Y-.6875 Z-4.844
(Line Move)
X-.6875 Y-.6875 Z-4.844
(Line Move)
X-.6875 Y115.6875 Z-4.844
(Line Move)
X2.5746 Y115.6875 Z-4.844
(Arc Move)
G3 X.8 Y112.5 I1.9754 J-3.1875
(Line Move)
G1 X.8 Y2.5 Z-4.844
(Arc Move)
G3 X2.5746 Y-.6875 I3.75 J0
(Rapid Z up)
G0 Z3.
(Rapid Z Down)
Z-1.844
(Feed Z Down)
G1 Z-5.805 F184.15
(Arc Move)
G2 X.8 Y2.5 I1.9754 J3.1875 F736.6
(Line Move)
G1 X.8 Y112.5 Z-5.805
(Arc Move)
G2 X2.5746 Y115.6875 I3.75 J0
(Line Move)
G1 X-.6875 Y115.6875 Z-5.805
(Line Move)
X-.6875 Y-.6875 Z-5.805
(Line Move)
X2.5746 Y-.6875 Z-5.805
(Line Move)
X-.6875 Y-.6875 Z-5.805
(Line Move)
X-.6875 Y115.6875 Z-5.805
(Line Move)
X2.5746 Y115.6875 Z-5.805
(Arc Move)
G3 X.8 Y112.5 I1.9754 J-3.1875
(Line Move)
G1 X.8 Y2.5 Z-5.805
(Arc Move)
G3 X2.5746 Y-.6875 I3.75 J0
(Rapid Z up)
G0 Z3.
(Rapid Z Down)
Z-2.805
(Feed Z Down)
G1 Z-6.055 F184.15
(Arc Move)
G2 X.8 Y2.5 I1.9754 J3.1875 F736.6
(Line Move)
G1 X.8 Y112.5 Z-6.055
(Arc Move)
G2 X2.5746 Y115.6875 I3.75 J0
(Line Move)
G1 X-.6875 Y115.6875 Z-6.055
(Line Move)
X-.6875 Y-.6875 Z-6.055
(Line Move)
X2.5746 Y-.6875 Z-6.055
(Line Move)
X-.6875 Y-.6875 Z-6.055
(Line Move)
X-.6875 Y115.6875 Z-6.055
(Line Move)
X2.5746 Y115.6875 Z-6.055
(Arc Move)
G3 X.8 Y112.5 I1.9754 J-3.1875
(Line Move)
G1 X.8 Y2.5 Z-6.055
(Arc Move)
G3 X2.5746 Y-.6875 I3.75 J0
(Rapid Z up)
G0 Z3.
(Rapid Z up)
Z5.
(Rapid Move)
X64.1152 Y115.191
(Rapid Z Down)
Z3.
(Feed Z Down)
G1 Z-1.5 F184.15
(Line Leadin Move)
X63.0121 Y114.0879 F552.45
(Arc Move)
G2 X62.8 Y114. I-.2121 J.2121
(Line Move)
G1 X3.05 Y114. Z-1.5 F736.6
(Line Move)
X3.05 Y1. Z-1.5
(Line Move)
X121.95 Y1. Z-1.5
(Line Move)
X121.95 Y114. Z-1.5
(Line Move)
X62.2 Y114. Z-1.5
(Arc Move)
G2 X61.9879 Y114.0879 I0 J.3
(Line Leadout Move)
G1 X60.8848 Y115.191
(Rapid Z up)
G0 Z3.
(Rapid Move)
X64.1152 Y115.191
(Rapid Z Down)
Z1.5
(Feed Z Down)
G1 Z-2.6388 F184.15
(Line Leadin Move)
X63.0121 Y114.0879 F552.45
(Arc Move)
G2 X62.8 Y114. I-.2121 J.2121
(Line Move)
G1 X3.05 Y114. Z-2.6388 F736.6
(Line Move)
X3.05 Y1. Z-2.6388
(Line Move)
X121.95 Y1. Z-2.6388
(Line Move)
X121.95 Y114. Z-2.6388
(Line Move)
X62.2 Y114. Z-2.6388
(Arc Move)
G2 X61.9879 Y114.0879 I0 J.3
(Line Leadout Move)
G1 X60.8848 Y115.191
(Rapid Z up)
G0 Z3.
(Rapid Move)
X64.1152 Y115.191
(Rapid Z Down)
Z.3612
(Feed Z Down)
G1 Z-3.7775 F184.15
(Line Leadin Move)
X63.0121 Y114.0879 F552.45
(Arc Move)
G2 X62.8 Y114. I-.2121 J.2121
(Line Move)
G1 X3.05 Y114. Z-3.7775 F736.6
(Line Move)
X3.05 Y1. Z-3.7775
(Line Move)
X121.95 Y1. Z-3.7775
(Line Move)
X121.95 Y114. Z-3.7775
(Line Move)
X62.2 Y114. Z-3.7775
(Arc Move)
G2 X61.9879 Y114.0879 I0 J.3
(Line Leadout Move)
G1 X60.8848 Y115.191
(Rapid Z up)
G0 Z3.
(Rapid Move)
X64.1152 Y115.191
(Rapid Z Down)
Z-.7775
(Feed Z Down)
G1 Z-4.9163 F184.15
(Line Leadin Move)
X63.0121 Y114.0879 F552.45
(Arc Move)
G2 X62.8 Y114. I-.2121 J.2121
(Line Move)
G1 X3.05 Y114. Z-4.9163 F736.6
(Line Move)
X3.05 Y1. Z-4.9163
(Line Move)
X121.95 Y1. Z-4.9163
(Line Move)
X121.95 Y114. Z-4.9163
(Line Move)
X62.2 Y114. Z-4.9163
(Arc Move)
G2 X61.9879 Y114.0879 I0 J.3
(Line Leadout Move)
G1 X60.8848 Y115.191
(Rapid Z up)
G0 Z3.
(Rapid Move)
X64.1152 Y115.191
(Rapid Z Down)
Z-1.9163
(Feed Z Down)
G1 Z-6.055 F184.15
(Line Leadin Move)
X63.0121 Y114.0879 F552.45
(Arc Move)
G2 X62.8 Y114. I-.2121 J.2121
(Line Move)
G1 X3.05 Y114. Z-6.055 F736.6
(Line Move)
X3.05 Y1. Z-6.055
(Line Move)
X121.95 Y1. Z-6.055
(Line Move)
X121.95 Y114. Z-6.055
(Line Move)
X62.2 Y114. Z-6.055
(Arc Move)
G2 X61.9879 Y114.0879 I0 J.3
(Line Leadout Move)
G1 X60.8848 Y115.191
(Rapid Z up)
G0 Z3.
(Last Rapid Z Up)
Z5.
(End of Tape)
G53
Z2 
M5
M30
