(1001)
(Machine)
(  vendor: Autodesk)
(  model: Sainsmart 3018pro)
(  description: 3018)
G90 G94
G17
G21
(When using Fusion 360 for Personal Use, the feedrate of)
(rapid moves is reduced to match the feedrate of cutting)
(moves, which can increase machining time. Unrestricted rapid)
(moves are available with a Fusion 360 Subscription.)

(Engrave2)
S5000 M3
G54
G0 X-22.58 Y-7.381
Z5
G1 Z0 F300
Z-1
X-21.009 Y-7.304
X-19.437 Y-7.265
X-18.47 Y-7.281
X-14.433 Y-7.349
X-13.785 Y-7.343
X-13.137 Y-7.321
X-12.492 Y-7.267
X-11.847 Y-7.192
X-11.664 Y-5.334
X-11.438 Y-3.481
X-12.121
X-12.752 Y-5.951
X-13.15 Y-6.048
X-13.55 Y-6.134
X-13.954 Y-6.201
X-14.36 Y-6.256
X-15.132 Y-6.307
X-15.904 Y-6.343
X-16.677 Y-6.357
X-17.45 Y-6.361
X-18.454 Y-6.348
X-19.458 Y-6.309
X-19.426 Y-5.688
X-19.449 Y-3.518
X-19.458 Y-2.724
Y3.96
Y3.972
X-19.467 Y4.641
X-19.455 Y5.309
X-19.436 Y5.642
X-19.403 Y5.974
X-19.311 Y6.636
X-19.173 Y6.791
X-19.097 Y6.855
X-19.012 Y6.901
X-18.918 Y6.93
X-18.818 Y6.946
X-18.606 Y6.957
X-17.303
Y7.619
X-18.627 Y7.574
X-18.785 Y7.569
X-20.267 Y7.546
X-21.928 Y7.573
X-23.589 Y7.619
Y6.957
X-22.443
X-22.188 Y6.95
X-22.067 Y6.933
X-21.953 Y6.902
X-21.849 Y6.85
X-21.756 Y6.777
X-21.587 Y6.594
X-21.488 Y5.719
X-21.454 Y5.28
X-21.434 Y4.841
X-21.423 Y3.96
X-21.434 Y3.078
Y-2.703
X-21.425 Y-3.539
X-21.437 Y-4.374
X-21.458 Y-4.79
X-21.491 Y-5.206
X-21.587 Y-6.035
X-21.778 Y-6.299
X-21.885 Y-6.418
X-22.005 Y-6.521
X-22.138 Y-6.609
X-22.28 Y-6.687
X-22.58 Y-6.824
Y-7.381
Z5
X-6.554
Z0
Z-1
X-4.983 Y-7.304
X-3.411 Y-7.265
X-2.444 Y-7.281
X1.593 Y-7.349
X2.241 Y-7.343
X2.889 Y-7.321
X3.534 Y-7.267
X4.178 Y-7.192
X4.362 Y-5.334
X4.588 Y-3.481
X3.905
X3.274 Y-5.951
X2.876 Y-6.048
X2.476 Y-6.134
X2.072 Y-6.201
X1.666 Y-6.256
X0.894 Y-6.307
X0.122 Y-6.343
X-0.651 Y-6.357
X-1.424 Y-6.361
X-2.428 Y-6.348
X-3.432 Y-6.309
X-3.4 Y-5.688
X-3.424 Y-3.518
X-3.432 Y-2.724
Y3.96
Y3.972
X-3.441 Y4.641
X-3.43 Y5.309
X-3.41 Y5.642
X-3.377 Y5.974
X-3.285 Y6.636
X-3.147 Y6.791
X-3.071 Y6.855
X-2.986 Y6.901
X-2.892 Y6.93
X-2.792 Y6.946
X-2.581 Y6.957
X-1.277
Y7.619
X-2.602 Y7.574
X-2.759 Y7.569
X-4.241 Y7.546
X-5.902 Y7.573
X-7.563 Y7.619
Y6.957
X-6.417
X-6.162 Y6.95
X-6.041 Y6.933
X-5.927 Y6.902
X-5.823 Y6.85
X-5.73 Y6.777
X-5.561 Y6.594
X-5.462 Y5.719
X-5.428 Y5.28
X-5.408 Y4.841
X-5.397 Y3.96
X-5.408 Y3.078
Y-2.703
X-5.399 Y-3.539
X-5.411 Y-4.374
X-5.432 Y-4.79
X-5.465 Y-5.206
X-5.561 Y-6.035
X-5.752 Y-6.299
X-5.859 Y-6.418
X-5.979 Y-6.521
X-6.112 Y-6.609
X-6.254 Y-6.687
X-6.554 Y-6.824
Y-7.381
Z5
X8.4 Y-7.339
Z0
Z-1
X9.43 Y-7.31
X10.16 Y-7.289
X11.921 Y-7.265
X13.241 Y-7.284
X14.56 Y-7.339
Y-6.677
X13.845
X13.625 Y-6.672
X13.408 Y-6.651
X13.198 Y-6.597
X12.993 Y-6.519
X12.898 Y-6.458
X12.812 Y-6.39
X12.744 Y-6.305
X12.689 Y-6.208
X12.648 Y-5.813
X12.618 Y-5.417
X12.583 Y-4.624
X12.546 Y-3.734
X12.531 Y-2.844
Y0.093
X13.771 Y0.129
X15.011 Y0.154
X17.297 Y0.166
X17.492 Y0.167
X19.385 Y0.152
X21.277 Y0.093
Y-2.644
X21.273 Y-3.435
X21.257 Y-4.225
X21.218 Y-5.014
X21.161 Y-5.803
X21.134 Y-5.995
X21.086 Y-6.177
X21.046 Y-6.262
X20.996 Y-6.341
X20.877 Y-6.492
X20.631 Y-6.592
X20.506 Y-6.63
X20.377 Y-6.656
X20.115 Y-6.677
X19.847
X19.122
Y-7.339
X20.136 Y-7.304
X20.766 Y-7.282
X22.412 Y-7.265
X23.91 Y-7.283
X25.408 Y-7.339
Y-6.677
X24.588
X24.263 Y-6.678
X24.105 Y-6.664
X23.955 Y-6.634
X23.813 Y-6.582
X23.682 Y-6.504
X23.437 Y-6.303
X23.318 Y-5.409
X23.278 Y-4.96
X23.253 Y-4.51
X23.24 Y-3.607
X23.242 Y-3.463
X23.253 Y-2.703
Y3.11
X23.255 Y4.616
X23.271 Y5.369
X23.3 Y6.121
X23.325 Y6.305
X23.372 Y6.479
X23.41 Y6.559
X23.458 Y6.635
X23.573 Y6.778
X23.821 Y6.876
X23.947 Y6.913
X24.076 Y6.938
X24.34 Y6.958
X24.609 Y6.957
X25.408
Y7.619
X24.319 Y7.583
X23.789 Y7.565
X22.17 Y7.546
X20.645 Y7.565
X19.122 Y7.619
Y6.957
X19.878
X20.136 Y6.956
X20.389 Y6.933
X20.511 Y6.906
X20.631 Y6.867
X20.867 Y6.767
X20.983 Y6.634
X21.033 Y6.563
X21.072 Y6.488
X21.122 Y6.322
X21.15 Y6.146
X21.209 Y5.392
X21.251 Y4.637
X21.27 Y3.881
X21.277 Y3.124
Y3.11
Y1.071
X19.285 Y1.011
X17.293 Y0.997
X14.911 Y1.011
X12.531 Y1.071
Y3.471
X12.529 Y4.175
X12.538 Y4.879
X12.567 Y5.581
X12.615 Y6.283
X12.649 Y6.433
X12.702 Y6.573
X12.789 Y6.692
X12.899 Y6.799
X13.193 Y6.889
X13.342 Y6.922
X13.492 Y6.944
X13.798 Y6.96
X14.108 Y6.957
X14.56
Y7.619
X13.775 Y7.589
X13.094 Y7.564
X11.627 Y7.546
X10.013 Y7.565
X8.4 Y7.619
Y6.957
X9.178
X9.507
X9.666 Y6.943
X9.818 Y6.912
X9.963 Y6.86
X10.097 Y6.783
X10.35 Y6.584
X10.479 Y5.809
X10.524 Y5.42
X10.551 Y5.029
X10.565 Y4.637
X10.567 Y4.244
X10.555 Y3.457
Y1.071
Y-2.844
Y-2.882
X10.568 Y-3.742
X10.566 Y-4.172
X10.553 Y-4.601
X10.527 Y-5.028
X10.483 Y-5.454
X10.355 Y-6.303
X10.214 Y-6.411
X10.07 Y-6.51
X9.918 Y-6.588
X9.757 Y-6.64
X9.588 Y-6.669
X9.412 Y-6.681
X9.052 Y-6.677
X8.4
Y-7.339
Z5
M5
M30
