;FLAVOR:Marlin
;TIME:5443
;Filament used: 3.31087m
;Layer height: 0.2
;MINX:89.335
;MINY:75.835
;MINZ:0.24
;MAXX:142.165
;MAXY:140.164
;MAXZ:28.09
;Generated with Cura_SteamEngine 4.12.1
M140 S60
M105
M190 S60
M104 S200
M105
M109 S200
M82 ;absolute extrusion mode
; Ender 3 Custom Start G-code
G92 E0 ; Reset Extruder
G28 ; Home all axes
G1 Z2.0 F3000 ; Move Z Axis up little to prevent scratching of Heat Bed
G1 X0.1 Y20 Z0.3 F5000.0 ; Move to start position
G1 X0.1 Y200.0 Z0.3 F1500.0 E15 ; Draw the first line
G1 X0.4 Y200.0 Z0.3 F5000.0 ; Move to side a little
G1 X0.4 Y20 Z0.3 F1500.0 E30 ; Draw the second line
G92 E0 ; Reset Extruder
G1 Z2.0 F3000 ; Move Z Axis up little to prevent scratching of Heat Bed
G1 X5 Y20 Z0.3 F5000.0 ; Move over to prevent blob squish
G92 E0
G92 E0
G1 F1500 E-6.5
;LAYER_COUNT:135
;LAYER:-6
M107
G0 F9000 X94.076 Y81.818 Z0.24
;TYPE:SUPPORT-INTERFACE
G1 F1500 E0
G1 F1125 X94.177 Y81.705 E0.0121
G1 X94.802 Y81.056 E0.08402
G1 X94.927 Y80.936 E0.09785
G1 X95.598 Y80.333 E0.16987
G1 X95.714 Y80.237 E0.18188
G1 X96.426 Y79.687 E0.2537
G1 X96.585 Y79.574 E0.26927
G1 X97.323 Y79.084 E0.33999
G1 X97.449 Y79.008 E0.35173
G1 X98.243 Y78.562 E0.42443
G1 X98.393 Y78.484 E0.43792
G1 X99.208 Y78.101 E0.5098
G1 X99.351 Y78.041 E0.52218
G1 X100.21 Y77.712 E0.59561
G1 X100.36 Y77.66 E0.60828
G1 X101.21 Y77.405 E0.67912
G1 X101.383 Y77.358 E0.69343
G1 X102.278 Y77.158 E0.76664
G1 X102.408 Y77.135 E0.77717
G1 X103.313 Y77.001 E0.8502
G1 X103.482 Y76.983 E0.86377
G1 X104.371 Y76.917 E0.93493
G1 X104.555 Y76.908 E0.94963
G1 X105.06 Y76.9 E0.98995
G1 X115.003 Y76.901 E1.78364
G1 X116.004 Y76.937 E1.8636
G1 X116.127 Y76.946 E1.87344
G1 X117.044 Y77.048 E1.94709
G1 X117.219 Y77.073 E1.96121
G1 X118.108 Y77.237 E2.03337
G1 X118.231 Y77.265 E2.04344
G1 X119.125 Y77.499 E2.1172
G1 X119.288 Y77.548 E2.13079
G1 X120.13 Y77.834 E2.20177
G1 X120.296 Y77.898 E2.21597
G1 X121.099 Y78.239 E2.28561
G1 X121.288 Y78.327 E2.30226
G1 X122.082 Y78.735 E2.37351
G1 X122.199 Y78.802 E2.38428
G1 X122.978 Y79.276 E2.45707
G1 X123.129 Y79.376 E2.47152
G1 X123.843 Y79.887 E2.54161
G1 X123.991 Y80 E2.55647
G1 X124.682 Y80.576 E2.62828
G1 X124.795 Y80.677 E2.64038
G1 X125.444 Y81.302 E2.7123
G1 X125.564 Y81.427 E2.72614
G1 X126.167 Y82.098 E2.79815
G1 X126.263 Y82.214 E2.81017
G1 X126.822 Y82.938 E2.88318
G1 X126.916 Y83.069 E2.89605
G1 X127.416 Y83.823 E2.96827
G1 X127.492 Y83.949 E2.98002
G1 X127.938 Y84.743 E3.05271
G1 X128.016 Y84.893 E3.06621
G1 X128.399 Y85.708 E3.13809
G1 X128.459 Y85.851 E3.15047
G1 X128.788 Y86.71 E3.2239
G1 X128.84 Y86.86 E3.23657
G1 X129.095 Y87.71 E3.30741
G1 X129.275 Y88.386 E3.36325
G1 X129.314 Y88.462 E3.37007
G1 X129.585 Y89.089 E3.42459
G1 X129.933 Y89.677 E3.47913
G1 X130.353 Y90.216 E3.53368
G1 X130.837 Y90.697 E3.58815
G1 X131.378 Y91.113 E3.64262
G1 X131.961 Y91.456 E3.69662
G1 X132.275 Y91.602 E3.72426
G1 X132.614 Y91.746 E3.75366
G1 X132.788 Y91.827 E3.76898
G1 X133.582 Y92.235 E3.84024
G1 X133.699 Y92.302 E3.851
G1 X134.478 Y92.776 E3.92379
G1 X134.629 Y92.876 E3.93825
G1 X135.343 Y93.387 E4.00834
G1 X135.491 Y93.5 E4.0232
G1 X136.182 Y94.076 E4.09501
G1 X136.295 Y94.177 E4.10711
G1 X136.944 Y94.802 E4.17903
G1 X137.064 Y94.927 E4.19286
G1 X137.667 Y95.598 E4.26487
G1 X137.763 Y95.714 E4.27689
G1 X138.313 Y96.426 E4.34871
G1 X138.426 Y96.585 E4.36428
G1 X138.916 Y97.323 E4.43499
G1 X138.992 Y97.449 E4.44674
G1 X139.438 Y98.243 E4.51943
G1 X139.516 Y98.393 E4.53293
G1 X139.899 Y99.208 E4.60481
G1 X139.959 Y99.351 E4.61719
G1 X140.288 Y100.21 E4.69062
G1 X140.34 Y100.36 E4.70329
G1 X140.595 Y101.21 E4.77413
G1 X140.642 Y101.383 E4.78844
G1 X140.84 Y102.269 E4.86091
G1 X140.865 Y102.408 E4.87218
G1 X140.998 Y103.307 E4.94472
G1 X141.016 Y103.469 E4.95774
G1 X141.083 Y104.371 E5.02994
G1 X141.092 Y104.555 E5.04464
G1 X141.1 Y105.056 E5.08464
G1 X141.1 Y114.986 E5.87729
G1 X141.064 Y115.992 E5.95765
G1 X141.054 Y116.127 E5.96845
G1 X140.952 Y117.044 E6.0421
G1 X140.927 Y117.219 E6.05622
G1 X140.765 Y118.097 E6.12748
G1 X140.735 Y118.231 E6.13845
G1 X140.504 Y119.116 E6.21146
G1 X140.452 Y119.288 E6.2258
G1 X140.166 Y120.13 E6.29678
G1 X140.102 Y120.296 E6.31099
G1 X139.761 Y121.099 E6.38062
G1 X139.68 Y121.274 E6.39602
G1 X139.265 Y122.082 E6.46853
G1 X139.198 Y122.199 E6.47929
G1 X138.724 Y122.978 E6.55208
G1 X138.624 Y123.129 E6.56653
G1 X138.113 Y123.843 E6.63662
G1 X138 Y123.991 E6.65149
G1 X137.424 Y124.682 E6.72329
G1 X137.323 Y124.795 E6.73539
G1 X136.698 Y125.444 E6.80732
G1 X136.573 Y125.564 E6.82115
G1 X135.903 Y126.166 E6.89305
G1 X135.786 Y126.263 E6.90518
G1 X135.074 Y126.813 E6.977
G1 X134.915 Y126.926 E6.99257
G1 X134.177 Y127.416 E7.06328
G1 X134.051 Y127.492 E7.07503
G1 X133.257 Y127.938 E7.14772
G1 X133.106 Y128.016 E7.16129
G1 X132.292 Y128.399 E7.2331
G1 X132.149 Y128.459 E7.24548
G1 X131.29 Y128.788 E7.3189
G1 X130.988 Y128.886 E7.34425
G1 X130.36 Y129.12 E7.39774
G1 X129.755 Y129.439 E7.45234
G1 X129.196 Y129.83 E7.50679
G1 X128.691 Y130.289 E7.56127
G1 X128.245 Y130.811 E7.61607
G1 X128.023 Y131.164 E7.64936
G1 X128.001 Y131.153 E7.65132
G1 X127.698 Y131.699 E7.70117
G1 X127.224 Y132.478 E7.77396
G1 X127.124 Y132.629 E7.78842
G1 X126.613 Y133.343 E7.8585
G1 X126.5 Y133.491 E7.87337
G1 X125.924 Y134.182 E7.94518
G1 X125.823 Y134.295 E7.95728
G1 X125.198 Y134.944 E8.0292
G1 X125.073 Y135.064 E8.04303
G1 X124.403 Y135.666 E8.11493
G1 X124.286 Y135.763 E8.12706
G1 X123.574 Y136.313 E8.19888
G1 X123.415 Y136.426 E8.21445
G1 X122.677 Y136.916 E8.28516
G1 X122.551 Y136.992 E8.29691
G1 X121.757 Y137.438 E8.3696
G1 X121.606 Y137.516 E8.38317
G1 X120.792 Y137.899 E8.45498
G1 X120.649 Y137.959 E8.46736
G1 X119.79 Y138.288 E8.54079
G1 X119.64 Y138.34 E8.55346
G1 X118.79 Y138.595 E8.6243
G1 X118.617 Y138.642 E8.63861
G1 X117.722 Y138.842 E8.71181
G1 X117.592 Y138.865 E8.72235
G1 X116.687 Y138.999 E8.79538
G1 X116.519 Y139.017 E8.80887
G1 X115.629 Y139.083 E8.8801
G1 X115.445 Y139.092 E8.89481
G1 X114.94 Y139.1 E8.93513
G1 X104.997 Y139.099 E9.72882
G1 X103.996 Y139.063 E9.80877
G1 X103.873 Y139.054 E9.81862
G1 X102.956 Y138.952 E9.89227
G1 X102.781 Y138.927 E9.90638
G1 X101.892 Y138.763 E9.97854
G1 X101.769 Y138.735 E9.98861
G1 X100.875 Y138.501 E10.06238
G1 X100.712 Y138.452 E10.07597
G1 X99.87 Y138.166 E10.14695
G1 X99.704 Y138.102 E10.16115
G1 X98.901 Y137.761 E10.23079
G1 X98.712 Y137.673 E10.24743
G1 X97.918 Y137.265 E10.31869
G1 X97.801 Y137.198 E10.32945
G1 X97.022 Y136.724 E10.40224
G1 X96.871 Y136.624 E10.4167
G1 X96.157 Y136.113 E10.48679
G1 X96.009 Y136 E10.50165
G1 X95.318 Y135.424 E10.57346
G1 X95.205 Y135.323 E10.58556
G1 X94.556 Y134.698 E10.65748
G1 X94.436 Y134.573 E10.67131
G1 X93.833 Y133.902 E10.74332
G1 X93.736 Y133.784 E10.75552
G1 X93.178 Y133.062 E10.82836
G1 X93.074 Y132.915 E10.84273
G1 X92.581 Y132.172 E10.91391
G1 X92.508 Y132.051 E10.92519
G1 X92.056 Y131.246 E10.99888
G1 X91.984 Y131.107 E11.01138
G1 X91.6 Y130.289 E11.08351
G1 X91.536 Y130.137 E11.09668
G1 X91.212 Y129.29 E11.16907
G1 X91.155 Y129.125 E11.183
G1 X90.905 Y128.29 E11.25258
G1 X90.858 Y128.117 E11.26689
G1 X90.659 Y127.221 E11.34015
G1 X90.633 Y127.078 E11.35176
G1 X90.5 Y126.178 E11.42438
G1 X90.483 Y126.018 E11.43722
G1 X90.415 Y125.109 E11.50999
G1 X90.408 Y124.947 E11.52293
G1 X90.4 Y124.444 E11.56309
G1 X90.4 Y114.514 E12.35574
G1 X90.417 Y114.034 E12.39408
G1 X90.415 Y113.616 E12.42745
G1 X90.409 Y113.467 E12.43935
G1 X90.4 Y112.944 E12.48111
G1 X90.4 Y103.014 E13.27376
G1 X90.417 Y102.534 E13.3121
G1 X90.415 Y102.116 E13.34547
G1 X90.409 Y101.967 E13.35737
G1 X90.4 Y101.444 E13.39913
G1 X90.4 Y91.514 E14.19178
G1 X90.436 Y90.508 E14.27214
G1 X90.446 Y90.373 E14.28294
G1 X90.548 Y89.456 E14.35659
G1 X90.573 Y89.281 E14.3707
G1 X90.735 Y88.403 E14.44197
G1 X90.765 Y88.269 E14.45293
G1 X90.996 Y87.384 E14.52594
G1 X91.048 Y87.212 E14.54029
G1 X91.334 Y86.37 E14.61127
G1 X91.398 Y86.204 E14.62547
G1 X91.739 Y85.401 E14.69511
G1 X91.82 Y85.226 E14.7105
G1 X92.235 Y84.418 E14.78301
G1 X92.302 Y84.301 E14.79378
G1 X92.776 Y83.522 E14.86657
G1 X92.876 Y83.371 E14.88102
G1 X93.387 Y82.657 E14.95111
G1 X93.5 Y82.509 E14.96597
G1 X94.076 Y81.818 E15.03778
G0 F9000 X94.4 Y81.473
G1 F1125 X94.4 Y134.532 E19.27318
G0 F9000 X96 Y135.992
G1 F1125 X96 Y80.016 E23.74143
G0 F9000 X97.6 Y78.923
G1 F1125 X97.6 Y137.075 E28.38337
G0 F9000 X99.2 Y137.887
G1 F1125 X99.2 Y78.104 E33.15551
G0 F9000 X100.8 Y77.528
G1 F1125 X100.8 Y138.478 E38.0208
G0 F9000 X102.4 Y138.856
G1 F1125 X102.4 Y77.136 E42.94756
G0 F9000 X104 Y76.944
G1 F1125 X104 Y139.063 E47.90617
G0 F9000 X105.6 Y139.099
G1 F1125 X105.6 Y76.901 E52.87108
G0 F9000 X107.2 Y76.901
G1 F1125 X107.2 Y139.099 E57.83599
G0 F9000 X108.8 Y139.099
G1 F1125 X108.8 Y76.901 E62.80091
G0 F9000 X110.4 Y76.901
G1 F1125 X110.4 Y139.099 E67.76582
G0 F9000 X112 Y139.099
G1 F1125 X112 Y76.901 E72.73073
G0 F9000 X113.6 Y76.901
G1 F1125 X113.6 Y139.099 E77.69565
G0 F9000 X115.2 Y139.096
G1 F1125 X115.2 Y76.909 E82.65968
G0 F9000 X116.8 Y77.021
G1 F1125 X116.8 Y138.983 E87.60576
G0 F9000 X118.4 Y138.691
G1 F1125 X118.4 Y77.31 E92.50545
G0 F9000 X120 Y77.79
G1 F1125 X120 Y138.208 E97.32828
G0 F9000 X121.6 Y137.519
G1 F1125 X121.6 Y78.488 E102.04039
G0 F9000 X123.2 Y79.427
G1 F1125 X123.2 Y136.569 E106.60171
G0 F9000 X124.8 Y135.31
G1 F1125 X124.8 Y80.682 E110.96235
G0 F9000 X126.4 Y82.392
G1 F1125 X126.4 Y133.611 E115.05088
G0 F9000 X128 Y131.155
G1 F1125 X128 Y84.863 E118.7461
G1 F1500 E112.2461
G0 F9000 X128.966 Y84.414
G0 X129.704 Y86.148
G0 X130.315 Y88.096
G0 X129.6 Y89.115
G1 F1500 E118.7461
G1 F1125 X129.6 Y129.548 E121.97364
G0 F9000 X131.2 Y128.818
G1 F1125 X131.2 Y90.977 E124.99427
G0 F9000 X132.8 Y91.834
G1 F1125 X132.8 Y128.16 E127.89397
G0 F9000 X134.4 Y127.268
G1 F1125 X134.4 Y92.729 E130.65102
G0 F9000 X136 Y93.925
G1 F1125 X136 Y126.079 E133.21769
G0 F9000 X137.6 Y124.471
G1 F1125 X137.6 Y95.524 E135.52837
G0 F9000 X139.2 Y97.82
G1 F1125 X139.2 Y122.196 E137.47417
G1 F1500 E130.97417
G0 F9000 X140.205 Y122.58
G0 X141.087 Y120.7
G0 X141.211 Y120.335
G0 X141.768 Y118.488
G0 X140.8 Y117.908
G1 F1500 E137.47417
G1 F1125 X140.8 Y102.091 E138.73675
G1 F1500 E132.23675
G0 F9000 X141.838 Y101.859
G0 X141.287 Y99.841
G0 X140.466 Y97.914
G0 X139.819 Y96.76
G0 X138.599 Y95.056
G0 X126.203 Y80.555
G0 X124.648 Y79.162
G0 X123.543 Y78.374
G0 X121.749 Y77.368
G0 X120.485 Y76.831
G0 X118.488 Y76.232
G0 X117.172 Y75.991
G0 X114.987 Y75.836
G0 X104.31 Y75.854
G0 X102.242 Y76.083
G0 X100.927 Y76.379
G0 X98.961 Y77.05
G0 X97.743 Y77.622
G0 X95.977 Y78.701
G0 X94.897 Y79.532
G0 X93.392 Y80.986
G0 X93.15 Y81.278
G0 X92.004 Y82.761
G0 X92.8 Y83.485
G1 F1500 E138.73675
G1 F1125 X92.8 Y132.502 E142.6495
G0 F9000 X91.2 Y129.255
G1 F1125 X91.2 Y86.764 E146.04131
G1 F1500 E139.54131
G0 F300 X91.2 Y86.764 Z0.54
G0 F9000 X90.331 Y86.015
G0 X90.868 Y84.751
G0 X91.874 Y82.957
G0 X92.662 Y81.852
G0 X94.055 Y80.297
G0 X95.056 Y79.401
G0 X96.76 Y78.181
G0 X97.914 Y77.534
G0 X99.841 Y76.713
G0 X101.122 Y76.327
G0 X103.18 Y75.945
G0 X105.053 Y75.835
G0 X116.057 Y75.874
G0 X117.383 Y76.021
G0 X119.41 Y76.473
G0 X120.7 Y76.913
G0 X122.222 Y77.626
G0 X123.739 Y78.504
G0 X123.438 Y79.597
;TIME_ELAPSED:110.126416
;LAYER:-5
;TYPE:SUPPORT
G1 F1500 E146.04131
G1 F1125 X123.128 Y79.375 E146.07936
G1 X122.977 Y79.276 E146.09737
G1 X122.198 Y78.802 E146.18836
G1 X122.081 Y78.735 E146.20181
G1 X121.287 Y78.326 E146.29093
G1 X121.098 Y78.239 E146.31169
G1 X120.346 Y77.92 E146.3932
G1 X128.571 Y86.144 E147.55377
G1 X128.787 Y86.71 E147.61421
G1 X128.839 Y86.859 E147.62996
G1 X129.094 Y87.71 E147.7186
G1 X129.229 Y88.217 E147.77096
G1 X118.294 Y77.281 E149.31407
G1 X118.23 Y77.264 E149.32068
G1 X118.107 Y77.236 E149.33327
G1 X117.218 Y77.073 E149.42345
G1 X117.043 Y77.047 E149.4411
G1 X116.596 Y76.998 E149.48597
G1 X140.502 Y100.904 E152.85937
G1 X140.594 Y101.209 E152.89116
G1 X140.641 Y101.382 E152.90904
G1 X140.839 Y102.269 E152.99973
G1 X140.864 Y102.407 E153.01372
G1 X140.911 Y102.727 E153.04599
G1 X115.087 Y76.904 E156.68997
G1 X115.002 Y76.9 E156.69846
G1 X113.67 Y76.9 E156.83137
G1 X141.078 Y104.308 E160.69893
G1 X141.082 Y104.371 E160.70523
G1 X141.091 Y104.554 E160.72351
G1 X141.098 Y105.056 E160.77361
G1 X141.099 Y105.744 E160.84226
G1 X112.256 Y76.9 E164.91238
G1 X110.841 Y76.9 E165.05357
G1 X141.099 Y107.158 E169.3233
G1 X141.099 Y108.572 E169.46439
G1 X109.427 Y76.9 E173.93366
G1 X108.013 Y76.9 E174.07474
G1 X141.099 Y109.986 E178.74354
G1 X141.099 Y111.401 E178.88473
G1 X106.599 Y76.9 E183.75312
G1 X105.184 Y76.9 E183.89431
G1 X141.099 Y112.815 E188.9623
G1 X141.099 Y114.229 E189.10339
G1 X103.828 Y76.957 E194.3628
G1 X103.481 Y76.983 E194.39752
G1 X103.312 Y77.001 E194.41448
G1 X102.567 Y77.112 E194.48964
G1 X141.076 Y115.621 E199.92368
G1 X141.063 Y115.992 E199.96072
G1 X141.053 Y116.126 E199.97412
G1 X140.965 Y116.923 E200.05413
G1 X101.396 Y77.354 E205.63775
G1 X101.382 Y77.357 E205.63918
G1 X101.208 Y77.404 E205.65716
G1 X100.359 Y77.66 E205.74564
G1 X100.306 Y77.679 E205.75126
G1 X140.757 Y118.129 E211.45926
G1 X140.734 Y118.231 E211.46969
G1 X140.503 Y119.116 E211.56096
G1 X140.463 Y119.25 E211.57491
G1 X99.283 Y78.07 E217.38585
G1 X99.207 Y78.101 E217.39404
G1 X98.391 Y78.483 E217.48395
G1 X98.321 Y78.522 E217.49194
G1 X140.099 Y120.3 E223.38727
G1 X139.76 Y121.098 E223.47378
G1 X139.679 Y121.273 E223.49302
G1 X139.672 Y121.287 E223.49458
G1 X97.413 Y79.029 E229.45771
G1 X97.321 Y79.084 E229.46841
G1 X96.584 Y79.574 E229.55672
G1 X96.561 Y79.591 E229.55957
G1 X139.186 Y122.216 E235.57442
G1 X138.723 Y122.977 E235.6633
G1 X138.648 Y123.092 E235.677
G1 X95.759 Y80.202 E241.72917
G1 X95.713 Y80.237 E241.73494
G1 X95.597 Y80.333 E241.74996
G1 X95.006 Y80.864 E241.82924
G1 X138.057 Y123.915 E247.9042
G1 X137.998 Y123.991 E247.9138
G1 X137.422 Y124.682 E248.00356
G1 X137.417 Y124.689 E248.00442
G1 X94.301 Y81.573 E254.08855
G1 X94.176 Y81.704 E254.10662
G1 X94.074 Y81.817 E254.12181
G1 X93.646 Y82.332 E254.18863
G1 X136.727 Y125.413 E260.26782
G1 X136.697 Y125.444 E260.27213
G1 X136.572 Y125.563 E260.28935
G1 X135.987 Y126.088 E260.36778
G1 X93.039 Y83.14 E266.4282
G1 X92.875 Y83.37 E266.45639
G1 X92.775 Y83.522 E266.47454
G1 X92.484 Y83.999 E266.5303
G1 X135.2 Y126.714 E272.55792
G1 X135.073 Y126.813 E272.57398
G1 X134.914 Y126.925 E272.59339
G1 X134.363 Y127.291 E272.65939
G1 X91.981 Y84.91 E278.63988
G1 X91.819 Y85.226 E278.67531
G1 X91.737 Y85.4 E278.69451
G1 X91.534 Y85.878 E278.74632
G1 X133.472 Y127.815 E284.66416
G1 X133.256 Y127.937 E284.68891
G1 X133.105 Y128.016 E284.70591
G1 X132.529 Y128.286 E284.76939
G1 X91.15 Y86.907 E290.60841
G1 X91.047 Y87.211 E290.64044
G1 X90.995 Y87.383 E290.65837
G1 X90.832 Y88.004 E290.72243
G1 X131.525 Y128.696 E296.46458
G1 X131.289 Y128.787 E296.48982
G1 X131.132 Y128.841 E296.50639
G1 X130.987 Y128.885 E296.52151
G1 X130.486 Y129.072 E296.57487
G1 X90.59 Y89.176 E302.20462
G1 X90.571 Y89.28 E302.21517
G1 X90.547 Y89.456 E302.2329
G1 X90.445 Y90.373 E302.32496
G1 X90.44 Y90.44 E302.33166
G1 X129.568 Y129.568 E307.85305
G1 X129.196 Y129.829 E307.89839
G1 X128.786 Y130.2 E307.95356
G1 X90.4 Y91.814 E313.37024
G1 X90.4 Y93.228 E313.51133
G1 X128.144 Y130.972 E318.83742
G1 X128.022 Y131.163 E318.86003
G1 X128.001 Y131.152 E318.8624
G1 X127.697 Y131.698 E318.92475
G1 X127.606 Y131.849 E318.94234
G1 X90.4 Y94.642 E324.19258
G1 X90.4 Y96.056 E324.33367
G1 X127.06 Y132.717 E329.50686
G1 X126.613 Y133.341 E329.58345
G1 X126.499 Y133.49 E329.60217
G1 X126.463 Y133.534 E329.60785
