(Start of Tape)

(Made in : UPC)
(G Code optimized for RS-CNC32 with GRBL V0.9j controller)

( PART NUMBER=1 )
( PART NAME=  )
( PROGRAMMER=  )
( OPERATION NUMBER=  )
( DATE=  )

G90 G17 G21 G80

(Init Tool Change)
(3.175MM CRB 2FL BM 9 LOC)
G53 G0 Z2 
G54
S5000 M3
M9
G4 P1 
(Rapid From Tool Change)
G0 G90 X.0517 Y4.1798
(Rapid Z Down)
Z1.
(Feed Z Down)
G1 Z-1.5 F300.
(Line Move)
X.0503 Y-.0332 Z-1.5 F750.
(Line Move)
X.0795 Y-.004 Z-1.5
(Line Move)
X.1253 Y.0247 Z-1.5
(Line Move)
X.1763 Y.0426 Z-1.5
(Line Move)
X.2301 Y.0486 Z-1.5
(Line Move)
X104.8086 Y.0001 Z-1.5
(Line Move)
X104.8623 Y-.006 Z-1.5
(Line Move)
X104.9133 Y-.0238 Z-1.5
(Line Move)
X104.9591 Y-.0526 Z-1.5
(Line Move)
X104.9973 Y-.0909 Z-1.5
(Line Move)
X105.026 Y-.1367 Z-1.5
(Line Move)
X105.0438 Y-.1877 Z-1.5
(Line Move)
X105.0499 Y-.2414 Z-1.5
(Line Move)
X105.0045 Y-80.8083 Z-1.5
(Line Move)
X104.9962 Y-80.8708 Z-1.5
(Line Move)
X104.9721 Y-80.9291 Z-1.5
(Line Move)
X104.9337 Y-80.9791 Z-1.5
(Line Move)
X104.8837 Y-81.0174 Z-1.5
(Line Move)
X104.8254 Y-81.0415 Z-1.5
(Line Move)
X104.7629 Y-81.0497 Z-1.5
(Line Move)
X.1966 Y-81.0222 Z-1.5
(Line Move)
X.1428 Y-81.0161 Z-1.5
(Line Move)
X.0918 Y-80.9983 Z-1.5
(Line Move)
X.0461 Y-80.9695 Z-1.5
(Line Move)
X.0079 Y-80.9313 Z-1.5
(Line Move)
X-.0065 Y-80.9084 Z-1.5
(Line Move)
X-.0209 Y-80.8855 Z-1.5
(Line Move)
X-.0387 Y-80.8344 Z-1.5
(Line Move)
X-.0447 Y-80.7807 Z-1.5
(Line Move)
X-.0115 Y-.1927 Z-1.5
(Line Move)
X-.0054 Y-.139 Z-1.5
(Line Move)
X.0125 Y-.088 Z-1.5
(Line Move)
X.0413 Y-.0422 Z-1.5
(Line Move)
X.0503 Y-.0332 Z-1.5
(Line Move)
X.1884 Y.0021 Z-1.5
(Line Move)
X.3358 Y-.1222 Z-1.5
(Line Move)
X.6487 Y-.6395 Z-1.5
(Line Move)
X.9698 Y-1.1661 Z-1.5
(Line Move)
X1.1272 Y-1.3018 Z-1.5
(Line Move)
X1.2794 Y-1.2826 Z-1.5
(Line Move)
X1.383 Y-1.2032 Z-1.5
(Line Move)
X1.5035 Y-1.1532 Z-1.5
(Line Move)
X1.6329 Y-1.1362 Z-1.5
(Line Move)
X103.3594 Y-1.1326 Z-1.5
(Line Move)
X103.4707 Y-1.1452 Z-1.5
(Line Move)
X103.5764 Y-1.1822 Z-1.5
(Line Move)
X103.6712 Y-1.2417 Z-1.5
(Line Move)
X103.7504 Y-1.3209 Z-1.5
(Line Move)
X103.81 Y-1.4157 Z-1.5
(Line Move)
X103.8469 Y-1.5214 Z-1.5
(Line Move)
X103.8595 Y-1.6327 Z-1.5
(Line Move)
X103.8489 Y-79.3728 Z-1.5
(Line Move)
X103.8363 Y-79.4841 Z-1.5
(Line Move)
X103.7993 Y-79.5898 Z-1.5
(Line Move)
X103.7397 Y-79.6846 Z-1.5
(Line Move)
X103.6604 Y-79.7638 Z-1.5
(Line Move)
X103.5656 Y-79.8233 Z-1.5
(Line Move)
X103.4598 Y-79.8602 Z-1.5
(Line Move)
X103.3485 Y-79.8727 Z-1.5
(Line Move)
X1.625 Y-79.7975 Z-1.5
(Line Move)
X1.4956 Y-79.7804 Z-1.5
(Line Move)
X1.3751 Y-79.7304 Z-1.5
(Line Move)
X1.2716 Y-79.6509 Z-1.5
(Line Move)
X1.1922 Y-79.5474 Z-1.5
(Line Move)
X1.1423 Y-79.4268 Z-1.5
(Line Move)
X1.1253 Y-79.2975 Z-1.5
(Line Move)
X1.133 Y-1.6361 Z-1.5
(Line Move)
X1.15 Y-1.5067 Z-1.5
(Line Move)
X1.2 Y-1.3861 Z-1.5
(Line Move)
X1.2794 Y-1.2826 Z-1.5
(Line Move)
X1.4008 Y-1.2315 Z-1.5
(Line Move)
X1.5349 Y-1.3409 Z-1.5
(Line Move)
X1.8298 Y-1.833 Z-1.5
(Line Move)
X2.142 Y-2.3424 Z-1.5
(Line Move)
X2.2976 Y-2.4734 Z-1.5
(Line Move)
X2.4493 Y-2.4526 Z-1.5
(Line Move)
X2.5529 Y-2.3731 Z-1.5
(Line Move)
X2.6734 Y-2.3232 Z-1.5
(Line Move)
X2.8028 Y-2.3061 Z-1.5
(Line Move)
X102.1893 Y-2.3027 Z-1.5
(Line Move)
X102.3006 Y-2.3152 Z-1.5
(Line Move)
X102.4063 Y-2.3522 Z-1.5
(Line Move)
X102.5011 Y-2.4118 Z-1.5
(Line Move)
X102.5802 Y-2.491 Z-1.5
(Line Move)
X102.6398 Y-2.5858 Z-1.5
(Line Move)
X102.6768 Y-2.6915 Z-1.5
(Line Move)
X102.6893 Y-2.8028 Z-1.5
(Line Move)
X102.6791 Y-78.0832 Z-1.5
(Line Move)
X102.662 Y-78.2126 Z-1.5
(Line Move)
X102.6121 Y-78.3331 Z-1.5
(Line Move)
X102.5327 Y-78.4366 Z-1.5
(Line Move)
X102.4292 Y-78.5161 Z-1.5
(Line Move)
X102.3086 Y-78.5661 Z-1.5
(Line Move)
X102.1793 Y-78.5831 Z-1.5
(Line Move)
X2.7957 Y-78.627 Z-1.5
(Line Move)
X2.6844 Y-78.6146 Z-1.5
(Line Move)
X2.5786 Y-78.5776 Z-1.5
(Line Move)
X2.4838 Y-78.518 Z-1.5
(Line Move)
X2.4046 Y-78.4388 Z-1.5
(Line Move)
X2.345 Y-78.344 Z-1.5
(Line Move)
X2.308 Y-78.2383 Z-1.5
(Line Move)
X2.2954 Y-78.127 Z-1.5
(Line Move)
X2.3028 Y-2.8061 Z-1.5
(Line Move)
X2.3199 Y-2.6767 Z-1.5
(Line Move)
X2.3699 Y-2.5561 Z-1.5
(Line Move)
X2.4493 Y-2.4526 Z-1.5
(Line Move)
X2.5707 Y-2.4014 Z-1.5
(Line Move)
X2.7047 Y-2.5108 Z-1.5
(Line Move)
X2.9996 Y-3.0029 Z-1.5
(Line Move)
X3.3119 Y-3.5123 Z-1.5
(Line Move)
X3.4675 Y-3.6434 Z-1.5
(Line Move)
X3.6192 Y-3.6225 Z-1.5
(Line Move)
X3.7227 Y-3.5431 Z-1.5
(Line Move)
X3.8433 Y-3.4931 Z-1.5
(Line Move)
X3.9727 Y-3.4761 Z-1.5
(Line Move)
X101.0191 Y-3.4727 Z-1.5
(Line Move)
X101.1304 Y-3.4853 Z-1.5
(Line Move)
X101.2361 Y-3.5222 Z-1.5
(Line Move)
X101.3309 Y-3.5818 Z-1.5
(Line Move)
X101.4101 Y-3.661 Z-1.5
(Line Move)
X101.4696 Y-3.7558 Z-1.5
(Line Move)
X101.5066 Y-3.8615 Z-1.5
(Line Move)
X101.5191 Y-3.9728 Z-1.5
(Line Move)
X101.5092 Y-76.9137 Z-1.5
(Line Move)
X101.4922 Y-77.0431 Z-1.5
(Line Move)
X101.4423 Y-77.1636 Z-1.5
(Line Move)
X101.3628 Y-77.2672 Z-1.5
(Line Move)
X101.2593 Y-77.3466 Z-1.5
(Line Move)
X101.1388 Y-77.3966 Z-1.5
(Line Move)
X101.0094 Y-77.4137 Z-1.5
(Line Move)
X3.9658 Y-77.4565 Z-1.5
(Line Move)
X3.8545 Y-77.444 Z-1.5
(Line Move)
X3.7487 Y-77.4071 Z-1.5
(Line Move)
X3.6539 Y-77.3475 Z-1.5
(Line Move)
X3.5747 Y-77.2683 Z-1.5
(Line Move)
X3.5151 Y-77.1735 Z-1.5
(Line Move)
X3.4781 Y-77.0678 Z-1.5
(Line Move)
X3.4656 Y-76.9565 Z-1.5
(Line Move)
X3.4727 Y-3.976 Z-1.5
(Line Move)
X3.4898 Y-3.8466 Z-1.5
(Line Move)
X3.5397 Y-3.7261 Z-1.5
(Line Move)
X3.6192 Y-3.6225 Z-1.5
(Line Move)
X3.7406 Y-3.5714 Z-1.5
(Line Move)
X3.8746 Y-3.6808 Z-1.5
(Line Move)
X4.1695 Y-4.1729 Z-1.5
(Line Move)
X4.4817 Y-4.6823 Z-1.5
(Line Move)
X4.6374 Y-4.8133 Z-1.5
(Line Move)
X4.7891 Y-4.7925 Z-1.5
(Line Move)
X4.8926 Y-4.713 Z-1.5
(Line Move)
X5.0132 Y-4.6631 Z-1.5
(Line Move)
X5.1426 Y-4.646 Z-1.5
(Line Move)
X99.849 Y-4.6428 Z-1.5
(Line Move)
X99.9602 Y-4.6553 Z-1.5
(Line Move)
X100.0659 Y-4.6923 Z-1.5
(Line Move)
X100.1607 Y-4.7519 Z-1.5
(Line Move)
X100.2399 Y-4.831 Z-1.5
(Line Move)
X100.2995 Y-4.9259 Z-1.5
(Line Move)
X100.3365 Y-5.0316 Z-1.5
(Line Move)
X100.349 Y-5.1428 Z-1.5
(Line Move)
X100.3394 Y-75.7442 Z-1.5
(Line Move)
X100.3223 Y-75.8736 Z-1.5
(Line Move)
X100.2724 Y-75.9941 Z-1.5
(Line Move)
X100.193 Y-76.0977 Z-1.5
(Line Move)
X100.0895 Y-76.1771 Z-1.5
(Line Move)
X99.969 Y-76.2271 Z-1.5
(Line Move)
X99.8396 Y-76.2442 Z-1.5
(Line Move)
X5.1359 Y-76.286 Z-1.5
(Line Move)
X5.0246 Y-76.2735 Z-1.5
(Line Move)
X4.9189 Y-76.2366 Z-1.5
(Line Move)
X4.824 Y-76.177 Z-1.5
(Line Move)
X4.7448 Y-76.0978 Z-1.5
(Line Move)
X4.6852 Y-76.003 Z-1.5
(Line Move)
X4.6482 Y-75.8973 Z-1.5
(Line Move)
X4.6357 Y-75.786 Z-1.5
(Line Move)
X4.6426 Y-5.146 Z-1.5
(Line Move)
X4.6597 Y-5.0166 Z-1.5
(Line Move)
X4.7096 Y-4.896 Z-1.5
(Line Move)
X4.7891 Y-4.7925 Z-1.5
(Line Move)
X4.9038 Y-4.7347 Z-1.5
(Line Move)
X5.0202 Y-4.8264 Z-1.5
(Line Move)
X5.2615 Y-5.2649 Z-1.5
(Line Move)
X5.5201 Y-5.7208 Z-1.5
(Line Move)
X5.6582 Y-5.8341 Z-1.5
(Line Move)
X5.8031 Y-5.8066 Z-1.5
(Line Move)
X5.9067 Y-5.7272 Z-1.5
(Line Move)
X6.0273 Y-5.6772 Z-1.5
(Line Move)
X6.1567 Y-5.6602 Z-1.5
(Line Move)
X98.8347 Y-5.657 Z-1.5
(Line Move)
X98.9459 Y-5.6695 Z-1.5
(Line Move)
X99.0516 Y-5.7065 Z-1.5
(Line Move)
X99.1465 Y-5.7661 Z-1.5
(Line Move)
X99.2256 Y-5.8452 Z-1.5
(Line Move)
X99.2852 Y-5.9401 Z-1.5
(Line Move)
X99.3222 Y-6.0457 Z-1.5
(Line Move)
X99.3347 Y-6.157 Z-1.5
(Line Move)
X99.3254 Y-74.7305 Z-1.5
(Line Move)
X99.3083 Y-74.8599 Z-1.5
(Line Move)
X99.2584 Y-74.9804 Z-1.5
(Line Move)
X99.179 Y-75.084 Z-1.5
(Line Move)
X99.0755 Y-75.1634 Z-1.5
(Line Move)
X98.9549 Y-75.2134 Z-1.5
(Line Move)
X98.8256 Y-75.2305 Z-1.5
(Line Move)
X6.1502 Y-75.2714 Z-1.5
(Line Move)
X6.0388 Y-75.2589 Z-1.5
(Line Move)
X5.9331 Y-75.222 Z-1.5
(Line Move)
X5.8383 Y-75.1624 Z-1.5
(Line Move)
X5.7591 Y-75.0832 Z-1.5
(Line Move)
X5.6995 Y-74.9884 Z-1.5
(Line Move)
X5.6625 Y-74.8827 Z-1.5
(Line Move)
X5.6499 Y-74.7714 Z-1.5
(Line Move)
X5.6567 Y-6.1601 Z-1.5
(Line Move)
X5.6737 Y-6.0307 Z-1.5
(Line Move)
X5.7237 Y-5.9101 Z-1.5
(Line Move)
X5.8031 Y-5.8066 Z-1.5
(Line Move)
X5.9676 Y-5.7745 Z-1.5
(Line Move)
X6.059 Y-6.0639 Z-1.5
(Line Move)
X6.1596 Y-6.3614 Z-1.5
(Line Move)
X6.3514 Y-6.3532 Z-1.5
(Line Move)
X6.3904 Y-6.3141 Z-1.5
(Line Move)
X6.4853 Y-6.2543 Z-1.5
(Line Move)
X6.5912 Y-6.2171 Z-1.5
(Line Move)
X6.7028 Y-6.2046 Z-1.5
(Line Move)
X43.721 Y-6.2151 Z-1.5
(Line Move)
X43.7374 Y-6.2171 Z-1.5
(Line Move)
X43.7528 Y-6.223 Z-1.5
(Line Move)
X43.7663 Y-6.2325 Z-1.5
(Line Move)
X43.777 Y-6.245 Z-1.5
(Line Move)
X43.7844 Y-6.2597 Z-1.5
(Line Move)
X43.7881 Y-6.2758 Z-1.5
(Line Move)
X43.7877 Y-6.2923 Z-1.5
(Line Move)
X43.7833 Y-6.3082 Z-1.5
(Line Move)
X43.7752 Y-6.3225 Z-1.5
(Line Move)
X43.7638 Y-6.3345 Z-1.5
(Line Move)
X43.7499 Y-6.3433 Z-1.5
(Line Move)
X43.7342 Y-6.3485 Z-1.5
(Line Move)
X38.3084 Y-7.4341 Z-1.5
(Line Move)
X33.8344 Y-8.5879 Z-1.5
(Line Move)
X29.3565 Y-10.2683 Z-1.5
(Line Move)
X25.688 Y-11.8744 Z-1.5
(Line Move)
X22.4482 Y-13.6375 Z-1.5
(Line Move)
X20.1099 Y-15.1778 Z-1.5
(Line Move)
X16.5023 Y-17.8727 Z-1.5
(Line Move)
X13.7857 Y-20.4895 Z-1.5
(Line Move)
X10.7837 Y-24.1557 Z-1.5
(Line Move)
X7.6324 Y-29.3412 Z-1.5
(Line Move)
X6.5161 Y-32.7626 Z-1.5
(Line Move)
X6.5033 Y-32.7895 Z-1.5
(Line Move)
X6.4842 Y-32.8122 Z-1.5
(Line Move)
X6.4599 Y-32.8293 Z-1.5
(Line Move)
X6.4321 Y-32.8396 Z-1.5
(Line Move)
X6.4026 Y-32.8426 Z-1.5
(Line Move)
X6.3733 Y-32.838 Z-1.5
(Line Move)
X6.3461 Y-32.8261 Z-1.5
(Line Move)
X6.3228 Y-32.8077 Z-1.5
(Line Move)
X6.3049 Y-32.784 Z-1.5
(Line Move)
X6.2937 Y-32.7565 Z-1.5
(Line Move)
X6.2898 Y-32.727 Z-1.5
(Line Move)
X6.2026 Y-6.7063 Z-1.5
(Line Move)
X6.2148 Y-6.5947 Z-1.5
(Line Move)
X6.2516 Y-6.4887 Z-1.5
(Line Move)
X6.3111 Y-6.3935 Z-1.5
(Line Move)
X6.3514 Y-6.3532 Z-1.5
(Line Move)
X6.5392 Y-6.3519 Z-1.5
(Line Move)
X6.6381 Y-6.6714 Z-1.5
(Line Move)
X6.745 Y-7.0002 Z-1.5
(Line Move)
X6.9573 Y-7.0267 Z-1.5
(Line Move)
X7.0606 Y-6.9472 Z-1.5
(Line Move)
X7.181 Y-6.8971 Z-1.5
(Line Move)
X7.3102 Y-6.8799 Z-1.5
(Line Move)
X37.7867 Y-6.8253 Z-1.5
(Line Move)
X37.8036 Y-6.8273 Z-1.5
(Line Move)
X37.8195 Y-6.8334 Z-1.5
(Line Move)
X37.8335 Y-6.8432 Z-1.5
(Line Move)
X37.8447 Y-6.8561 Z-1.5
(Line Move)
X37.8524 Y-6.8713 Z-1.5
(Line Move)
X37.8563 Y-6.8879 Z-1.5
(Line Move)
X37.8559 Y-6.9049 Z-1.5
(Line Move)
X37.8515 Y-6.9214 Z-1.5
(Line Move)
X37.8432 Y-6.9363 Z-1.5
(Line Move)
X37.8316 Y-6.9487 Z-1.5
(Line Move)
X37.8172 Y-6.958 Z-1.5
(Line Move)
X37.8011 Y-6.9635 Z-1.5
(Line Move)
X34.8193 Y-7.5869 Z-1.5
(Line Move)
X29.1467 Y-9.6972 Z-1.5
(Line Move)
X25.443 Y-11.3232 Z-1.5
(Line Move)
X22.1555 Y-13.1019 Z-1.5
(Line Move)
X19.5603 Y-14.8259 Z-1.5
(Line Move)
X16.1918 Y-17.3449 Z-1.5
(Line Move)
X13.3222 Y-20.1006 Z-1.5
(Line Move)
X10.2666 Y-23.8336 Z-1.5
(Line Move)
X7.5657 Y-28.2663 Z-1.5
(Line Move)
X7.1311 Y-29.2033 Z-1.5
(Line Move)
X7.1091 Y-29.2385 Z-1.5
(Line Move)
X7.0793 Y-29.2672 Z-1.5
(Line Move)
X7.0433 Y-29.2879 Z-1.5
(Line Move)
X7.0034 Y-29.2991 Z-1.5
(Line Move)
X6.962 Y-29.3003 Z-1.5
(Line Move)
X6.9215 Y-29.2914 Z-1.5
(Line Move)
X6.8844 Y-29.2729 Z-1.5
(Line Move)
X6.853 Y-29.2459 Z-1.5
(Line Move)
X6.829 Y-29.212 Z-1.5
(Line Move)
X6.8141 Y-29.1733 Z-1.5
(Line Move)
X6.809 Y-29.1322 Z-1.5
(Line Move)
X6.8111 Y-7.3799 Z-1.5
(Line Move)
X6.8281 Y-7.2506 Z-1.5
(Line Move)
X6.878 Y-7.1301 Z-1.5
(Line Move)
X6.9573 Y-7.0267 Z-1.5
(Line Move)
X7.0648 Y-6.9646 Z-1.5
(Line Move)
X7.1624 Y-7.0454 Z-1.5
(Line Move)
X7.3469 Y-7.4506 Z-1.5
(Line Move)
X7.5486 Y-7.873 Z-1.5
(Line Move)
X7.8054 Y-7.9432 Z-1.5
(Line Move)
X7.9085 Y-7.8637 Z-1.5
(Line Move)
X8.0286 Y-7.8135 Z-1.5
(Line Move)
X8.1576 Y-7.796 Z-1.5
(Line Move)
X31.3062 Y-7.7018 Z-1.5
(Line Move)
X31.3405 Y-7.706 Z-1.5
(Line Move)
X31.3726 Y-7.7186 Z-1.5
(Line Move)
X31.4005 Y-7.7389 Z-1.5
(Line Move)
X31.4225 Y-7.7654 Z-1.5
(Line Move)
X31.4372 Y-7.7967 Z-1.5
(Line Move)
X31.4437 Y-7.8306 Z-1.5
(Line Move)
X31.4414 Y-7.865 Z-1.5
(Line Move)
X31.4307 Y-7.8978 Z-1.5
(Line Move)
X31.4121 Y-7.9269 Z-1.5
(Line Move)
X31.3868 Y-7.9504 Z-1.5
(Line Move)
X31.3565 Y-7.9668 Z-1.5
(Line Move)
X27.4946 Y-9.4684 Z-1.5
(Line Move)
X24.1976 Y-11.0204 Z-1.5
(Line Move)
X21.218 Y-12.7263 Z-1.5
(Line Move)
X15.7063 Y-16.6604 Z-1.5
(Line Move)
X12.6235 Y-19.625 Z-1.5
(Line Move)
X9.9783 Y-22.8077 Z-1.5
(Line Move)
X8.0967 Y-25.7723 Z-1.5
(Line Move)
X8.0576 Y-25.8193 Z-1.5
(Line Move)
X8.0078 Y-25.8548 Z-1.5
(Line Move)
X7.9507 Y-25.8764 Z-1.5
(Line Move)
X7.8899 Y-25.8827 Z-1.5
(Line Move)
X7.8295 Y-25.8733 Z-1.5
(Line Move)
X7.7734 Y-25.8489 Z-1.5
(Line Move)
X7.7255 Y-25.811 Z-1.5
(Line Move)
X7.6888 Y-25.7621 Z-1.5
(Line Move)
X7.6658 Y-25.7054 Z-1.5
(Line Move)
X7.6579 Y-25.6448 Z-1.5
(Line Move)
X7.6596 Y-8.296 Z-1.5
(Line Move)
X7.6766 Y-8.1669 Z-1.5
(Line Move)
X7.7263 Y-8.0466 Z-1.5
(Line Move)
X7.8054 Y-7.9432 Z-1.5
(Line Move)
X7.9757 Y-7.9161 Z-1.5
(Line Move)
X8.084 Y-8.2207 Z-1.5
(Line Move)
X8.2095 Y-8.5426 Z-1.5
(Line Move)
X8.4318 Y-8.5671 Z-1.5
(Line Move)
X8.5349 Y-8.4876 Z-1.5
(Line Move)
X8.655 Y-8.4374 Z-1.5
(Line Move)
X8.784 Y-8.42 Z-1.5
(Line Move)
X27.9074 Y-8.3421 Z-1.5
(Line Move)
X27.9479 Y-8.347 Z-1.5
(Line Move)
X27.9861 Y-8.3616 Z-1.5
(Line Move)
X28.0195 Y-8.3851 Z-1.5
(Line Move)
X28.0461 Y-8.416 Z-1.5
(Line Move)
X28.0644 Y-8.4525 Z-1.5
(Line Move)
X28.0733 Y-8.4923 Z-1.5
(Line Move)
X28.0721 Y-8.5332 Z-1.5
(Line Move)
X28.061 Y-8.5725 Z-1.5
(Line Move)
X28.0407 Y-8.6079 Z-1.5
(Line Move)
X28.0123 Y-8.6372 Z-1.5
(Line Move)
X27.9776 Y-8.6587 Z-1.5
(Line Move)
X23.2569 Y-10.8371 Z-1.5
(Line Move)
X20.5019 Y-12.466 Z-1.5
(Line Move)
X15.2613 Y-16.1886 Z-1.5
(Line Move)
X12.3316 Y-18.979 Z-1.5
(Line Move)
X9.8495 Y-21.9736 Z-1.5
(Line Move)
X8.7467 Y-23.6182 Z-1.5
(Line Move)
X8.7044 Y-23.6665 Z-1.5
(Line Move)
X8.6513 Y-23.7027 Z-1.5
(Line Move)
X8.5908 Y-23.7242 Z-1.5
(Line Move)
X8.5269 Y-23.7298 Z-1.5
(Line Move)
X8.4635 Y-23.7191 Z-1.5
(Line Move)
X8.405 Y-23.6927 Z-1.5
(Line Move)
X8.355 Y-23.6525 Z-1.5
(Line Move)
X8.3167 Y-23.6009 Z-1.5
(Line Move)
X8.2927 Y-23.5413 Z-1.5
(Line Move)
X8.2846 Y-23.4776 Z-1.5
(Line Move)
X8.286 Y-8.9199 Z-1.5
(Line Move)
X8.303 Y-8.7908 Z-1.5
(Line Move)
X8.3527 Y-8.6705 Z-1.5
(Line Move)
X8.4318 Y-8.5671 Z-1.5
(Line Move)
X8.6162 Y-8.554 Z-1.5
(Line Move)
X8.7555 Y-8.8895 Z-1.5
(Line Move)
X8.9121 Y-9.2423 Z-1.5
(Line Move)
X9.1484 Y-9.2809 Z-1.5
(Line Move)
X9.2515 Y-9.2014 Z-1.5
(Line Move)
X9.3716 Y-9.1512 Z-1.5
(Line Move)
X9.5006 Y-9.1337 Z-1.5
(Line Move)
X24.6047 Y-9.0722 Z-1.5
(Line Move)
X24.6479 Y-9.0774 Z-1.5
(Line Move)
X24.6886 Y-9.0928 Z-1.5
(Line Move)
X24.7243 Y-9.1176 Z-1.5
(Line Move)
X24.753 Y-9.1503 Z-1.5
(Line Move)
X24.7729 Y-9.189 Z-1.5
(Line Move)
X24.7828 Y-9.2313 Z-1.5
(Line Move)
X24.7822 Y-9.2748 Z-1.5
(Line Move)
X24.7711 Y-9.3168 Z-1.5
(Line Move)
X24.7502 Y-9.3549 Z-1.5
(Line Move)
X24.7207 Y-9.3869 Z-1.5
(Line Move)
X24.6843 Y-9.4107 Z-1.5
(Line Move)
X22.1506 Y-10.6586 Z-1.5
(Line Move)
X19.6571 Y-12.1863 Z-1.5
(Line Move)
X14.928 Y-15.5624 Z-1.5
(Line Move)
X12.054 Y-18.2544 Z-1.5
(Line Move)
X9.5582 Y-21.277 Z-1.5
(Line Move)
X9.5024 Y-21.3299 Z-1.5
(Line Move)
X9.4354 Y-21.3676 Z-1.5
(Line Move)
X9.3613 Y-21.3879 Z-1.5
(Line Move)
X9.2845 Y-21.3897 Z-1.5
(Line Move)
X9.2095 Y-21.3727 Z-1.5
(Line Move)
X9.1409 Y-21.338 Z-1.5
(Line Move)
X9.0827 Y-21.2878 Z-1.5
(Line Move)
X9.0385 Y-21.2249 Z-1.5
(Line Move)
X9.0109 Y-21.1532 Z-1.5
(Line Move)
X9.0015 Y-21.0769 Z-1.5
(Line Move)
X9.0026 Y-9.6337 Z-1.5
(Line Move)
X9.0196 Y-9.5046 Z-1.5
(Line Move)
X9.0693 Y-9.3843 Z-1.5
(Line Move)
X9.1484 Y-9.2809 Z-1.5
(Line Move)
X9.3126 Y-9.2477 Z-1.5
(Line Move)
X9.4075 Y-9.539 Z-1.5
(Line Move)
X9.5197 Y-9.8476 Z-1.5
(Line Move)
X9.7359 Y-9.866 Z-1.5
(Line Move)
X9.839 Y-9.7866 Z-1.5
(Line Move)
X9.9591 Y-9.7364 Z-1.5
(Line Move)
X10.0881 Y-9.7189 Z-1.5
(Line Move)
X22.0295 Y-9.6703 Z-1.5
(Line Move)
X22.086 Y-9.6775 Z-1.5
(Line Move)
X22.1387 Y-9.699 Z-1.5
(Line Move)
X22.1841 Y-9.7334 Z-1.5
(Line Move)
X22.2191 Y-9.7783 Z-1.5
(Line Move)
X22.2413 Y-9.8308 Z-1.5
(Line Move)
X22.2492 Y-9.8872 Z-1.5
(Line Move)
X22.2422 Y-9.9437 Z-1.5
(Line Move)
X22.221 Y-9.9966 Z-1.5
(Line Move)
X22.1868 Y-10.0421 Z-1.5
(Line Move)
X22.142 Y-10.0773 Z-1.5
(Line Move)
X18.9334 Y-11.9791 Z-1.5
(Line Move)
X14.5129 Y-15.1196 Z-1.5
(Line Move)
X11.8484 Y-17.6401 Z-1.5
(Line Move)
X10.1565 Y-19.6446 Z-1.5
(Line Move)
X10.0991 Y-19.6978 Z-1.5
(Line Move)
X10.0305 Y-19.7356 Z-1.5
(Line Move)
X9.9549 Y-19.7557 Z-1.5
(Line Move)
X9.8766 Y-19.7569 Z-1.5
(Line Move)
X9.8003 Y-19.7392 Z-1.5
(Line Move)
X9.7306 Y-19.7036 Z-1.5
(Line Move)
X9.6716 Y-19.6521 Z-1.5
(Line Move)
X9.6268 Y-19.588 Z-1.5
(Line Move)
X9.5987 Y-19.5149 Z-1.5
(Line Move)
X9.5892 Y-19.4372 Z-1.5
(Line Move)
X9.5901 Y-10.2188 Z-1.5
(Line Move)
X9.6071 Y-10.0898 Z-1.5
(Line Move)
X9.6568 Y-9.9695 Z-1.5
(Line Move)
X9.7359 Y-9.866 Z-1.5
(Line Move)
X9.8453 Y-9.8029 Z-1.5
(Line Move)
X9.9483 Y-9.8809 Z-1.5
(Line Move)
X10.1493 Y-10.2778 Z-1.5
(Line Move)
X10.3675 Y-10.692 Z-1.5
(Line Move)
X10.6319 Y-10.7585 Z-1.5
(Line Move)
X10.735 Y-10.679 Z-1.5
(Line Move)
X10.8551 Y-10.6288 Z-1.5
(Line Move)
X10.9841 Y-10.6113 Z-1.5
(Line Move)
X18.708 Y-10.5799 Z-1.5
(Line Move)
X18.773 Y-10.5879 Z-1.5
(Line Move)
X18.8339 Y-10.6121 Z-1.5
(Line Move)
X18.8867 Y-10.6507 Z-1.5
(Line Move)
X18.9282 Y-10.7014 Z-1.5
(Line Move)
X18.9556 Y-10.7609 Z-1.5
(Line Move)
X18.9672 Y-10.8254 Z-1.5
(Line Move)
X18.9622 Y-10.8907 Z-1.5
(Line Move)
X18.9409 Y-10.9526 Z-1.5
(Line Move)
X18.9047 Y-11.0072 Z-1.5
(Line Move)
X18.856 Y-11.051 Z-1.5
(Line Move)
X14.0738 Y-14.3573 Z-1.5
(Line Move)
X11.1476 Y-17.2182 Z-1.5
(Line Move)
X11.0666 Y-17.279 Z-1.5
(Line Move)
X10.9727 Y-17.3168 Z-1.5
(Line Move)
X10.8722 Y-17.3292 Z-1.5
(Line Move)
X10.772 Y-17.3153 Z-1.5
(Line Move)
X10.6787 Y-17.2761 Z-1.5
(Line Move)
X10.5986 Y-17.2141 Z-1.5
(Line Move)
X10.5372 Y-17.1336 Z-1.5
(Line Move)
X10.4987 Y-17.0399 Z-1.5
(Line Move)
X10.4855 Y-16.9396 Z-1.5
(Line Move)
X10.4861 Y-11.1113 Z-1.5
(Line Move)
X10.5031 Y-10.9822 Z-1.5
(Line Move)
X10.5528 Y-10.8619 Z-1.5
(Line Move)
X10.6319 Y-10.7585 Z-1.5
(Line Move)
X10.8179 Y-10.7521 Z-1.5
(Line Move)
X10.9607 Y-11.1024 Z-1.5
(Line Move)
X11.1206 Y-11.4697 Z-1.5
(Line Move)
X11.3579 Y-11.5143 Z-1.5
(Line Move)
X11.4604 Y-11.4347 Z-1.5
(Line Move)
X11.5799 Y-11.3842 Z-1.5
(Line Move)
X11.7083 Y-11.3662 Z-1.5
(Line Move)
X16.3491 Y-11.3213 Z-1.5
(Line Move)
X16.4137 Y-11.3289 Z-1.5
(Line Move)
X16.4743 Y-11.3526 Z-1.5
(Line Move)
X16.527 Y-11.3907 Z-1.5
(Line Move)
X16.5684 Y-11.4408 Z-1.5
(Line Move)
X16.5958 Y-11.4998 Z-1.5
(Line Move)
X16.6075 Y-11.5638 Z-1.5
(Line Move)
X16.6027 Y-11.6286 Z-1.5
(Line Move)
X16.5818 Y-11.6902 Z-1.5
(Line Move)
X16.546 Y-11.7445 Z-1.5
(Line Move)
X16.4977 Y-11.7881 Z-1.5
(Line Move)
X13.6615 Y-13.7566 Z-1.5
(Line Move)
X11.8803 Y-15.4795 Z-1.5
(Line Move)
X11.7983 Y-15.5403 Z-1.5
(Line Move)
X11.7035 Y-15.578 Z-1.5
(Line Move)
X11.6022 Y-15.5901 Z-1.5
(Line Move)
X11.5011 Y-15.5758 Z-1.5
(Line Move)
X11.4072 Y-15.5359 Z-1.5
(Line Move)
X11.3266 Y-15.4733 Z-1.5
(Line Move)
X11.2648 Y-15.392 Z-1.5
(Line Move)
X11.2261 Y-15.2976 Z-1.5
(Line Move)
X11.2128 Y-15.1964 Z-1.5
(Line Move)
X11.2132 Y-11.8661 Z-1.5
(Line Move)
X11.23 Y-11.7375 Z-1.5
(Line Move)
X11.2794 Y-11.6175 Z-1.5
(Line Move)
X11.3579 Y-11.5143 Z-1.5
(Line Move)
X11.543 Y-11.4968 Z-1.5
(Line Move)
X11.6846 Y-11.8234 Z-1.5
(Line Move)
X11.8437 Y-12.1674 Z-1.5
(Line Move)
X12.0811 Y-12.202 Z-1.5
(Line Move)
X12.1842 Y-12.1225 Z-1.5
(Line Move)
X12.3043 Y-12.0723 Z-1.5
(Line Move)
X12.4333 Y-12.0549 Z-1.5
(Line Move)
X13.9982 Y-12.0485 Z-1.5
(Line Move)
X14.0644 Y-12.0566 Z-1.5
(Line Move)
X14.1266 Y-12.0811 Z-1.5
(Line Move)
X14.1806 Y-12.1204 Z-1.5
(Line Move)
X14.223 Y-12.1719 Z-1.5
(Line Move)
X14.2512 Y-12.2324 Z-1.5
(Line Move)
X14.2634 Y-12.2981 Z-1.5
(Line Move)
X14.2587 Y-12.3647 Z-1.5
(Line Move)
X14.2375 Y-12.428 Z-1.5
(Line Move)
X14.2011 Y-12.484 Z-1.5
(Line Move)
X14.1519 Y-12.5291 Z-1.5
(Line Move)
X13.2546 Y-13.1631 Z-1.5
(Line Move)
X12.5949 Y-13.7838 Z-1.5
(Line Move)
X12.5131 Y-13.8428 Z-1.5
(Line Move)
X12.419 Y-13.8791 Z-1.5
(Line Move)
X12.3187 Y-13.89 Z-1.5
(Line Move)
X12.219 Y-13.875 Z-1.5
(Line Move)
X12.1264 Y-13.835 Z-1.5
(Line Move)
X12.0471 Y-13.7726 Z-1.5
(Line Move)
X11.9864 Y-13.6921 Z-1.5
(Line Move)
X11.9483 Y-13.5987 Z-1.5
(Line Move)
X11.9353 Y-13.4987 Z-1.5
(Line Move)
X11.9354 Y-12.5548 Z-1.5
(Line Move)
X11.9523 Y-12.4257 Z-1.5
(Line Move)
X12.002 Y-12.3054 Z-1.5
(Line Move)
X12.0811 Y-12.202 Z-1.5
(Line Move)
X12.2277 Y-12.1503 Z-1.5
(Line Move)
X12.2839 Y-12.401 Z-1.5
(Line Move)
X12.3574 Y-12.669 Z-1.5
(Line Move)
X12.5561 Y-12.6693 Z-1.5
(Line Move)
X12.6128 Y-12.6257 Z-1.5
(Line Move)
X12.6789 Y-12.5982 Z-1.5
(Line Move)
X12.7498 Y-12.5886 Z-1.5
(Line Move)
X12.7883 Y-12.5884 Z-1.5
(Line Move)
X12.8163 Y-12.5917 Z-1.5
(Line Move)
X12.8428 Y-12.6017 Z-1.5
(Line Move)
X12.8661 Y-12.6177 Z-1.5
(Line Move)
X12.8848 Y-12.6388 Z-1.5
(Line Move)
X12.898 Y-12.6638 Z-1.5
(Line Move)
X12.9047 Y-12.6912 Z-1.5
(Line Move)
X12.9047 Y-12.7195 Z-1.5
(Line Move)
X12.8978 Y-12.7469 Z-1.5
(Line Move)
X12.8846 Y-12.7719 Z-1.5
(Line Move)
X12.8658 Y-12.793 Z-1.5
(Line Move)
X12.68 Y-12.9561 Z-1.5
(Line Move)
X12.654 Y-12.9737 Z-1.5
(Line Move)
X12.6245 Y-12.9841 Z-1.5
(Line Move)
X12.5932 Y-12.9867 Z-1.5
(Line Move)
X12.5624 Y-12.9813 Z-1.5
(Line Move)
X12.5338 Y-12.9683 Z-1.5
(Line Move)
X12.5095 Y-12.9486 Z-1.5
(Line Move)
X12.4909 Y-12.9233 Z-1.5
(Line Move)
X12.4793 Y-12.8942 Z-1.5
(Line Move)
X12.4755 Y-12.8631 Z-1.5
(Line Move)
X12.485 Y-12.7922 Z-1.5
(Line Move)
X12.5125 Y-12.7261 Z-1.5
(Line Move)
X12.5561 Y-12.6693 Z-1.5
(Line Move)
X20.3104 Y-11.5726 Z-1.5
(Line Move)
X37.0717 Y-9.5091 Z-1.5
(Line Move)
X53.7726 Y-7.4263 Z-1.5
(Line Move)
X59.2669 Y-6.6737 Z-1.5
(Line Move)
X61.3458 Y-6.2716 Z-1.5
(Line Move)
X61.3453 Y-6.2569 Z-1.5
(Line Move)
X61.3484 Y-6.2425 Z-1.5
(Line Move)
X61.3549 Y-6.2294 Z-1.5
(Line Move)
X61.3645 Y-6.2182 Z-1.5
(Line Move)
X61.3764 Y-6.2097 Z-1.5
(Line Move)
X61.3901 Y-6.2043 Z-1.5
(Line Move)
X61.4047 Y-6.2025 Z-1.5
(Line Move)
X98.2903 Y-6.2012 Z-1.5
(Line Move)
X98.4016 Y-6.2138 Z-1.5
(Line Move)
X98.5073 Y-6.2508 Z-1.5
(Line Move)
X98.6021 Y-6.3103 Z-1.5
(Line Move)
X98.6813 Y-6.3895 Z-1.5
(Line Move)
X98.7409 Y-6.4843 Z-1.5
(Line Move)
X98.7778 Y-6.59 Z-1.5
(Line Move)
X98.7903 Y-6.7013 Z-1.5
(Line Move)
X98.7868 Y-33.0867 Z-1.5
(Line Move)
X98.783 Y-33.1159 Z-1.5
(Line Move)
X98.7719 Y-33.1433 Z-1.5
(Line Move)
X98.7542 Y-33.1669 Z-1.5
(Line Move)
X98.7312 Y-33.1852 Z-1.5
(Line Move)
X98.7042 Y-33.1971 Z-1.5
(Line Move)
X98.6751 Y-33.2017 Z-1.5
(Line Move)
X98.6457 Y-33.1988 Z-1.5
(Line Move)
X98.6181 Y-33.1886 Z-1.5
(Line Move)
X98.594 Y-33.1716 Z-1.5
(Line Move)
X98.5749 Y-33.1491 Z-1.5
(Line Move)
X98.5622 Y-33.1225 Z-1.5
(Line Move)
X97.311 Y-29.3022 Z-1.5
(Line Move)
X94.0592 Y-23.9393 Z-1.5
(Line Move)
X91.1375 Y-20.4454 Z-1.5
(Line Move)
X88.5175 Y-17.9271 Z-1.5
(Line Move)
X85.0161 Y-15.1774 Z-1.5
(Line Move)
X80.4344 Y-12.3668 Z-1.5
(Line Move)
X74.7824 Y-9.7609 Z-1.5
(Line Move)
X66.6142 Y-7.255 Z-1.5
(Line Move)
X61.3942 Y-6.3209 Z-1.5
(Line Move)
X61.3802 Y-6.3166 Z-1.5
(Line Move)
X61.3676 Y-6.3089 Z-1.5
(Line Move)
X61.3573 Y-6.2984 Z-1.5
(Line Move)
X61.3499 Y-6.2857 Z-1.5
(Line Move)
X61.3458 Y-6.2716 Z-1.5
(Line Move)
X61.5885 Y-6.1824 Z-1.5
(Line Move)
X62.3156 Y-6.2417 Z-1.5
(Line Move)
X64.5904 Y-6.6071 Z-1.5
(Line Move)
X66.9055 Y-6.9699 Z-1.5
(Line Move)
X67.6829 Y-7.0259 Z-1.5
(Line Move)
X67.9961 Y-6.9321 Z-1.5
(Line Move)
X68.0003 Y-6.9046 Z-1.5
(Line Move)
X68.0114 Y-6.879 Z-1.5
(Line Move)
X68.0286 Y-6.8572 Z-1.5
(Line Move)
X68.0509 Y-6.8405 Z-1.5
(Line Move)
X68.0767 Y-6.83 Z-1.5
(Line Move)
X68.1043 Y-6.8265 Z-1.5
(Line Move)
X97.6809 Y-6.8812 Z-1.5
(Line Move)
X97.8101 Y-6.8984 Z-1.5
(Line Move)
X97.9305 Y-6.9485 Z-1.5
(Line Move)
X98.0339 Y-7.028 Z-1.5
(Line Move)
X98.1132 Y-7.1315 Z-1.5
(Line Move)
X98.163 Y-7.252 Z-1.5
(Line Move)
X98.18 Y-7.3813 Z-1.5
(Line Move)
X98.177 Y-29.419 Z-1.5
(Line Move)
X98.1743 Y-29.4398 Z-1.5
(Line Move)
X98.1665 Y-29.4592 Z-1.5
(Line Move)
X98.154 Y-29.476 Z-1.5
(Line Move)
X98.1376 Y-29.4891 Z-1.5
(Line Move)
X98.1185 Y-29.4976 Z-1.5
(Line Move)
X98.0978 Y-29.501 Z-1.5
(Line Move)
X98.077 Y-29.4991 Z-1.5
(Line Move)
X98.0573 Y-29.492 Z-1.5
(Line Move)
X98.04 Y-29.4801 Z-1.5
(Line Move)
X98.0264 Y-29.4642 Z-1.5
(Line Move)
X98.0172 Y-29.4454 Z-1.5
(Line Move)
X97.8574 Y-28.9761 Z-1.5
(Line Move)
X94.5843 Y-23.6189 Z-1.5
(Line Move)
X91.6045 Y-20.0581 Z-1.5
(Line Move)
X88.9008 Y-17.4533 Z-1.5
(Line Move)
X85.3374 Y-14.6645 Z-1.5
(Line Move)
X80.6975 Y-11.8147 Z-1.5
(Line Move)
X74.967 Y-9.185 Z-1.5
(Line Move)
X68.072 Y-7.0377 Z-1.5
(Line Move)
X68.0467 Y-7.0261 Z-1.5
(Line Move)
X68.0252 Y-7.0084 Z-1.5
(Line Move)
X68.009 Y-6.9858 Z-1.5
(Line Move)
X67.999 Y-6.9598 Z-1.5
(Line Move)
X67.9961 Y-6.9321 Z-1.5
(Line Move)
X68.2244 Y-6.8479 Z-1.5
(Line Move)
X68.8603 Y-6.931 Z-1.5
(Line Move)
X70.8199 Y-7.3764 Z-1.5
(Line Move)
X72.8061 Y-7.8228 Z-1.5
(Line Move)
X73.4752 Y-7.9071 Z-1.5
(Line Move)
X73.7501 Y-7.8246 Z-1.5
(Line Move)
X73.7559 Y-7.7925 Z-1.5
(Line Move)
X73.7696 Y-7.7629 Z-1.5
(Line Move)
X73.7902 Y-7.7376 Z-1.5
(Line Move)
X73.8166 Y-7.7184 Z-1.5
(Line Move)
X73.8469 Y-7.7064 Z-1.5
(Line Move)
X73.8793 Y-7.7024 Z-1.5
(Line Move)
X96.8335 Y-7.8038 Z-1.5
(Line Move)
X96.9624 Y-7.8213 Z-1.5
(Line Move)
X97.0825 Y-7.8715 Z-1.5
(Line Move)
X97.1856 Y-7.951 Z-1.5
(Line Move)
X97.2647 Y-8.0544 Z-1.5
(Line Move)
X97.3143 Y-8.1748 Z-1.5
(Line Move)
X97.3313 Y-8.3038 Z-1.5
(Line Move)
X97.3289 Y-25.6593 Z-1.5
(Line Move)
X97.321 Y-25.7205 Z-1.5
(Line Move)
X97.2977 Y-25.7777 Z-1.5
(Line Move)
X97.2607 Y-25.8271 Z-1.5
(Line Move)
X97.2124 Y-25.8654 Z-1.5
(Line Move)
X97.1559 Y-25.8902 Z-1.5
(Line Move)
X97.0949 Y-25.8999 Z-1.5
(Line Move)
X97.0335 Y-25.8937 Z-1.5
(Line Move)
X96.9757 Y-25.872 Z-1.5
(Line Move)
X96.9252 Y-25.8364 Z-1.5
(Line Move)
X96.8855 Y-25.7892 Z-1.5
(Line Move)
X94.8154 Y-22.5607 Z-1.5
(Line Move)
X92.2492 Y-19.525 Z-1.5
(Line Move)
X89.4448 Y-16.8011 Z-1.5
(Line Move)
X85.7389 Y-13.8701 Z-1.5
(Line Move)
X81.0004 Y-10.9933 Z-1.5
(Line Move)
X76.5942 Y-8.9673 Z-1.5
(Line Move)
X73.8343 Y-7.9521 Z-1.5
(Line Move)
X73.8053 Y-7.937 Z-1.5
(Line Move)
X73.7811 Y-7.9152 Z-1.5
(Line Move)
X73.7631 Y-7.888 Z-1.5
(Line Move)
X73.7526 Y-7.8571 Z-1.5
(Line Move)
X73.7501 Y-7.8246 Z-1.5
(Line Move)
X73.8879 Y-7.7303 Z-1.5
(Line Move)
X74.2757 Y-7.7879 Z-1.5
(Line Move)
X75.4771 Y-8.1568 Z-1.5
(Line Move)
X76.7062 Y-8.5276 Z-1.5
(Line Move)
X77.1286 Y-8.5878 Z-1.5
(Line Move)
X77.315 Y-8.4971 Z-1.5
(Line Move)
X77.324 Y-8.4574 Z-1.5
(Line Move)
X77.3424 Y-8.421 Z-1.5
(Line Move)
X77.3691 Y-8.3903 Z-1.5
(Line Move)
X77.4026 Y-8.367 Z-1.5
(Line Move)
X77.4407 Y-8.3526 Z-1.5
(Line Move)
X77.4811 Y-8.3479 Z-1.5
(Line Move)
X96.2089 Y-8.5071 Z-1.5
(Line Move)
X96.3375 Y-8.525 Z-1.5
(Line Move)
X96.4572 Y-8.5755 Z-1.5
(Line Move)
X96.5598 Y-8.655 Z-1.5
(Line Move)
X96.6384 Y-8.7583 Z-1.5
(Line Move)
X96.6879 Y-8.8784 Z-1.5
(Line Move)
X96.7047 Y-9.0071 Z-1.5
(Line Move)
X96.7027 Y-23.5126 Z-1.5
(Line Move)
X96.6945 Y-23.5765 Z-1.5
(Line Move)
X96.6705 Y-23.6363 Z-1.5
(Line Move)
X96.6321 Y-23.6881 Z-1.5
(Line Move)
X96.5819 Y-23.7286 Z-1.5
(Line Move)
X96.5231 Y-23.7551 Z-1.5
(Line Move)
X96.4596 Y-23.7659 Z-1.5
(Line Move)
X96.3954 Y-23.7604 Z-1.5
(Line Move)
X96.3346 Y-23.7388 Z-1.5
(Line Move)
X96.2813 Y-23.7026 Z-1.5
(Line Move)
X96.2388 Y-23.6541 Z-1.5
(Line Move)
X94.9544 Y-21.7457 Z-1.5
(Line Move)
X92.5472 Y-18.8845 Z-1.5
(Line Move)
X89.8167 Y-16.2976 Z-1.5
(Line Move)
X86.1035 Y-13.407 Z-1.5
(Line Move)
X81.3115 Y-10.4809 Z-1.5
(Line Move)
X77.4098 Y-8.6635 Z-1.5
(Line Move)
X77.3753 Y-8.6419 Z-1.5
(Line Move)
X77.3471 Y-8.6125 Z-1.5
(Line Move)
X77.3269 Y-8.5771 Z-1.5
(Line Move)
X77.316 Y-8.5378 Z-1.5
(Line Move)
X77.315 Y-8.4971 Z-1.5
(Line Move)
X77.4502 Y-8.406 Z-1.5
(Line Move)
X77.8154 Y-8.4729 Z-1.5
(Line Move)
X78.937 Y-8.8705 Z-1.5
(Line Move)
X80.0833 Y-9.2708 Z-1.5
(Line Move)
X80.4791 Y-9.341 Z-1.5
(Line Move)
X80.6574 Y-9.2546 Z-1.5
(Line Move)
X80.6679 Y-9.2114 Z-1.5
(Line Move)
X80.6886 Y-9.172 Z-1.5
(Line Move)
X80.7181 Y-9.1388 Z-1.5
(Line Move)
X80.7548 Y-9.1137 Z-1.5
(Line Move)
X80.7965 Y-9.0982 Z-1.5
(Line Move)
X80.8406 Y-9.0932 Z-1.5
(Line Move)
X95.4922 Y-9.2177 Z-1.5
(Line Move)
X95.6208 Y-9.2356 Z-1.5
(Line Move)
X95.7404 Y-9.2861 Z-1.5
(Line Move)
X95.843 Y-9.3657 Z-1.5
(Line Move)
X95.9217 Y-9.4689 Z-1.5
(Line Move)
X95.9711 Y-9.589 Z-1.5
(Line Move)
X95.9879 Y-9.7177 Z-1.5
(Line Move)
X95.9864 Y-21.1212 Z-1.5
(Line Move)
X95.977 Y-21.1974 Z-1.5
(Line Move)
X95.9494 Y-21.269 Z-1.5
(Line Move)
X95.9052 Y-21.3318 Z-1.5
(Line Move)
X95.8471 Y-21.3819 Z-1.5
(Line Move)
X95.7786 Y-21.4165 Z-1.5
(Line Move)
X95.7037 Y-21.4334 Z-1.5
(Line Move)
X95.627 Y-21.4316 Z-1.5
(Line Move)
X95.553 Y-21.4112 Z-1.5
(Line Move)
X95.4862 Y-21.3735 Z-1.5
(Line Move)
X95.4305 Y-21.3206 Z-1.5
(Line Move)
X92.8341 Y-18.1685 Z-1.5
(Line Move)
X90.2681 Y-15.7374 Z-1.5
(Line Move)
X86.4809 Y-12.8039 Z-1.5
(Line Move)
X82.4095 Y-10.2816 Z-1.5
(Line Move)
X80.756 Y-9.4392 Z-1.5
(Line Move)
X80.7191 Y-9.4143 Z-1.5
(Line Move)
X80.6894 Y-9.3813 Z-1.5
(Line Move)
X80.6684 Y-9.3421 Z-1.5
(Line Move)
X80.6575 Y-9.299 Z-1.5
(Line Move)
X80.6574 Y-9.2546 Z-1.5
(Line Move)
X80.7618 Y-9.1607 Z-1.5
(Line Move)
X81.04 Y-9.2206 Z-1.5
(Line Move)
X81.8985 Y-9.5989 Z-1.5
(Line Move)
X82.7945 Y-9.9848 Z-1.5
(Line Move)
X83.1196 Y-10.0543 Z-1.5
(Line Move)
X83.2897 Y-9.9739 Z-1.5
(Line Move)
X83.3127 Y-9.9204 Z-1.5
(Line Move)
X83.3488 Y-9.8747 Z-1.5
(Line Move)
X83.3954 Y-9.8398 Z-1.5
(Line Move)
X83.4494 Y-9.818 Z-1.5
(Line Move)
X83.5072 Y-9.8109 Z-1.5
(Line Move)
X94.9037 Y-9.8883 Z-1.5
(Line Move)
X95.0324 Y-9.9061 Z-1.5
(Line Move)
X95.1523 Y-9.9565 Z-1.5
(Line Move)
X95.255 Y-10.036 Z-1.5
(Line Move)
X95.3339 Y-10.1393 Z-1.5
(Line Move)
X95.3834 Y-10.2595 Z-1.5
(Line Move)
X95.4003 Y-10.3884 Z-1.5
(Line Move)
X95.399 Y-19.4794 Z-1.5
(Line Move)
X95.3895 Y-19.5569 Z-1.5
(Line Move)
X95.3615 Y-19.6297 Z-1.5
(Line Move)
X95.3168 Y-19.6937 Z-1.5
(Line Move)
X95.2579 Y-19.7449 Z-1.5
(Line Move)
X95.1884 Y-19.7803 Z-1.5
(Line Move)
X95.1123 Y-19.7979 Z-1.5
(Line Move)
X95.0343 Y-19.7966 Z-1.5
(Line Move)
X94.9589 Y-19.7764 Z-1.5
(Line Move)
X94.8906 Y-19.7386 Z-1.5
(Line Move)
X94.8335 Y-19.6854 Z-1.5
(Line Move)
X93.0497 Y-17.5632 Z-1.5
(Line Move)
X90.6215 Y-15.2672 Z-1.5
(Line Move)
X87.0899 Y-12.4881 Z-1.5
(Line Move)
X83.3886 Y-10.2271 Z-1.5
(Line Move)
X83.3432 Y-10.1906 Z-1.5
(Line Move)
X83.3088 Y-10.1436 Z-1.5
(Line Move)
X83.2876 Y-10.0894 Z-1.5
(Line Move)
X83.2811 Y-10.0315 Z-1.5
(Line Move)
X83.2897 Y-9.9739 Z-1.5
(Line Move)
X83.4374 Y-9.8883 Z-1.5
(Line Move)
X83.783 Y-9.9664 Z-1.5
(Line Move)
X84.8123 Y-10.3981 Z-1.5
(Line Move)
X85.8669 Y-10.8372 Z-1.5
(Line Move)
X86.244 Y-10.9247 Z-1.5
(Line Move)
X86.4359 Y-10.8521 Z-1.5
(Line Move)
X86.461 Y-10.7971 Z-1.5
(Line Move)
X86.4994 Y-10.7503 Z-1.5
(Line Move)
X86.5485 Y-10.7149 Z-1.5
(Line Move)
X86.6049 Y-10.6931 Z-1.5
(Line Move)
X86.6651 Y-10.6865 Z-1.5
(Line Move)
X94.0139 Y-10.8312 Z-1.5
(Line Move)
X94.1414 Y-10.8503 Z-1.5
(Line Move)
X94.2597 Y-10.9014 Z-1.5
(Line Move)
X94.3611 Y-10.9811 Z-1.5
(Line Move)
X94.4387 Y-11.084 Z-1.5
(Line Move)
X94.4875 Y-11.2033 Z-1.5
(Line Move)
X94.5041 Y-11.3312 Z-1.5
(Line Move)
X94.5033 Y-17.0324 Z-1.5
(Line Move)
X94.4937 Y-17.1117 Z-1.5
(Line Move)
X94.4654 Y-17.1864 Z-1.5
(Line Move)
X94.4202 Y-17.2522 Z-1.5
(Line Move)
X94.3605 Y-17.3052 Z-1.5
(Line Move)
X94.2899 Y-17.3425 Z-1.5
(Line Move)
X94.2125 Y-17.3619 Z-1.5
(Line Move)
X94.1326 Y-17.3622 Z-1.5
(Line Move)
X94.055 Y-17.3434 Z-1.5
(Line Move)
X93.9841 Y-17.3067 Z-1.5
(Line Move)
X93.9241 Y-17.2541 Z-1.5
(Line Move)
X93.345 Y-16.6085 Z-1.5
(Line Move)
X91.197 Y-14.5793 Z-1.5
(Line Move)
X88.1365 Y-12.17 Z-1.5
(Line Move)
X86.5316 Y-11.1182 Z-1.5
(Line Move)
X86.4857 Y-11.0788 Z-1.5
(Line Move)
X86.4513 Y-11.029 Z-1.5
(Line Move)
X86.4308 Y-10.9721 Z-1.5
(Line Move)
X86.4256 Y-10.9118 Z-1.5
(Line Move)
X86.4359 Y-10.8521 Z-1.5
(Line Move)
X86.5586 Y-10.7634 Z-1.5
(Line Move)
X86.8314 Y-10.8322 Z-1.5
(Line Move)
X87.6355 Y-11.2351 Z-1.5
(Line Move)
X88.4657 Y-11.6467 Z-1.5
(Line Move)
X88.7712 Y-11.7262 Z-1.5
(Line Move)
X88.9397 Y-11.6526 Z-1.5
(Line Move)
X88.9714 Y-11.5894 Z-1.5
(Line Move)
X89.0178 Y-11.5361 Z-1.5
(Line Move)
X89.0759 Y-11.4959 Z-1.5
(Line Move)
X89.1421 Y-11.4714 Z-1.5
(Line Move)
X89.2123 Y-11.4639 Z-1.5
(Line Move)
X93.2867 Y-11.5441 Z-1.5
(Line Move)
X93.4142 Y-11.5633 Z-1.5
(Line Move)
X93.5325 Y-11.6144 Z-1.5
(Line Move)
X93.6339 Y-11.694 Z-1.5
(Line Move)
X93.7115 Y-11.7969 Z-1.5
(Line Move)
X93.7602 Y-11.9163 Z-1.5
(Line Move)
X93.7768 Y-12.0441 Z-1.5
(Line Move)
X93.7764 Y-15.0804 Z-1.5
(Line Move)
X93.763 Y-15.1836 Z-1.5
(Line Move)
X93.7236 Y-15.28 Z-1.5
(Line Move)
X93.661 Y-15.3631 Z-1.5
(Line Move)
X93.5791 Y-15.4273 Z-1.5
(Line Move)
X93.4836 Y-15.4686 Z-1.5
(Line Move)
X93.3806 Y-15.484 Z-1.5
(Line Move)
X93.2772 Y-15.4726 Z-1.5
(Line Move)
X93.1801 Y-15.4351 Z-1.5
(Line Move)
X93.0958 Y-15.3741 Z-1.5
(Line Move)
X91.6336 Y-13.9954 Z-1.5
(Line Move)
X89.0327 Y-11.9708 Z-1.5
(Line Move)
X88.9828 Y-11.9208 Z-1.5
(Line Move)
X88.9468 Y-11.86 Z-1.5
(Line Move)
X88.927 Y-11.7922 Z-1.5
(Line Move)
X88.9246 Y-11.7216 Z-1.5
(Line Move)
X88.9397 Y-11.6526 Z-1.5
(Line Move)
X89.055 Y-11.5656 Z-1.5
(Line Move)
X89.2945 Y-11.6366 Z-1.5
(Line Move)
X89.989 Y-12.0448 Z-1.5
(Line Move)
X90.7088 Y-12.4625 Z-1.5
(Line Move)
X90.98 Y-12.5454 Z-1.5
(Line Move)
X91.1397 Y-12.4752 Z-1.5
(Line Move)
X91.1738 Y-12.4137 Z-1.5
(Line Move)
X91.2221 Y-12.3625 Z-1.5
(Line Move)
X91.2815 Y-12.3248 Z-1.5
(Line Move)
X91.3484 Y-12.303 Z-1.5
(Line Move)
X91.4187 Y-12.2985 Z-1.5
(Line Move)
X92.5849 Y-12.3696 Z-1.5
(Line Move)
X92.7082 Y-12.3929 Z-1.5
(Line Move)
X92.8218 Y-12.4462 Z-1.5
(Line Move)
X92.9186 Y-12.526 Z-1.5
(Line Move)
X92.9925 Y-12.6275 Z-1.5
(Line Move)
X93.0387 Y-12.7442 Z-1.5
(Line Move)
X93.0544 Y-12.8687 Z-1.5
(Line Move)
X93.0544 Y-13.378 Z-1.5
(Line Move)
X93.0402 Y-13.4899 Z-1.5
(Line Move)
X92.9985 Y-13.5947 Z-1.5
(Line Move)
X92.9319 Y-13.6858 Z-1.5
(Line Move)
X92.8447 Y-13.7574 Z-1.5
(Line Move)
X92.7424 Y-13.805 Z-1.5
(Line Move)
X92.6314 Y-13.8255 Z-1.5
(Line Move)
X92.5188 Y-13.8177 Z-1.5
(Line Move)
X92.4118 Y-13.782 Z-1.5
(Line Move)
X92.3171 Y-13.7207 Z-1.5
(Line Move)
X91.2198 Y-12.7956 Z-1.5
(Line Move)
X91.172 Y-12.7439 Z-1.5
(Line Move)
X91.1386 Y-12.6819 Z-1.5
(Line Move)
X91.1215 Y-12.6137 Z-1.5
(Line Move)
X91.1219 Y-12.5433 Z-1.5
(Line Move)
X91.1397 Y-12.4752 Z-1.5
(Line Move)
X91.2135 Y-12.3722 Z-1.5
(Line Move)
X91.3314 Y-12.3978 Z-1.5
(Line Move)
X91.6475 Y-12.6662 Z-1.5
(Line Move)
X91.9841 Y-12.9426 Z-1.5
(Line Move)
X92.2374 Y-12.8894 Z-1.5
(Line Move)
X92.2459 Y-12.8735 Z-1.5
(Line Move)
X92.2581 Y-12.8601 Z-1.5
(Line Move)
X92.2731 Y-12.8502 Z-1.5
(Line Move)
X92.2902 Y-12.8442 Z-1.5
(Line Move)
X92.3081 Y-12.8426 Z-1.5
(Line Move)
X92.5195 Y-12.8499 Z-1.5
(Line Move)
X92.5194 Y-13.0207 Z-1.5
(Line Move)
X92.5169 Y-13.0405 Z-1.5
(Line Move)
X92.5095 Y-13.0591 Z-1.5
(Line Move)
X92.4977 Y-13.0753 Z-1.5
(Line Move)
X92.4823 Y-13.0879 Z-1.5
(Line Move)
X92.4642 Y-13.0964 Z-1.5
(Line Move)
X92.4445 Y-13.1 Z-1.5
(Line Move)
X92.4246 Y-13.0986 Z-1.5
(Line Move)
X92.4056 Y-13.0923 Z-1.5
(Line Move)
X92.3888 Y-13.0814 Z-1.5
(Line Move)
X92.2585 Y-12.9715 Z-1.5
(Line Move)
X92.2462 Y-12.9583 Z-1.5
(Line Move)
X92.2376 Y-12.9424 Z-1.5
(Line Move)
X92.2331 Y-12.9249 Z-1.5
(Line Move)
X92.233 Y-12.9069 Z-1.5
(Line Move)
X92.2374 Y-12.8894 Z-1.5
(Line Move)
X92.5277 Y-14.2679 Z-1.5
(Line Move)
X93.2221 Y-18.2034 Z-1.5
(Line Move)
X95.3079 Y-30.3628 Z-1.5
(Line Move)
X97.4642 Y-42.6021 Z-1.5
(Line Move)
X98.2467 Y-46.6373 Z-1.5
(Line Move)
X98.6602 Y-48.1554 Z-1.5
(Line Move)
X98.6859 Y-48.1523 Z-1.5
(Line Move)
X98.7115 Y-48.1559 Z-1.5
(Line Move)
X98.7354 Y-48.166 Z-1.5
(Line Move)
X98.7558 Y-48.1818 Z-1.5
(Line Move)
X98.7715 Y-48.2025 Z-1.5
(Line Move)
X98.7813 Y-48.2264 Z-1.5
(Line Move)
X98.7847 Y-48.2521 Z-1.5
(Line Move)
X98.7812 Y-74.1865 Z-1.5
(Line Move)
X98.7641 Y-74.3159 Z-1.5
(Line Move)
X98.7142 Y-74.4364 Z-1.5
(Line Move)
X98.6348 Y-74.5399 Z-1.5
(Line Move)
X98.5313 Y-74.6194 Z-1.5
(Line Move)
X98.4107 Y-74.6693 Z-1.5
(Line Move)
X98.2814 Y-74.6864 Z-1.5
(Line Move)
X61.2475 Y-74.7028 Z-1.5
(Line Move)
X61.2342 Y-74.7011 Z-1.5
(Line Move)
X61.2217 Y-74.6963 Z-1.5
(Line Move)
X61.2108 Y-74.6884 Z-1.5
(Line Move)
X61.2021 Y-74.6782 Z-1.5
(Line Move)
X61.1962 Y-74.6661 Z-1.5
(Line Move)
X61.1934 Y-74.653 Z-1.5
(Line Move)
X61.194 Y-74.6395 Z-1.5
(Line Move)
X61.1979 Y-74.6267 Z-1.5
(Line Move)
X61.2048 Y-74.6151 Z-1.5
(Line Move)
X61.2143 Y-74.6056 Z-1.5
(Line Move)
X61.2258 Y-74.5988 Z-1.5
(Line Move)
X61.2387 Y-74.595 Z-1.5
(Line Move)
X66.3957 Y-73.748 Z-1.5
(Line Move)
X73.2276 Y-71.6837 Z-1.5
(Line Move)
X77.9889 Y-69.7544 Z-1.5
(Line Move)
X81.5883 Y-67.9141 Z-1.5
(Line Move)
X84.1514 Y-66.3165 Z-1.5
(Line Move)
X87.7279 Y-63.7743 Z-1.5
(Line Move)
X90.2951 Y-61.4178 Z-1.5
(Line Move)
X92.8346 Y-58.5754 Z-1.5
(Line Move)
X95.6002 Y-54.764 Z-1.5
(Line Move)
X98.1745 Y-49.6644 Z-1.5
(Line Move)
X98.589 Y-48.2244 Z-1.5
(Line Move)
X98.5993 Y-48.2007 Z-1.5
(Line Move)
X98.6154 Y-48.1804 Z-1.5
(Line Move)
X98.6362 Y-48.165 Z-1.5
(Line Move)
X98.6602 Y-48.1554 Z-1.5
(Line Move)
X98.7455 Y-48.2481 Z-1.5
(Line Move)
X98.6857 Y-48.6091 Z-1.5
(Line Move)
X98.3254 Y-49.7969 Z-1.5
(Line Move)
X97.9692 Y-51.0416 Z-1.5
(Line Move)
X97.9144 Y-51.4736 Z-1.5
(Line Move)
X98.0068 Y-51.6658 Z-1.5
(Line Move)
X98.0512 Y-51.6765 Z-1.5
(Line Move)
X98.0918 Y-51.6976 Z-1.5
(Line Move)
X98.126 Y-51.7278 Z-1.5
(Line Move)
X98.1521 Y-51.7654 Z-1.5
(Line Move)
X98.1683 Y-51.8081 Z-1.5
(Line Move)
X98.1738 Y-51.8534 Z-1.5
(Line Move)
X98.1705 Y-73.5761 Z-1.5
(Line Move)
X98.1534 Y-73.7055 Z-1.5
(Line Move)
X98.1035 Y-73.826 Z-1.5
(Line Move)
X98.024 Y-73.9296 Z-1.5
(Line Move)
X97.9205 Y-74.009 Z-1.5
(Line Move)
X97.7999 Y-74.059 Z-1.5
(Line Move)
X97.6705 Y-74.076 Z-1.5
(Line Move)
X68.1949 Y-74.0783 Z-1.5
(Line Move)
X68.1676 Y-74.0747 Z-1.5
(Line Move)
X68.1421 Y-74.0643 Z-1.5
(Line Move)
X68.1201 Y-74.0477 Z-1.5
(Line Move)
X68.1031 Y-74.0261 Z-1.5
(Line Move)
X68.0922 Y-74.0008 Z-1.5
(Line Move)
X68.0881 Y-73.9735 Z-1.5
(Line Move)
X68.0912 Y-73.9462 Z-1.5
(Line Move)
X68.1011 Y-73.9205 Z-1.5
(Line Move)
X68.1172 Y-73.8982 Z-1.5
(Line Move)
X68.1386 Y-73.8808 Z-1.5
(Line Move)
X68.1636 Y-73.8694 Z-1.5
(Line Move)
X73.4027 Y-72.2656 Z-1.5
(Line Move)
X78.2145 Y-70.3082 Z-1.5
(Line Move)
X81.8639 Y-68.4472 Z-1.5
(Line Move)
X84.7362 Y-66.6511 Z-1.5
(Line Move)
X88.0903 Y-64.289 Z-1.5
(Line Move)
X90.7417 Y-61.8272 Z-1.5
(Line Move)
X93.3235 Y-58.9349 Z-1.5
(Line Move)
X96.1335 Y-55.044 Z-1.5
(Line Move)
X97.8169 Y-51.7671 Z-1.5
(Line Move)
X97.8425 Y-51.7292 Z-1.5
(Line Move)
X97.8765 Y-51.6987 Z-1.5
(Line Move)
X97.9168 Y-51.6772 Z-1.5
(Line Move)
X97.9611 Y-51.666 Z-1.5
(Line Move)
X98.0068 Y-51.6658 Z-1.5
(Line Move)
X98.0945 Y-51.8095 Z-1.5
(Line Move)
X98.0186 Y-52.1917 Z-1.5
(Line Move)
X97.5911 Y-53.3667 Z-1.5
(Line Move)
X97.1552 Y-54.581 Z-1.5
(Line Move)
X97.0687 Y-55.0124 Z-1.5
(Line Move)
X97.1417 Y-55.2249 Z-1.5
(Line Move)
X97.2011 Y-55.252 Z-1.5
(Line Move)
X97.2519 Y-55.2932 Z-1.5
(Line Move)
X97.2906 Y-55.3457 Z-1.5
(Line Move)
X97.3149 Y-55.4064 Z-1.5
(Line Move)
X97.3231 Y-55.4712 Z-1.5
(Line Move)
X97.3143 Y-72.7277 Z-1.5
(Line Move)
X97.2972 Y-72.8571 Z-1.5
(Line Move)
X97.2472 Y-72.9776 Z-1.5
(Line Move)
X97.1678 Y-73.0811 Z-1.5
(Line Move)
X97.0643 Y-73.1605 Z-1.5
(Line Move)
X96.9437 Y-73.2104 Z-1.5
(Line Move)
X96.8143 Y-73.2275 Z-1.5
(Line Move)
X73.9986 Y-73.2292 Z-1.5
(Line Move)
X73.9616 Y-73.2246 Z-1.5
(Line Move)
X73.9268 Y-73.2109 Z-1.5
(Line Move)
X73.8965 Y-73.1891 Z-1.5
(Line Move)
X73.8725 Y-73.1604 Z-1.5
(Line Move)
X73.8564 Y-73.1268 Z-1.5
(Line Move)
X73.849 Y-73.0901 Z-1.5
(Line Move)
X73.851 Y-73.0528 Z-1.5
(Line Move)
X73.8621 Y-73.0172 Z-1.5
(Line Move)
X73.8817 Y-72.9854 Z-1.5
(Line Move)
X73.9085 Y-72.9594 Z-1.5
(Line Move)
X73.9409 Y-72.9409 Z-1.5
(Line Move)
X79.5829 Y-70.5907 Z-1.5
(Line Move)
X82.8976 Y-68.8112 Z-1.5
(Line Move)
X88.5789 Y-64.9828 Z-1.5
(Line Move)
X91.227 Y-62.519 Z-1.5
(Line Move)
X94.0176 Y-59.4712 Z-1.5
(Line Move)
X96.8529 Y-55.3256 Z-1.5
(Line Move)
X96.8963 Y-55.2768 Z-1.5
(Line Move)
X96.9506 Y-55.2405 Z-1.5
(Line Move)
X97.0123 Y-55.219 Z-1.5
(Line Move)
X97.0774 Y-55.2137 Z-1.5
(Line Move)
X97.1417 Y-55.2249 Z-1.5
(Line Move)
X97.237 Y-55.3347 Z-1.5
(Line Move)
X97.1858 Y-55.5724 Z-1.5
(Line Move)
X96.8366 Y-56.269 Z-1.5
(Line Move)
X96.4797 Y-56.9896 Z-1.5
(Line Move)
X96.4189 Y-57.2573 Z-1.5
(Line Move)
X96.5009 Y-57.4092 Z-1.5
(Line Move)
X96.5636 Y-57.439 Z-1.5
(Line Move)
X96.6169 Y-57.4834 Z-1.5
(Line Move)
X96.6575 Y-57.5396 Z-1.5
(Line Move)
X96.6829 Y-57.6042 Z-1.5
(Line Move)
X96.6914 Y-57.673 Z-1.5
(Line Move)
X96.6646 Y-72.102 Z-1.5
(Line Move)
X96.6474 Y-72.2312 Z-1.5
(Line Move)
X96.5973 Y-72.3516 Z-1.5
(Line Move)
X96.5179 Y-72.4549 Z-1.5
(Line Move)
X96.4144 Y-72.5342 Z-1.5
(Line Move)
X96.2939 Y-72.5841 Z-1.5
(Line Move)
X96.1647 Y-72.6011 Z-1.5
(Line Move)
X77.1323 Y-72.6025 Z-1.5
(Line Move)
X77.0952 Y-72.5979 Z-1.5
(Line Move)
X77.0605 Y-72.5842 Z-1.5
(Line Move)
X77.0302 Y-72.5624 Z-1.5
(Line Move)
X77.0062 Y-72.5337 Z-1.5
(Line Move)
X76.99 Y-72.5001 Z-1.5
(Line Move)
X76.9827 Y-72.4634 Z-1.5
(Line Move)
X76.9847 Y-72.4261 Z-1.5
(Line Move)
X76.9958 Y-72.3905 Z-1.5
(Line Move)
X77.0154 Y-72.3587 Z-1.5
(Line Move)
X77.0422 Y-72.3327 Z-1.5
(Line Move)
X77.0746 Y-72.3142 Z-1.5
(Line Move)
X79.8238 Y-71.169 Z-1.5
(Line Move)
X83.6679 Y-69.0475 Z-1.5
(Line Move)
X88.9146 Y-65.4808 Z-1.5
(Line Move)
X91.7107 Y-62.9276 Z-1.5
(Line Move)
X94.2538 Y-60.1451 Z-1.5
(Line Move)
X96.1909 Y-57.5084 Z-1.5
(Line Move)
X96.2387 Y-57.4581 Z-1.5
(Line Move)
X96.2974 Y-57.4212 Z-1.5
(Line Move)
X96.3635 Y-57.4001 Z-1.5
(Line Move)
X96.4328 Y-57.396 Z-1.5
(Line Move)
X96.5009 Y-57.4092 Z-1.5
(Line Move)
X96.5919 Y-57.522 Z-1.5
(Line Move)
X96.5302 Y-57.7618 Z-1.5
(Line Move)
X96.1499 Y-58.4607 Z-1.5
(Line Move)
X95.7618 Y-59.1829 Z-1.5
(Line Move)
X95.6904 Y-59.4518 Z-1.5
(Line Move)
X95.7678 Y-59.6053 Z-1.5
(Line Move)
X95.8324 Y-59.6369 Z-1.5
(Line Move)
X95.8873 Y-59.6834 Z-1.5
(Line Move)
X95.929 Y-59.742 Z-1.5
(Line Move)
X95.955 Y-59.8091 Z-1.5
(Line Move)
X95.9636 Y-59.8806 Z-1.5
(Line Move)
X95.9156 Y-71.3848 Z-1.5
(Line Move)
X95.898 Y-71.5141 Z-1.5
(Line Move)
X95.8476 Y-71.6344 Z-1.5
(Line Move)
X95.7678 Y-71.7376 Z-1.5
(Line Move)
X95.664 Y-71.8166 Z-1.5
(Line Move)
X95.5433 Y-71.8661 Z-1.5
(Line Move)
X95.4139 Y-71.8827 Z-1.5
(Line Move)
X80.8986 Y-71.8333 Z-1.5
(Line Move)
X80.8486 Y-71.8271 Z-1.5
(Line Move)
X80.8014 Y-71.8093 Z-1.5
(Line Move)
X80.7598 Y-71.7809 Z-1.5
(Line Move)
X80.7262 Y-71.7434 Z-1.5
(Line Move)
X80.7023 Y-71.6991 Z-1.5
(Line Move)
X80.6895 Y-71.6503 Z-1.5
(Line Move)
X80.6887 Y-71.5999 Z-1.5
(Line Move)
X80.6997 Y-71.5508 Z-1.5
(Line Move)
X80.7221 Y-71.5056 Z-1.5
(Line Move)
X80.7545 Y-71.467 Z-1.5
(Line Move)
X80.7951 Y-71.4372 Z-1.5
(Line Move)
X84.5794 Y-69.2975 Z-1.5
(Line Move)
X89.3295 Y-66.0966 Z-1.5
(Line Move)
X92.1069 Y-63.5715 Z-1.5
(Line Move)
X94.4224 Y-61.0298 Z-1.5
(Line Move)
X95.4443 Y-59.7026 Z-1.5
(Line Move)
X95.4949 Y-59.6515 Z-1.5
(Line Move)
X95.5566 Y-59.6144 Z-1.5
(Line Move)
X95.6255 Y-59.5937 Z-1.5
(Line Move)
X95.6974 Y-59.5906 Z-1.5
(Line Move)
X95.7678 Y-59.6053 Z-1.5
(Line Move)
X95.8633 Y-59.6996 Z-1.5
(Line Move)
X95.8144 Y-59.8869 Z-1.5
(Line Move)
X95.473 Y-60.4247 Z-1.5
(Line Move)
X95.1224 Y-60.9874 Z-1.5
(Line Move)
X95.0622 Y-61.2059 Z-1.5
(Line Move)
X95.1419 Y-61.344 Z-1.5
(Line Move)
X95.2132 Y-61.382 Z-1.5
(Line Move)
X95.2732 Y-61.436 Z-1.5
(Line Move)
X95.3186 Y-61.5028 Z-1.5
(Line Move)
X95.3466 Y-61.5785 Z-1.5
(Line Move)
X95.3556 Y-61.6588 Z-1.5
(Line Move)
X95.2724 Y-70.8015 Z-1.5
(Line Move)
X95.2543 Y-70.93 Z-1.5
(Line Move)
X95.2039 Y-71.0496 Z-1.5
(Line Move)
X95.1243 Y-71.1521 Z-1.5
(Line Move)
X95.0211 Y-71.2307 Z-1.5
(Line Move)
X94.9011 Y-71.2801 Z-1.5
(Line Move)
X94.7724 Y-71.2969 Z-1.5
(Line Move)
X83.0169 Y-71.2978 Z-1.5
(Line Move)
X82.9613 Y-71.2905 Z-1.5
(Line Move)
X82.9094 Y-71.2691 Z-1.5
(Line Move)
X82.8649 Y-71.2349 Z-1.5
(Line Move)
X82.8307 Y-71.1904 Z-1.5
(Line Move)
X82.8092 Y-71.1385 Z-1.5
(Line Move)
X82.8018 Y-71.0829 Z-1.5
(Line Move)
X82.8091 Y-71.0272 Z-1.5
(Line Move)
X82.8306 Y-70.9754 Z-1.5
(Line Move)
X82.8647 Y-70.9308 Z-1.5
(Line Move)
X82.9092 Y-70.8966 Z-1.5
(Line Move)
X85.3637 Y-69.4775 Z-1.5
(Line Move)
X89.6578 Y-66.5839 Z-1.5
(Line Move)
X92.3606 Y-64.1349 Z-1.5
(Line Move)
X94.7721 Y-61.4332 Z-1.5
(Line Move)
X94.8327 Y-61.3799 Z-1.5
(Line Move)
X94.9044 Y-61.3427 Z-1.5
(Line Move)
X94.9829 Y-61.3238 Z-1.5
(Line Move)
X95.0636 Y-61.3242 Z-1.5
(Line Move)
X95.1419 Y-61.344 Z-1.5
(Line Move)
X95.2226 Y-61.4721 Z-1.5
(Line Move)
X95.1374 Y-61.7357 Z-1.5
(Line Move)
X94.6878 Y-62.4958 Z-1.5
(Line Move)
X94.2295 Y-63.278 Z-1.5
(Line Move)
X94.1335 Y-63.5691 Z-1.5
(Line Move)
X94.199 Y-63.7359 Z-1.5
(Line Move)
X94.2708 Y-63.7752 Z-1.5
(Line Move)
X94.3311 Y-63.8306 Z-1.5
(Line Move)
X94.3765 Y-63.8988 Z-1.5
(Line Move)
X94.4042 Y-63.9758 Z-1.5
(Line Move)
X94.4127 Y-64.0572 Z-1.5
(Line Move)
X94.3151 Y-69.9093 Z-1.5
(Line Move)
X94.2963 Y-70.037 Z-1.5
(Line Move)
X94.2454 Y-70.1557 Z-1.5
(Line Move)
X94.1658 Y-70.2574 Z-1.5
(Line Move)
X94.0628 Y-70.3353 Z-1.5
(Line Move)
X93.9433 Y-70.3842 Z-1.5
(Line Move)
X93.8152 Y-70.4009 Z-1.5
(Line Move)
X86.3848 Y-70.4015 Z-1.5
(Line Move)
X86.3214 Y-70.3934 Z-1.5
(Line Move)
X86.262 Y-70.3694 Z-1.5
(Line Move)
X86.2106 Y-70.3313 Z-1.5
(Line Move)
X86.1705 Y-70.2814 Z-1.5
(Line Move)
X86.1442 Y-70.2231 Z-1.5
(Line Move)
X86.1336 Y-70.1599 Z-1.5
(Line Move)
X86.1393 Y-70.0962 Z-1.5
(Line Move)
X86.1608 Y-70.0359 Z-1.5
(Line Move)
X86.1969 Y-69.9831 Z-1.5
(Line Move)
X86.2452 Y-69.941 Z-1.5
(Line Move)
X90.1586 Y-67.327 Z-1.5
(Line Move)
X92.7122 Y-65.0256 Z-1.5
(Line Move)
X93.8226 Y-63.8211 Z-1.5
(Line Move)
X93.885 Y-63.768 Z-1.5
(Line Move)
X93.9582 Y-63.7314 Z-1.5
(Line Move)
X94.038 Y-63.7133 Z-1.5
(Line Move)
X94.1199 Y-63.7148 Z-1.5
(Line Move)
X94.199 Y-63.7359 Z-1.5
(Line Move)
X94.2833 Y-63.8445 Z-1.5
(Line Move)
X94.2087 Y-64.0528 Z-1.5
(Line Move)
X93.793 Y-64.6402 Z-1.5
(Line Move)
X93.3721 Y-65.2421 Z-1.5
(Line Move)
X93.2911 Y-65.4685 Z-1.5
(Line Move)
X93.3662 Y-65.6026 Z-1.5
(Line Move)
X93.4613 Y-65.6457 Z-1.5
(Line Move)
X93.5422 Y-65.7115 Z-1.5
(Line Move)
X93.6036 Y-65.7959 Z-1.5
(Line Move)
X93.6414 Y-65.8931 Z-1.5
(Line Move)
X93.6531 Y-65.9968 Z-1.5
(Line Move)
X93.6 Y-69.1822 Z-1.5
(Line Move)
X93.5812 Y-69.31 Z-1.5
(Line Move)
X93.5303 Y-69.4287 Z-1.5
(Line Move)
X93.4507 Y-69.5303 Z-1.5
(Line Move)
X93.3477 Y-69.6082 Z-1.5
(Line Move)
X93.2282 Y-69.6572 Z-1.5
(Line Move)
X93.1001 Y-69.6739 Z-1.5
(Line Move)
X88.7878 Y-69.6742 Z-1.5
(Line Move)
X88.7229 Y-69.6659 Z-1.5
(Line Move)
X88.6621 Y-69.6416 Z-1.5
(Line Move)
X88.6094 Y-69.6027 Z-1.5
(Line Move)
X88.5682 Y-69.5519 Z-1.5
(Line Move)
X88.5411 Y-69.4923 Z-1.5
(Line Move)
X88.5298 Y-69.4279 Z-1.5
(Line Move)
X88.5351 Y-69.3626 Z-1.5
(Line Move)
X88.5566 Y-69.3008 Z-1.5
(Line Move)
X88.593 Y-69.2464 Z-1.5
(Line Move)
X88.6418 Y-69.2029 Z-1.5
(Line Move)
X90.5422 Y-67.9012 Z-1.5
(Line Move)
X92.9758 Y-65.6903 Z-1.5
(Line Move)
X93.0614 Y-65.6307 Z-1.5
(Line Move)
X93.1594 Y-65.5949 Z-1.5
(Line Move)
X93.2633 Y-65.5853 Z-1.5
(Line Move)
X93.3662 Y-65.6026 Z-1.5
(Line Move)
X93.4566 Y-65.6896 Z-1.5
(Line Move)
X93.3918 Y-65.8689 Z-1.5
(Line Move)
X93.0013 Y-66.3898 Z-1.5
(Line Move)
X92.6033 Y-66.9351 Z-1.5
(Line Move)
X92.529 Y-67.1448 Z-1.5
(Line Move)
X92.606 Y-67.2743 Z-1.5
(Line Move)
X92.7045 Y-67.3206 Z-1.5
(Line Move)
X92.7882 Y-67.3903 Z-1.5
(Line Move)
X92.8515 Y-67.4788 Z-1.5
(Line Move)
X92.8905 Y-67.5805 Z-1.5
(Line Move)
X92.9025 Y-67.6887 Z-1.5
(Line Move)
X92.8897 Y-68.46 Z-1.5
(Line Move)
X92.8709 Y-68.5877 Z-1.5
(Line Move)
X92.82 Y-68.7064 Z-1.5
(Line Move)
X92.7404 Y-68.8081 Z-1.5
(Line Move)
X92.6374 Y-68.886 Z-1.5
(Line Move)
X92.5178 Y-68.935 Z-1.5
(Line Move)
X92.3898 Y-68.9516 Z-1.5
(Line Move)
X91.2187 Y-68.9517 Z-1.5
(Line Move)
X91.14 Y-68.9421 Z-1.5
(Line Move)
X91.066 Y-68.9138 Z-1.5
(Line Move)
X91.0009 Y-68.8685 Z-1.5
(Line Move)
X90.9486 Y-68.8089 Z-1.5
(Line Move)
X90.9123 Y-68.7384 Z-1.5
(Line Move)
X90.894 Y-68.6612 Z-1.5
(Line Move)
X90.8949 Y-68.582 Z-1.5
(Line Move)
X90.9148 Y-68.5052 Z-1.5
(Line Move)
X90.9526 Y-68.4355 Z-1.5
(Line Move)
X91.0061 Y-68.377 Z-1.5
(Line Move)
X92.1963 Y-67.3567 Z-1.5
(Line Move)
X92.2873 Y-67.2969 Z-1.5
(Line Move)
X92.3904 Y-67.2621 Z-1.5
(Line Move)
X92.499 Y-67.2544 Z-1.5
(Line Move)
X92.606 Y-67.2743 Z-1.5
(Line Move)
X92.6991 Y-67.4056 Z-1.5
(Line Move)
X92.4585 Y-67.6211 Z-1.5
(Line Move)
X92.2106 Y-67.8593 Z-1.5
(Line Move)
X92.2817 Y-68.0587 Z-1.5
(Line Move)
X92.3076 Y-68.0708 Z-1.5
(Line Move)
X92.3295 Y-68.0891 Z-1.5
(Line Move)
X92.3461 Y-68.1123 Z-1.5
(Line Move)
X92.3563 Y-68.1389 Z-1.5
(Line Move)
X92.3595 Y-68.1673 Z-1.5
(Line Move)
X92.3499 Y-68.2321 Z-1.5
(Line Move)
X92.3241 Y-68.2923 Z-1.5
(Line Move)
X92.2837 Y-68.3439 Z-1.5
(Line Move)
X92.2315 Y-68.3834 Z-1.5
(Line Move)
X92.1709 Y-68.4082 Z-1.5
(Line Move)
X92.1059 Y-68.4167 Z-1.5
(Line Move)
X92.0686 Y-68.4167 Z-1.5
(Line Move)
X92.043 Y-68.4135 Z-1.5
(Line Move)
X92.019 Y-68.4044 Z-1.5
(Line Move)
X91.9978 Y-68.3896 Z-1.5
(Line Move)
X91.9809 Y-68.3703 Z-1.5
(Line Move)
X91.9691 Y-68.3474 Z-1.5
(Line Move)
X91.9631 Y-68.3224 Z-1.5
(Line Move)
X91.9634 Y-68.2966 Z-1.5
(Line Move)
X91.9699 Y-68.2717 Z-1.5
(Line Move)
X91.9822 Y-68.2491 Z-1.5
(Line Move)
X91.9995 Y-68.2301 Z-1.5
(Line Move)
X92.1743 Y-68.0803 Z-1.5
(Line Move)
X92.1982 Y-68.0646 Z-1.5
(Line Move)
X92.2252 Y-68.0554 Z-1.5
(Line Move)
X92.2537 Y-68.0534 Z-1.5
(Line Move)
X92.2817 Y-68.0587 Z-1.5
(Line Move)
X90.3104 Y-68.3468 Z-1.5
(Line Move)
X84.8075 Y-69.0538 Z-1.5
(Line Move)
X67.8856 Y-71.1913 Z-1.5
(Line Move)
X50.8734 Y-73.4053 Z-1.5
(Line Move)
X45.2575 Y-74.208 Z-1.5
(Line Move)
X43.1281 Y-74.6301 Z-1.5
(Line Move)
X43.1284 Y-74.6474 Z-1.5
(Line Move)
X43.1246 Y-74.6642 Z-1.5
(Line Move)
X43.1168 Y-74.6796 Z-1.5
(Line Move)
X43.1055 Y-74.6926 Z-1.5
(Line Move)
X43.0913 Y-74.7025 Z-1.5
(Line Move)
X43.0752 Y-74.7087 Z-1.5
(Line Move)
X43.0581 Y-74.7108 Z-1.5
(Line Move)
X6.6945 Y-74.7269 Z-1.5
(Line Move)
X6.5832 Y-74.7144 Z-1.5
(Line Move)
X6.4774 Y-74.6774 Z-1.5
(Line Move)
X6.3826 Y-74.6179 Z-1.5
(Line Move)
X6.3034 Y-74.5387 Z-1.5
(Line Move)
X6.2438 Y-74.4439 Z-1.5
(Line Move)
X6.2068 Y-74.3381 Z-1.5
(Line Move)
X6.1943 Y-74.2268 Z-1.5
(Line Move)
X6.1968 Y-48.1512 Z-1.5
(Line Move)
X6.2006 Y-48.1219 Z-1.5
(Line Move)
X6.2117 Y-48.0946 Z-1.5
(Line Move)
X6.2294 Y-48.0709 Z-1.5
(Line Move)
X6.2525 Y-48.0525 Z-1.5
(Line Move)
X6.2795 Y-48.0406 Z-1.5
(Line Move)
X6.3087 Y-48.0359 Z-1.5
(Line Move)
X6.3381 Y-48.0388 Z-1.5
(Line Move)
X6.3658 Y-48.0491 Z-1.5
(Line Move)
X6.3899 Y-48.0661 Z-1.5
(Line Move)
X6.409 Y-48.0886 Z-1.5
(Line Move)
X6.4217 Y-48.1153 Z-1.5
(Line Move)
X7.0125 Y-49.9155 Z-1.5
(Line Move)
X8.6154 Y-53.3449 Z-1.5
(Line Move)
X10.8601 Y-56.9987 Z-1.5
(Line Move)
X13.1816 Y-59.7591 Z-1.5
(Line Move)
X15.332 Y-61.9664 Z-1.5
(Line Move)
X18.6974 Y-64.8012 Z-1.5
(Line Move)
X21.7264 Y-66.8476 Z-1.5
(Line Move)
X25.2033 Y-68.8247 Z-1.5
(Line Move)
X29.7698 Y-70.9071 Z-1.5
(Line Move)
X36.2284 Y-73.1398 Z-1.5
(Line Move)
X43.0726 Y-74.5709 Z-1.5
(Line Move)
X43.0889 Y-74.5765 Z-1.5
(Line Move)
X43.1034 Y-74.5858 Z-1.5
(Line Move)
X43.1152 Y-74.5984 Z-1.5
(Line Move)
X43.1236 Y-74.6135 Z-1.5
(Line Move)
X43.1281 Y-74.6301 Z-1.5
(Line Move)
X42.9093 Y-74.7217 Z-1.5
(Line Move)
X42.2508 Y-74.6671 Z-1.5
(Line Move)
X40.1886 Y-74.3149 Z-1.5
(Line Move)
X38.0895 Y-73.9652 Z-1.5
(Line Move)
X37.3849 Y-73.9136 Z-1.5
(Line Move)
X37.1017 Y-74.0094 Z-1.5
(Line Move)
X37.0984 Y-74.0337 Z-1.5
(Line Move)
X37.089 Y-74.0563 Z-1.5
(Line Move)
X37.0741 Y-74.0757 Z-1.5
(Line Move)
X37.0547 Y-74.0906 Z-1.5
(Line Move)
X37.032 Y-74.1 Z-1.5
(Line Move)
X37.0077 Y-74.1032 Z-1.5
(Line Move)
X7.3048 Y-74.1163 Z-1.5
(Line Move)
X7.1935 Y-74.1038 Z-1.5
(Line Move)
X7.0878 Y-74.0669 Z-1.5
(Line Move)
X6.9929 Y-74.0073 Z-1.5
(Line Move)
X6.9137 Y-73.9281 Z-1.5
(Line Move)
X6.8541 Y-73.8333 Z-1.5
(Line Move)
X6.8171 Y-73.7276 Z-1.5
(Line Move)
X6.8046 Y-73.6163 Z-1.5
(Line Move)
X6.8068 Y-51.6368 Z-1.5
(Line Move)
X6.8121 Y-51.5935 Z-1.5
(Line Move)
X6.8277 Y-51.5527 Z-1.5
(Line Move)
X6.8528 Y-51.517 Z-1.5
(Line Move)
X6.8857 Y-51.4883 Z-1.5
(Line Move)
X6.9246 Y-51.4685 Z-1.5
(Line Move)
X6.9671 Y-51.4587 Z-1.5
(Line Move)
X7.0107 Y-51.4594 Z-1.5
(Line Move)
X7.0529 Y-51.4707 Z-1.5
(Line Move)
X7.0911 Y-51.4918 Z-1.5
(Line Move)
X7.123 Y-51.5215 Z-1.5
(Line Move)
X7.1468 Y-51.5581 Z-1.5
(Line Move)
X8.5037 Y-54.3317 Z-1.5
(Line Move)
X10.3353 Y-57.3197 Z-1.5
(Line Move)
X12.7148 Y-60.1475 Z-1.5
(Line Move)
X15.0256 Y-62.5326 Z-1.5
(Line Move)
X18.2093 Y-65.1887 Z-1.5
(Line Move)
X21.1272 Y-67.2105 Z-1.5
(Line Move)
X24.9424 Y-69.3799 Z-1.5
(Line Move)
X29.5665 Y-71.4773 Z-1.5
(Line Move)
X34.6577 Y-73.2728 Z-1.5
(Line Move)
X37.0323 Y-73.9185 Z-1.5
(Line Move)
X37.0549 Y-73.928 Z-1.5
(Line Move)
X37.0743 Y-73.9429 Z-1.5
(Line Move)
X37.0892 Y-73.9624 Z-1.5
(Line Move)
X37.0985 Y-73.9851 Z-1.5
(Line Move)
X37.1017 Y-74.0094 Z-1.5
(Line Move)
X36.8795 Y-74.0937 Z-1.5
(Line Move)
X36.2529 Y-74.0118 Z-1.5
(Line Move)
X34.3163 Y-73.5705 Z-1.5
(Line Move)
X32.3506 Y-73.1284 Z-1.5
(Line Move)
X31.6878 Y-73.0455 Z-1.5
(Line Move)
X31.4148 Y-73.1285 Z-1.5
(Line Move)
X31.4086 Y-73.1622 Z-1.5
(Line Move)
X31.3942 Y-73.1933 Z-1.5
(Line Move)
X31.3724 Y-73.2199 Z-1.5
(Line Move)
X31.3447 Y-73.2401 Z-1.5
(Line Move)
X31.3128 Y-73.2528 Z-1.5
(Line Move)
X31.2788 Y-73.2572 Z-1.5
(Line Move)
X8.1558 Y-73.2674 Z-1.5
(Line Move)
X8.0442 Y-73.2548 Z-1.5
(Line Move)
X7.9382 Y-73.2176 Z-1.5
(Line Move)
X7.8432 Y-73.1577 Z-1.5
(Line Move)
X7.7639 Y-73.0781 Z-1.5
(Line Move)
X7.7044 Y-72.9828 Z-1.5
(Line Move)
X7.6677 Y-72.8767 Z-1.5
(Line Move)
X7.6556 Y-72.765 Z-1.5
(Line Move)
X7.7375 Y-55.5286 Z-1.5
(Line Move)
X7.7458 Y-55.4666 Z-1.5
(Line Move)
X7.7695 Y-55.4088 Z-1.5
(Line Move)
X7.8072 Y-55.3588 Z-1.5
(Line Move)
X7.8562 Y-55.3201 Z-1.5
(Line Move)
X7.9135 Y-55.2951 Z-1.5
(Line Move)
X7.9753 Y-55.2854 Z-1.5
(Line Move)
X8.0375 Y-55.2917 Z-1.5
(Line Move)
X8.0961 Y-55.3136 Z-1.5
(Line Move)
X8.1472 Y-55.3496 Z-1.5
(Line Move)
X8.1875 Y-55.3974 Z-1.5
(Line Move)
X10.1096 Y-58.3824 Z-1.5
(Line Move)
X12.334 Y-61.0134 Z-1.5
(Line Move)
X14.533 Y-63.2268 Z-1.5
(Line Move)
X17.5259 Y-65.7237 Z-1.5
(Line Move)
X20.6474 Y-67.903 Z-1.5
(Line Move)
X24.5777 Y-70.1197 Z-1.5
(Line Move)
X27.974 Y-71.7149 Z-1.5
(Line Move)
X31.3273 Y-72.9936 Z-1.5
(Line Move)
X31.3576 Y-73.0098 Z-1.5
(Line Move)
X31.3828 Y-73.033 Z-1.5
(Line Move)
X31.4015 Y-73.0617 Z-1.5
(Line Move)
X31.4124 Y-73.0943 Z-1.5
(Line Move)
X31.4148 Y-73.1285 Z-1.5
(Line Move)
X31.2835 Y-73.2238 Z-1.5
(Line Move)
X30.9147 Y-73.1689 Z-1.5
(Line Move)
X29.772 Y-72.8082 Z-1.5
(Line Move)
X28.6028 Y-72.4456 Z-1.5
(Line Move)
X28.2006 Y-72.3883 Z-1.5
(Line Move)
X28.0228 Y-72.4803 Z-1.5
(Line Move)
X28.014 Y-72.5204 Z-1.5
(Line Move)
X27.9957 Y-72.5573 Z-1.5
(Line Move)
X27.969 Y-72.5885 Z-1.5
(Line Move)
X27.9354 Y-72.6123 Z-1.5
(Line Move)
X27.8971 Y-72.6271 Z-1.5
(Line Move)
X27.8563 Y-72.6322 Z-1.5
(Line Move)
X8.78 Y-72.6406 Z-1.5
(Line Move)
X8.6687 Y-72.6281 Z-1.5
(Line Move)
X8.563 Y-72.5912 Z-1.5
(Line Move)
X8.4681 Y-72.5316 Z-1.5
(Line Move)
X8.3889 Y-72.4524 Z-1.5
(Line Move)
X8.3293 Y-72.3576 Z-1.5
(Line Move)
X8.2923 Y-72.2519 Z-1.5
(Line Move)
X8.2798 Y-72.1406 Z-1.5
(Line Move)
X8.2812 Y-57.5085 Z-1.5
(Line Move)
X8.2894 Y-57.4446 Z-1.5
(Line Move)
X8.3135 Y-57.3847 Z-1.5
(Line Move)
X8.3519 Y-57.3329 Z-1.5
(Line Move)
X8.4021 Y-57.2924 Z-1.5
(Line Move)
X8.4609 Y-57.2659 Z-1.5
(Line Move)
X8.5244 Y-57.2551 Z-1.5
(Line Move)
X8.5887 Y-57.2606 Z-1.5
(Line Move)
X8.6494 Y-57.2822 Z-1.5
(Line Move)
X8.7028 Y-57.3184 Z-1.5
(Line Move)
X8.7453 Y-57.3669 Z-1.5
(Line Move)
X9.9757 Y-59.1942 Z-1.5
(Line Move)
X12.0888 Y-61.6554 Z-1.5
(Line Move)
X14.1773 Y-63.7459 Z-1.5
(Line Move)
X17.0155 Y-66.1137 Z-1.5
(Line Move)
X20.3651 Y-68.4354 Z-1.5
(Line Move)
X23.6695 Y-70.3578 Z-1.5
(Line Move)
X27.926 Y-72.3129 Z-1.5
(Line Move)
X27.961 Y-72.3345 Z-1.5
(Line Move)
X27.9897 Y-72.364 Z-1.5
(Line Move)
X28.0102 Y-72.3996 Z-1.5
(Line Move)
X28.0215 Y-72.4392 Z-1.5
(Line Move)
X28.0228 Y-72.4803 Z-1.5
(Line Move)
X27.8914 Y-72.5727 Z-1.5
(Line Move)
X27.5341 Y-72.5094 Z-1.5
(Line Move)
X26.4351 Y-72.1228 Z-1.5
(Line Move)
X25.312 Y-71.7338 Z-1.5
(Line Move)
X24.9245 Y-71.6676 Z-1.5
(Line Move)
X24.7508 Y-71.7558 Z-1.5
(Line Move)
X24.7409 Y-71.7986 Z-1.5
(Line Move)
X24.7209 Y-71.8377 Z-1.5
(Line Move)
X24.6921 Y-71.8707 Z-1.5
(Line Move)
X24.6562 Y-71.8959 Z-1.5
(Line Move)
X24.6152 Y-71.9116 Z-1.5
(Line Move)
X24.5717 Y-71.917 Z-1.5
(Line Move)
X9.4968 Y-71.9236 Z-1.5
(Line Move)
X9.3855 Y-71.9111 Z-1.5
(Line Move)
X9.2797 Y-71.8742 Z-1.5
(Line Move)
X9.1849 Y-71.8146 Z-1.5
(Line Move)
X9.1057 Y-71.7354 Z-1.5
(Line Move)
X9.0461 Y-71.6406 Z-1.5
(Line Move)
X9.0091 Y-71.5349 Z-1.5
(Line Move)
X8.9965 Y-71.4236 Z-1.5
(Line Move)
X8.9977 Y-59.9027 Z-1.5
(Line Move)
X9.0072 Y-59.8255 Z-1.5
(Line Move)
X9.035 Y-59.753 Z-1.5
(Line Move)
X9.0797 Y-59.6893 Z-1.5
(Line Move)
X9.1384 Y-59.6383 Z-1.5
(Line Move)
X9.2076 Y-59.6031 Z-1.5
(Line Move)
X9.2834 Y-59.5857 Z-1.5
(Line Move)
X9.3611 Y-59.5871 Z-1.5
(Line Move)
X9.4362 Y-59.6073 Z-1.5
(Line Move)
X9.5041 Y-59.6451 Z-1.5
(Line Move)
X9.5609 Y-59.6982 Z-1.5
(Line Move)
X11.8278 Y-62.4081 Z-1.5
(Line Move)
X13.7788 Y-64.3468 Z-1.5
(Line Move)
X16.5775 Y-66.6387 Z-1.5
(Line Move)
X19.5583 Y-68.7786 Z-1.5
(Line Move)
X22.5212 Y-70.5282 Z-1.5
(Line Move)
X24.6511 Y-71.575 Z-1.5
(Line Move)
X24.6878 Y-71.599 Z-1.5
(Line Move)
X24.7176 Y-71.6312 Z-1.5
(Line Move)
X24.7388 Y-71.6696 Z-1.5
(Line Move)
X24.7501 Y-71.712 Z-1.5
(Line Move)
X24.7508 Y-71.7558 Z-1.5
(Line Move)
X24.6526 Y-71.8552 Z-1.5
(Line Move)
X24.387 Y-71.8102 Z-1.5
(Line Move)
X23.5644 Y-71.4769 Z-1.5
(Line Move)
X22.7042 Y-71.1363 Z-1.5
(Line Move)
X22.3916 Y-71.0822 Z-1.5
(Line Move)
X22.2275 Y-71.1689 Z-1.5
(Line Move)
X22.2055 Y-71.2215 Z-1.5
(Line Move)
X22.1707 Y-71.2667 Z-1.5
(Line Move)
X22.1254 Y-71.3013 Z-1.5
(Line Move)
X22.0727 Y-71.3231 Z-1.5
(Line Move)
X22.0162 Y-71.3306 Z-1.5
(Line Move)
X10.0844 Y-71.3358 Z-1.5
(Line Move)
X9.9731 Y-71.3233 Z-1.5
(Line Move)
X9.8674 Y-71.2864 Z-1.5
(Line Move)
X9.7725 Y-71.2268 Z-1.5
(Line Move)
X9.6933 Y-71.1476 Z-1.5
(Line Move)
X9.6337 Y-71.0528 Z-1.5
(Line Move)
X9.5967 Y-70.9471 Z-1.5
(Line Move)
X9.5842 Y-70.8358 Z-1.5
(Line Move)
X9.5851 Y-61.5206 Z-1.5
(Line Move)
X9.5946 Y-61.4435 Z-1.5
(Line Move)
X9.6224 Y-61.3709 Z-1.5
(Line Move)
X9.6671 Y-61.3072 Z-1.5
(Line Move)
X9.7258 Y-61.2563 Z-1.5
(Line Move)
X9.795 Y-61.221 Z-1.5
(Line Move)
X9.8708 Y-61.2036 Z-1.5
(Line Move)
X9.9485 Y-61.2051 Z-1.5
(Line Move)
X10.0236 Y-61.2253 Z-1.5
(Line Move)
X10.0915 Y-61.263 Z-1.5
(Line Move)
X10.1483 Y-61.3161 Z-1.5
(Line Move)
X11.3771 Y-62.7851 Z-1.5
(Line Move)
X13.4625 Y-64.848 Z-1.5
(Line Move)
X16.1 Y-67.0454 Z-1.5
(Line Move)
X18.8408 Y-68.9922 Z-1.5
(Line Move)
X22.127 Y-70.9226 Z-1.5
(Line Move)
X22.172 Y-70.9576 Z-1.5
(Line Move)
X22.2064 Y-71.0031 Z-1.5
(Line Move)
X22.228 Y-71.0559 Z-1.5
(Line Move)
X22.2351 Y-71.1124 Z-1.5
(Line Move)
X22.2275 Y-71.1689 Z-1.5
(Line Move)
X22.0754 Y-71.2532 Z-1.5
(Line Move)
X21.7147 Y-71.171 Z-1.5
(Line Move)
X20.6366 Y-70.7267 Z-1.5
(Line Move)
X19.5324 Y-70.2748 Z-1.5
(Line Move)
X19.1389 Y-70.1831 Z-1.5
(Line Move)
X18.9411 Y-70.2542 Z-1.5
(Line Move)
X18.914 Y-70.3137 Z-1.5
(Line Move)
X18.8729 Y-70.3645 Z-1.5
(Line Move)
X18.8204 Y-70.4033 Z-1.5
(Line Move)
X18.7597 Y-70.4276 Z-1.5
(Line Move)
X18.6949 Y-70.4359 Z-1.5
(Line Move)
X10.9806 Y-70.4393 Z-1.5
(Line Move)
X10.8693 Y-70.4268 Z-1.5
(Line Move)
X10.7635 Y-70.3899 Z-1.5
(Line Move)
X10.6687 Y-70.3303 Z-1.5
(Line Move)
X10.5895 Y-70.2511 Z-1.5
(Line Move)
X10.5299 Y-70.1563 Z-1.5
(Line Move)
X10.4929 Y-70.0506 Z-1.5
(Line Move)
X10.4803 Y-69.9393 Z-1.5
(Line Move)
X10.4809 Y-64.0309 Z-1.5
(Line Move)
X10.4939 Y-63.9322 Z-1.5
(Line Move)
X10.532 Y-63.8403 Z-1.5
(Line Move)
X10.5926 Y-63.7613 Z-1.5
(Line Move)
X10.6716 Y-63.7007 Z-1.5
(Line Move)
X10.7636 Y-63.6626 Z-1.5
(Line Move)
X10.8622 Y-63.6496 Z-1.5
(Line Move)
X10.9609 Y-63.6626 Z-1.5
(Line Move)
X11.0529 Y-63.7007 Z-1.5
(Line Move)
X11.1319 Y-63.7613 Z-1.5
(Line Move)
X12.9971 Y-65.6266 Z-1.5
(Line Move)
X15.3181 Y-67.5603 Z-1.5
(Line Move)
X18.8401 Y-69.9654 Z-1.5
(Line Move)
X18.889 Y-70.0088 Z-1.5
(Line Move)
X18.9254 Y-70.063 Z-1.5
(Line Move)
X18.9469 Y-70.1247 Z-1.5
(Line Move)
X18.9523 Y-70.1898 Z-1.5
(Line Move)
X18.9411 Y-70.2542 Z-1.5
(Line Move)
X18.824 Y-70.3456 Z-1.5
(Line Move)
X18.5671 Y-70.2841 Z-1.5
(Line Move)
X17.812 Y-69.9035 Z-1.5
(Line Move)
X17.0337 Y-69.5156 Z-1.5
(Line Move)
X16.7476 Y-69.4449 Z-1.5
(Line Move)
X16.5898 Y-69.5236 Z-1.5
(Line Move)
X16.5615 Y-69.5846 Z-1.5
(Line Move)
X16.5189 Y-69.6367 Z-1.5
(Line Move)
X16.4647 Y-69.6764 Z-1.5
(Line Move)
X16.4022 Y-69.7014 Z-1.5
(Line Move)
X16.3354 Y-69.7099 Z-1.5
(Line Move)
X11.7077 Y-69.7119 Z-1.5
(Line Move)
X11.5964 Y-69.6994 Z-1.5
(Line Move)
X11.4907 Y-69.6624 Z-1.5
(Line Move)
X11.3959 Y-69.6029 Z-1.5
(Line Move)
X11.3167 Y-69.5237 Z-1.5
(Line Move)
X11.2571 Y-69.4289 Z-1.5
(Line Move)
X11.2201 Y-69.3232 Z-1.5
(Line Move)
X11.2075 Y-69.2119 Z-1.5
(Line Move)
X11.2079 Y-65.7904 Z-1.5
(Line Move)
X11.221 Y-65.6905 Z-1.5
(Line Move)
X11.2595 Y-65.5972 Z-1.5
(Line Move)
X11.3207 Y-65.5171 Z-1.5
(Line Move)
X11.4005 Y-65.4555 Z-1.5
(Line Move)
X11.4935 Y-65.4165 Z-1.5
(Line Move)
X11.5934 Y-65.4028 Z-1.5
(Line Move)
X11.6934 Y-65.4153 Z-1.5
(Line Move)
X11.7869 Y-65.4533 Z-1.5
(Line Move)
X11.8674 Y-65.514 Z-1.5
(Line Move)
X12.6524 Y-66.2858 Z-1.5
(Line Move)
X14.8784 Y-68.088 Z-1.5
(Line Move)
X16.4892 Y-69.2248 Z-1.5
(Line Move)
X16.5389 Y-69.2702 Z-1.5
(Line Move)
X16.5756 Y-69.3266 Z-1.5
(Line Move)
X16.597 Y-69.3903 Z-1.5
(Line Move)
X16.6019 Y-69.4574 Z-1.5
(Line Move)
X16.5898 Y-69.5236 Z-1.5
(Line Move)
X16.4731 Y-69.6146 Z-1.5
(Line Move)
X16.2195 Y-69.5522 Z-1.5
(Line Move)
X15.4757 Y-69.1691 Z-1.5
(Line Move)
X14.7065 Y-68.7774 Z-1.5
(Line Move)
X14.4212 Y-68.7044 Z-1.5
(Line Move)
X14.2601 Y-68.7804 Z-1.5
(Line Move)
X14.2255 Y-68.8491 Z-1.5
(Line Move)
X14.1752 Y-68.9073 Z-1.5
(Line Move)
X14.1124 Y-68.9515 Z-1.5
(Line Move)
X14.0406 Y-68.9792 Z-1.5
(Line Move)
X13.9643 Y-68.9886 Z-1.5
(Line Move)
X12.4301 Y-68.9893 Z-1.5
(Line Move)
X12.3188 Y-68.9768 Z-1.5
(Line Move)
X12.2131 Y-68.9398 Z-1.5
(Line Move)
X12.1182 Y-68.8803 Z-1.5
(Line Move)
X12.039 Y-68.8011 Z-1.5
(Line Move)
X11.9794 Y-68.7063 Z-1.5
(Line Move)
X11.9424 Y-68.6006 Z-1.5
(Line Move)
X11.9299 Y-68.4893 Z-1.5
(Line Move)
X11.93 Y-67.5584 Z-1.5
(Line Move)
X11.9443 Y-67.4448 Z-1.5
(Line Move)
X11.9865 Y-67.3383 Z-1.5
(Line Move)
X12.0538 Y-67.2456 Z-1.5
(Line Move)
X12.142 Y-67.1725 Z-1.5
(Line Move)
X12.2456 Y-67.1237 Z-1.5
(Line Move)
X12.3581 Y-67.1021 Z-1.5
(Line Move)
X12.4724 Y-67.1092 Z-1.5
(Line Move)
X12.5814 Y-67.1445 Z-1.5
(Line Move)
X12.6782 Y-67.2057 Z-1.5
(Line Move)
X14.1643 Y-68.4317 Z-1.5
(Line Move)
X14.2172 Y-68.4875 Z-1.5
(Line Move)
X14.2549 Y-68.5544 Z-1.5
(Line Move)
X14.2753 Y-68.6286 Z-1.5
(Line Move)
X14.2771 Y-68.7054 Z-1.5
(Line Move)
X14.2601 Y-68.7804 Z-1.5
(Line Move)
X14.1861 Y-68.8836 Z-1.5
(Line Move)
X14.0574 Y-68.856 Z-1.5
(Line Move)
X13.7019 Y-68.5801 Z-1.5
(Line Move)
X13.3249 Y-68.2964 Z-1.5
(Line Move)
X13.0575 Y-68.3487 Z-1.5
(Line Move)
X13.0399 Y-68.3834 Z-1.5
(Line Move)
X13.0145 Y-68.4129 Z-1.5
(Line Move)
X12.9826 Y-68.4353 Z-1.5
(Line Move)
X12.9463 Y-68.4493 Z-1.5
(Line Move)
X12.9077 Y-68.4541 Z-1.5
(Line Move)
X12.8303 Y-68.4541 Z-1.5
(Line Move)
X12.749 Y-68.445 Z-1.5
(Line Move)
X12.6718 Y-68.418 Z-1.5
(Line Move)
X12.6025 Y-68.3745 Z-1.5
(Line Move)
X12.5446 Y-68.3166 Z-1.5
(Line Move)
X12.5011 Y-68.2474 Z-1.5
(Line Move)
X12.4741 Y-68.1701 Z-1.5
(Line Move)
X12.4649 Y-68.0888 Z-1.5
(Line Move)
X12.4703 Y-68.046 Z-1.5
(Line Move)
X12.4862 Y-68.0059 Z-1.5
(Line Move)
X12.5116 Y-67.9709 Z-1.5
(Line Move)
X12.5448 Y-67.9434 Z-1.5
(Line Move)
X12.5839 Y-67.925 Z-1.5
(Line Move)
X12.6263 Y-67.9169 Z-1.5
(Line Move)
X12.6693 Y-67.9196 Z-1.5
(Line Move)
X12.7104 Y-67.9328 Z-1.5
(Line Move)
X12.7469 Y-67.9559 Z-1.5
(Line Move)
X13.0089 Y-68.1721 Z-1.5
(Line Move)
X13.0357 Y-68.2004 Z-1.5
(Line Move)
X13.0548 Y-68.2343 Z-1.5
(Line Move)
X13.0651 Y-68.2718 Z-1.5
(Line Move)
X13.066 Y-68.3107 Z-1.5
(Line Move)
X13.0575 Y-68.3487 Z-1.5
(Line Move)
X13.2318 Y-68.2752 Z-1.5
(Line Move)
X13.7567 Y-67.7753 Z-1.5
(Line Move)
X15.3738 Y-66.0142 Z-1.5
(Line Move)
X16.9397 Y-64.1015 Z-1.5
(Line Move)
X17.4006 Y-63.4119 Z-1.5
(Line Move)
X17.4855 Y-63.0729 Z-1.5
(Line Move)
X15.6776 Y-61.5556 Z-1.5
(Line Move)
X13.5951 Y-59.414 Z-1.5
(Line Move)
X11.3377 Y-56.7065 Z-1.5
(Line Move)
X9.3597 Y-53.5328 Z-1.5
(Line Move)
X7.7677 Y-50.2849 Z-1.5
(Line Move)
X7.0938 Y-48.6974 Z-1.5
(Line Move)
X5.8971 Y-43.9965 Z-1.5
(Line Move)
X5.6551 Y-41.1208 Z-1.5
(Line Move)
X5.8325 Y-38.2646 Z-1.5
(Line Move)
X6.3297 Y-35.0885 Z-1.5
(Line Move)
X8.1499 Y-29.51 Z-1.5
(Line Move)
X11.1833 Y-24.4825 Z-1.5
(Line Move)
X14.1612 Y-20.8791 Z-1.5
(Line Move)
X16.8851 Y-18.278 Z-1.5
(Line Move)
X20.5937 Y-15.4964 Z-1.5
(Line Move)
X23.0246 Y-13.9113 Z-1.5
(Line Move)
X25.9064 Y-12.3654 Z-1.5
(Line Move)
X29.5345 Y-10.7516 Z-1.5
(Line Move)
X35.0671 Y-8.7352 Z-1.5
(Line Move)
X44.4416 Y-6.7474 Z-1.5
(Line Move)
X52.2018 Y-6.1416 Z-1.5
(Line Move)
X59.8717 Y-6.6061 Z-1.5
(Line Move)
X66.4588 Y-7.7749 Z-1.5
(Line Move)
X74.5655 Y-10.2315 Z-1.5
(Line Move)
X80.1488 Y-12.8417 Z-1.5
(Line Move)
X84.6862 Y-15.5975 Z-1.5
(Line Move)
X88.2085 Y-18.3799 Z-1.5
(Line Move)
X90.7018 Y-20.8077 Z-1.5
(Line Move)
X93.5832 Y-24.2315 Z-1.5
(Line Move)
X96.8133 Y-29.4621 Z-1.5
(Line Move)
X98.8386 Y-35.7485 Z-1.5
(Line Move)
X99.2692 Y-39.2832 Z-1.5
(Line Move)
X99.2918 Y-42.226 Z-1.5
(Line Move)
X98.8636 Y-45.2124 Z-1.5
(Line Move)
X97.649 Y-49.5137 Z-1.5
(Line Move)
X95.1327 Y-54.4358 Z-1.5
(Line Move)
X92.4504 Y-58.2309 Z-1.5
(Line Move)
X89.9398 Y-61.0316 Z-1.5
(Line Move)
X87.4057 Y-63.3169 Z-1.5
(Line Move)
X83.6361 Y-66.0138 Z-1.5
(Line Move)
X80.9667 Y-67.6577 Z-1.5
(Line Move)
X77.7901 Y-69.2669 Z-1.5
(Line Move)
X73.0776 Y-71.1865 Z-1.5
(Line Move)
X66.3071 Y-73.1977 Z-1.5
(Line Move)
X57.5161 Y-74.645 Z-1.5
(Line Move)
X53.0459 Y-74.7942 Z-1.5
(Line Move)
X44.7865 Y-74.3686 Z-1.5
(Line Move)
X36.3957 Y-72.6562 Z-1.5
(Line Move)
X29.918 Y-70.386 Z-1.5
(Line Move)
X25.4633 Y-68.3626 Z-1.5
(Line Move)
X22.0161 Y-66.4231 Z-1.5
(Line Move)
X19.1305 Y-64.4536 Z-1.5
(Line Move)
X17.4855 Y-63.0729 Z-1.5
(Line Move)
X17.4795 Y-62.8611 Z-1.5
(Line Move)
X18.1429 Y-62.5078 Z-1.5
(Line Move)
X18.1369 Y-62.2961 Z-1.5
(Line Move)
X16.292 Y-60.7489 Z-1.5
(Line Move)
X14.3548 Y-58.7759 Z-1.5
(Line Move)
X12.1955 Y-56.1794 Z-1.5
(Line Move)
X10.3024 Y-53.1463 Z-1.5
(Line Move)
X8.6929 Y-49.8693 Z-1.5
(Line Move)
X8.0329 Y-48.2873 Z-1.5
(Line Move)
X6.9073 Y-43.9075 Z-1.5
(Line Move)
X6.6674 Y-41.1821 Z-1.5
(Line Move)
X6.8344 Y-38.4214 Z-1.5
(Line Move)
X7.3554 Y-35.0938 Z-1.5
(Line Move)
X9.1199 Y-29.8338 Z-1.5
(Line Move)
X12.0493 Y-25.0102 Z-1.5
(Line Move)
X14.949 Y-21.5263 Z-1.5
(Line Move)
X17.4919 Y-19.0946 Z-1.5
(Line Move)
X21.4814 Y-16.1003 Z-1.5
(Line Move)
X24.0777 Y-14.4421 Z-1.5
(Line Move)
X27.208 Y-12.8379 Z-1.5
(Line Move)
X31.1815 Y-11.1556 Z-1.5
(Line Move)
X35.2864 Y-9.7187 Z-1.5
(Line Move)
X43.7353 Y-7.8208 Z-1.5
(Line Move)
X52.1405 Y-7.1539 Z-1.5
(Line Move)
X59.8104 Y-7.6184 Z-1.5
(Line Move)
X66.2905 Y-8.7441 Z-1.5
(Line Move)
X74.2643 Y-11.211 Z-1.5
(Line Move)
X79.7356 Y-13.7327 Z-1.5
(Line Move)
X84.1534 Y-16.4677 Z-1.5
(Line Move)
X87.5169 Y-19.11 Z-1.5
(Line Move)
X89.9617 Y-21.4257 Z-1.5
(Line Move)
X92.7284 Y-24.7617 Z-1.5
(Line Move)
X95.8454 Y-29.7762 Z-1.5
(Line Move)
X97.8318 Y-35.8711 Z-1.5
(Line Move)
X98.2625 Y-39.4059 Z-1.5
(Line Move)
X98.2776 Y-42.2314 Z-1.5
(Line Move)
X97.8603 Y-45.0646 Z-1.5
(Line Move)
X96.7367 Y-49.0506 Z-1.5
(Line Move)
X94.2287 Y-53.9769 Z-1.5
(Line Move)
X91.6315 Y-57.6383 Z-1.5
(Line Move)
X89.3613 Y-60.1853 Z-1.5
(Line Move)
X86.8195 Y-62.4846 Z-1.5
(Line Move)
X82.694 Y-65.4368 Z-1.5
(Line Move)
X79.8334 Y-67.1554 Z-1.5
(Line Move)
X76.368 Y-68.8269 Z-1.5
(Line Move)
X72.7842 Y-70.2181 Z-1.5
(Line Move)
X66.1464 Y-72.1987 Z-1.5
(Line Move)
X57.355 Y-73.6438 Z-1.5
(Line Move)
X53.0981 Y-73.7814 Z-1.5
(Line Move)
X44.8458 Y-73.3209 Z-1.5
(Line Move)
X36.5998 Y-71.6628 Z-1.5
(Line Move)
X30.3178 Y-69.4803 Z-1.5
(Line Move)
X26.7106 Y-67.888 Z-1.5
(Line Move)
X23.002 Y-65.8636 Z-1.5
(Line Move)
X19.9307 Y-63.8004 Z-1.5
(Line Move)
X18.1369 Y-62.2961 Z-1.5
(Line Move)
X18.1465 Y-62.0657 Z-1.5
(Line Move)
X18.5122 Y-61.848 Z-1.5
(Line Move)
X18.878 Y-61.6303 Z-1.5
(Line Move)
X18.8874 Y-61.4 Z-1.5
(Line Move)
X17.0132 Y-59.8303 Z-1.5
(Line Move)
X14.9668 Y-57.726 Z-1.5
(Line Move)
X13.1768 Y-55.5732 Z-1.5
(Line Move)
X10.7326 Y-51.6166 Z-1.5
(Line Move)
X9.6798 Y-49.31 Z-1.5
(Line Move)
X8.705 Y-46.3852 Z-1.5
(Line Move)
X8.0728 Y-43.8049 Z-1.5
(Line Move)
X7.8329 Y-41.0795 Z-1.5
(Line Move)
X7.9904 Y-38.6024 Z-1.5
(Line Move)
X8.5113 Y-35.2747 Z-1.5
(Line Move)
X10.237 Y-30.2105 Z-1.5
(Line Move)
X13.0452 Y-25.6243 Z-1.5
(Line Move)
X15.8516 Y-22.2715 Z-1.5
(Line Move)
X18.1896 Y-20.0337 Z-1.5
(Line Move)
X22.4909 Y-16.8079 Z-1.5
(Line Move)
X25.2713 Y-15.0773 Z-1.5
(Line Move)
X28.6867 Y-13.4212 Z-1.5
(Line Move)
X33.0371 Y-11.6698 Z-1.5
(Line Move)
X35.538 Y-10.8473 Z-1.5
(Line Move)
X43.9899 Y-8.9627 Z-1.5
(Line Move)
X52.0697 Y-8.3217 Z-1.5
(Line Move)
X59.7396 Y-8.7863 Z-1.5
(Line Move)
X66.0889 Y-9.8966 Z-1.5
(Line Move)
X73.9171 Y-12.3353 Z-1.5
(Line Move)
X79.2415 Y-14.7933 Z-1.5
(Line Move)
X83.5401 Y-17.4662 Z-1.5
(Line Move)
X86.8546 Y-20.0963 Z-1.5
(Line Move)
X89.5465 Y-22.699 Z-1.5
(Line Move)
X92.1804 Y-25.9421 Z-1.5
(Line Move)
X94.7285 Y-30.1523 Z-1.5
(Line Move)
X96.6472 Y-35.7971 Z-1.5
(Line Move)
X97.1011 Y-39.5474 Z-1.5
(Line Move)
X97.1076 Y-42.2343 Z-1.5
(Line Move)
X96.7036 Y-44.8885 Z-1.5
(Line Move)
X95.7257 Y-48.5375 Z-1.5
(Line Move)
X93.1925 Y-53.4508 Z-1.5
(Line Move)
X91.0672 Y-56.5085 Z-1.5
(Line Move)
X88.6808 Y-59.2203 Z-1.5
(Line Move)
X86.1465 Y-61.529 Z-1.5
(Line Move)
X81.6267 Y-64.7575 Z-1.5
(Line Move)
X78.5507 Y-66.5483 Z-1.5
(Line Move)
X74.7542 Y-68.2757 Z-1.5
(Line Move)
X70.7354 Y-69.7049 Z-1.5
(Line Move)
X65.9616 Y-71.0511 Z-1.5
(Line Move)
X57.1691 Y-72.4886 Z-1.5
(Line Move)
X53.1564 Y-72.6128 Z-1.5
(Line Move)
X45.0759 Y-72.2011 Z-1.5
(Line Move)
X36.8353 Y-70.5168 Z-1.5
(Line Move)
X32.1018 Y-68.9504 Z-1.5
(Line Move)
X28.1193 Y-67.3081 Z-1.5
(Line Move)
X24.1206 Y-65.1998 Z-1.5
(Line Move)
X20.8465 Y-63.0408 Z-1.5
(Line Move)
X18.8874 Y-61.4 Z-1.5
(Line Move)
X18.8968 Y-61.1696 Z-1.5
(Line Move)
X19.6282 Y-60.7338 Z-1.5
(Line Move)
X19.6375 Y-60.5035 Z-1.5
(Line Move)
X17.7413 Y-58.9171 Z-1.5
(Line Move)
X15.6167 Y-56.6726 Z-1.5
(Line Move)
X13.7306 Y-54.3999 Z-1.5
(Line Move)
X11.231 Y-50.0209 Z-1.5
(Line Move)
X10.189 Y-47.381 Z-1.5
(Line Move)
X9.2383 Y-43.7023 Z-1.5
(Line Move)
X8.9984 Y-40.9769 Z-1.5
(Line Move)
X9.1563 Y-38.6944 Z-1.5
(Line Move)
X9.695 Y-35.4652 Z-1.5
(Line Move)
X11.3499 Y-30.5897 Z-1.5
(Line Move)
X14.0375 Y-26.2441 Z-1.5
(Line Move)
X16.7521 Y-23.0184 Z-1.5
(Line Move)
X18.8869 Y-20.9722 Z-1.5
(Line Move)
X23.4883 Y-17.5244 Z-1.5
(Line Move)
X26.4552 Y-15.7459 Z-1.5
(Line Move)
X30.1656 Y-14.0765 Z-1.5
(Line Move)
X34.8557 Y-12.2338 Z-1.5
(Line Move)
X37.923 Y-11.4602 Z-1.5
(Line Move)
X44.2352 Y-10.1067 Z-1.5
(Line Move)
X51.999 Y-9.4896 Z-1.5
(Line Move)
X59.6689 Y-9.9542 Z-1.5
(Line Move)
X65.886 Y-11.0489 Z-1.5
(Line Move)
X73.5694 Y-13.4569 Z-1.5
(Line Move)
X78.7454 Y-15.8529 Z-1.5
(Line Move)
X82.9256 Y-18.4632 Z-1.5
(Line Move)
X86.0451 Y-20.9484 Z-1.5
(Line Move)
X88.6364 Y-23.4353 Z-1.5
(Line Move)
X91.1926 Y-26.5495 Z-1.5
(Line Move)
X93.6143 Y-30.5274 Z-1.5
(Line Move)
X95.5384 Y-36.1704 Z-1.5
(Line Move)
X95.9386 Y-39.6799 Z-1.5
(Line Move)
X95.951 Y-42.0582 Z-1.5
(Line Move)
X95.5469 Y-44.7124 Z-1.5
(Line Move)
X94.5868 Y-48.2299 Z-1.5
(Line Move)
X92.1829 Y-52.9324 Z-1.5
(Line Move)
X90.4828 Y-55.3975 Z-1.5
(Line Move)
X87.968 Y-58.2455 Z-1.5
(Line Move)
X85.4941 Y-60.6027 Z-1.5
(Line Move)
X80.5753 Y-64.0669 Z-1.5
(Line Move)
X77.2751 Y-65.8924 Z-1.5
(Line Move)
X73.1508 Y-67.6629 Z-1.5
(Line Move)
X68.6952 Y-69.1379 Z-1.5
(Line Move)
X65.778 Y-69.9179 Z-1.5
(Line Move)
X57.1318 Y-71.3192 Z-1.5
(Line Move)
X53.2127 Y-71.4442 Z-1.5
(Line Move)
X45.3106 Y-71.0589 Z-1.5
(Line Move)
X37.0708 Y-69.3707 Z-1.5
(Line Move)
X33.871 Y-68.376 Z-1.5
(Line Move)
X29.5193 Y-66.6632 Z-1.5
(Line Move)
X25.2246 Y-64.5206 Z-1.5
(Line Move)
X21.7565 Y-62.2763 Z-1.5
(Line Move)
X19.6375 Y-60.5035 Z-1.5
(Line Move)
X19.642 Y-60.2857 Z-1.5
(Line Move)
X19.9977 Y-60.0945 Z-1.5
(Line Move)
X20.355 Y-59.9016 Z-1.5
(Line Move)
X20.3642 Y-59.6784 Z-1.5
(Line Move)
X18.4862 Y-58.0242 Z-1.5
(Line Move)
X16.5249 Y-55.9335 Z-1.5
(Line Move)
X14.3094 Y-53.2443 Z-1.5
(Line Move)
X12.6667 Y-50.3468 Z-1.5
(Line Move)
X11.2625 Y-46.9897 Z-1.5
(Line Move)
X10.4038 Y-43.5997 Z-1.5
(Line Move)
X10.1639 Y-40.8743 Z-1.5
(Line Move)
X10.313 Y-38.8702 Z-1.5
(Line Move)
X10.7747 Y-35.8331 Z-1.5
(Line Move)
X12.4613 Y-30.9689 Z-1.5
(Line Move)
X14.6212 Y-27.3731 Z-1.5
(Line Move)
X17.6523 Y-23.7652 Z-1.5
(Line Move)
X19.5816 Y-21.9062 Z-1.5
(Line Move)
X24.4731 Y-18.2503 Z-1.5
(Line Move)
X26.9401 Y-16.8039 Z-1.5
(Line Move)
X30.5739 Y-15.1287 Z-1.5
(Line Move)
X35.1392 Y-13.3749 Z-1.5
(Line Move)
X40.1974 Y-12.1006 Z-1.5
(Line Move)
X44.3279 Y-11.273 Z-1.5
(Line Move)
X52.0917 Y-10.6559 Z-1.5
(Line Move)
X56.5425 Y-10.8442 Z-1.5
(Line Move)
X59.5618 Y-11.1248 Z-1.5
(Line Move)
X65.6823 Y-12.2011 Z-1.5
(Line Move)
X73.2208 Y-14.5766 Z-1.5
(Line Move)
X78.2473 Y-16.9116 Z-1.5
(Line Move)
X82.3098 Y-19.4587 Z-1.5
(Line Move)
X85.3821 Y-21.9122 Z-1.5
(Line Move)
X87.7284 Y-24.1733 Z-1.5
(Line Move)
X90.2014 Y-27.1684 Z-1.5
(Line Move)
X92.5271 Y-30.8935 Z-1.5
(Line Move)
X94.4013 Y-36.5468 Z-1.5
(Line Move)
X94.7687 Y-39.6936 Z-1.5
(Line Move)
X94.7943 Y-41.8821 Z-1.5
(Line Move)
X94.3704 Y-44.531 Z-1.5
(Line Move)
X93.4516 Y-47.9207 Z-1.5
(Line Move)
X91.6017 Y-51.6368 Z-1.5
(Line Move)
X89.8837 Y-54.3035 Z-1.5
(Line Move)
X87.0857 Y-57.4783 Z-1.5
(Line Move)
X84.6671 Y-59.7317 Z-1.5
(Line Move)
X82.1038 Y-61.6702 Z-1.5
(Line Move)
X79.5242 Y-63.3561 Z-1.5
(Line Move)
X76.8156 Y-64.8238 Z-1.5
(Line Move)
X72.7882 Y-66.5477 Z-1.5
(Line Move)
X66.7379 Y-68.5429 Z-1.5
(Line Move)
X63.1333 Y-69.231 Z-1.5
(Line Move)
X57.0934 Y-70.1498 Z-1.5
(Line Move)
X53.2673 Y-70.2755 Z-1.5
(Line Move)
X45.5273 Y-69.9141 Z-1.5
(Line Move)
X42.9214 Y-69.4697 Z-1.5
(Line Move)
X37.0711 Y-68.2005 Z-1.5
(Line Move)
X33.4502 Y-67.0391 Z-1.5
(Line Move)
X29.9239 Y-65.6085 Z-1.5
(Line Move)
X26.3169 Y-63.8282 Z-1.5
(Line Move)
X22.6775 Y-61.4825 Z-1.5
(Line Move)
X20.4379 Y-59.7432 Z-1.5
(Line Move)
X20.3642 Y-59.6784 Z-1.5
(Line Move)
X20.3747 Y-59.4483 Z-1.5
(Line Move)
X20.7349 Y-59.2402 Z-1.5
(Line Move)
X21.0939 Y-59.0335 Z-1.5
(Line Move)
X21.1007 Y-58.8077 Z-1.5
(Line Move)
X19.9689 Y-57.8502 Z-1.5
(Line Move)
X18.4739 Y-56.3734 Z-1.5
(Line Move)
X16.3376 Y-54.0453 Z-1.5
(Line Move)
X15.3214 Y-52.674 Z-1.5
(Line Move)
X13.2358 Y-48.9735 Z-1.5
(Line Move)
X12.3967 Y-46.7024 Z-1.5
(Line Move)
X11.538 Y-43.3124 Z-1.5
(Line Move)
X11.3299 Y-40.7785 Z-1.5
(Line Move)
X11.5306 Y-38.3407 Z-1.5
(Line Move)
X11.9962 Y-35.6332 Z-1.5
(Line Move)
X13.5363 Y-31.356 Z-1.5
(Line Move)
X15.2171 Y-28.4873 Z-1.5
(Line Move)
X18.5301 Y-24.4933 Z-1.5
(Line Move)
X20.2949 Y-22.8118 Z-1.5
(Line Move)
X22.9067 Y-20.7546 Z-1.5
(Line Move)
X25.4628 Y-18.9886 Z-1.5
(Line Move)
X27.4238 Y-17.8594 Z-1.5
(Line Move)
X31.9235 Y-15.7972 Z-1.5
(Line Move)
X35.4174 Y-14.494 Z-1.5
(Line Move)
X40.8643 Y-13.0434 Z-1.5
(Line Move)
X44.4206 Y-12.4394 Z-1.5
(Line Move)
X52.1844 Y-11.8222 Z-1.5
(Line Move)
X54.9381 Y-11.875 Z-1.5
(Line Move)
X59.3591 Y-12.2715 Z-1.5
(Line Move)
X65.4787 Y-13.3532 Z-1.5
(Line Move)
X68.3854 Y-14.1848 Z-1.5
(Line Move)
X72.8799 Y-15.667 Z-1.5
(Line Move)
X77.747 Y-17.9692 Z-1.5
(Line Move)
X81.7084 Y-20.4278 Z-1.5
(Line Move)
X84.5839 Y-22.7569 Z-1.5
(Line Move)
X86.8437 Y-24.8924 Z-1.5
(Line Move)
X89.5961 Y-28.2788 Z-1.5
(Line Move)
X91.4201 Y-31.2722 Z-1.5
(Line Move)
X92.661 Y-34.6176 Z-1.5
(Line Move)
X93.2663 Y-36.669 Z-1.5
(Line Move)
X93.6054 Y-39.8188 Z-1.5
(Line Move)
X93.6243 Y-41.8928 Z-1.5
(Line Move)
X93.2614 Y-44.2289 Z-1.5
(Line Move)
X92.3385 Y-47.6175 Z-1.5
(Line Move)
X90.5798 Y-51.1244 Z-1.5
(Line Move)
X89.2724 Y-53.2234 Z-1.5
(Line Move)
X86.224 Y-56.729 Z-1.5
(Line Move)
X83.9891 Y-58.8168 Z-1.5
(Line Move)
X81.1859 Y-60.8941 Z-1.5
(Line Move)
X78.484 Y-62.6345 Z-1.5
(Line Move)
X76.3604 Y-63.7683 Z-1.5
(Line Move)
X72.4335 Y-65.462 Z-1.5
(Line Move)
X66.519 Y-67.3946 Z-1.5
(Line Move)
X62.8182 Y-68.1672 Z-1.5
(Line Move)
X58.429 Y-68.8701 Z-1.5
(Line Move)
X55.6793 Y-69.0909 Z-1.5
(Line Move)
X50.9351 Y-69.1213 Z-1.5
(Line Move)
X45.6094 Y-68.747 Z-1.5
(Line Move)
X41.4985 Y-68.0364 Z-1.5
(Line Move)
X37.4003 Y-67.1033 Z-1.5
(Line Move)
X35.0125 Y-66.3869 Z-1.5
(Line Move)
X31.2371 Y-64.9331 Z-1.5
(Line Move)
X27.3937 Y-63.1259 Z-1.5
(Line Move)
X24.2626 Y-61.2053 Z-1.5
(Line Move)
X22.3147 Y-59.8345 Z-1.5
(Line Move)
X21.1007 Y-58.8077 Z-1.5
(Feed Z Down)
Z1.
(Rapid Z up)
G0 Z2.6
(Rapid Move)
X-4.2112 Y-58.8126
(Rapid Z Down)
Z-.5
(Feed Z Down)
G1 Z-3. F300.
(Line Move)
X-.0357 Y-58.8089 Z-3. F750.
(Line Move)
X-.0115 Y-.1927 Z-3.
(Line Move)
X-.0054 Y-.139 Z-3.
(Line Move)
X.0125 Y-.088 Z-3.
(Line Move)
X.0413 Y-.0422 Z-3.
(Line Move)
X.0795 Y-.004 Z-3.
(Line Move)
X.1253 Y.0247 Z-3.
(Line Move)
X.1763 Y.0426 Z-3.
(Line Move)
X.2301 Y.0486 Z-3.
(Line Move)
X104.8086 Y.0001 Z-3.
(Line Move)
X104.8623 Y-.006 Z-3.
(Line Move)
X104.9133 Y-.0238 Z-3.
(Line Move)
X104.9591 Y-.0526 Z-3.
(Line Move)
X104.9973 Y-.0909 Z-3.
(Line Move)
X105.026 Y-.1367 Z-3.
(Line Move)
X105.0438 Y-.1877 Z-3.
(Line Move)
X105.0499 Y-.2414 Z-3.
(Line Move)
X105.0045 Y-80.8083 Z-3.
(Line Move)
X104.9962 Y-80.8708 Z-3.
(Line Move)
X104.9721 Y-80.9291 Z-3.
(Line Move)
X104.9337 Y-80.9791 Z-3.
(Line Move)
X104.8837 Y-81.0174 Z-3.
(Line Move)
X104.8254 Y-81.0415 Z-3.
(Line Move)
X104.7629 Y-81.0497 Z-3.
(Line Move)
X.1966 Y-81.0222 Z-3.
(Line Move)
X.1428 Y-81.0161 Z-3.
(Line Move)
X.0918 Y-80.9983 Z-3.
(Line Move)
X.0461 Y-80.9695 Z-3.
(Line Move)
X.0079 Y-80.9313 Z-3.
(Line Move)
X-.0065 Y-80.9084 Z-3.
(Line Move)
X-.0209 Y-80.8855 Z-3.
(Line Move)
X-.0387 Y-80.8344 Z-3.
(Line Move)
X-.0447 Y-80.7807 Z-3.
(Line Move)
X-.0357 Y-58.8089 Z-3.
(Line Move)
X.1483 Y-58.6684 Z-3.
(Line Move)
X.9576 Y-58.9503 Z-3.
(Line Move)
X1.1417 Y-58.8098 Z-3.
(Line Move)
X1.1864 Y-1.6358 Z-3.
(Line Move)
X1.2035 Y-1.5064 Z-3.
(Line Move)
X1.2535 Y-1.3859 Z-3.
(Line Move)
X1.3329 Y-1.2825 Z-3.
(Line Move)
X1.4365 Y-1.2031 Z-3.
(Line Move)
X1.557 Y-1.1532 Z-3.
(Line Move)
X1.6863 Y-1.1362 Z-3.
(Line Move)
X103.3366 Y-1.1326 Z-3.
(Line Move)
X103.466 Y-1.1497 Z-3.
(Line Move)
X103.5866 Y-1.1996 Z-3.
(Line Move)
X103.6902 Y-1.2791 Z-3.
(Line Move)
X103.7696 Y-1.3826 Z-3.
(Line Move)
X103.8196 Y-1.5032 Z-3.
(Line Move)
X103.8367 Y-1.6326 Z-3.
(Line Move)
X103.8493 Y-79.372 Z-3.
(Line Move)
X103.8368 Y-79.4833 Z-3.
(Line Move)
X103.7998 Y-79.589 Z-3.
(Line Move)
X103.7403 Y-79.6838 Z-3.
(Line Move)
X103.6611 Y-79.763 Z-3.
(Line Move)
X103.5662 Y-79.8226 Z-3.
(Line Move)
X103.4605 Y-79.8595 Z-3.
(Line Move)
X103.3492 Y-79.8721 Z-3.
(Line Move)
X1.6256 Y-79.8524 Z-3.
(Line Move)
X1.5143 Y-79.8399 Z-3.
(Line Move)
X1.4086 Y-79.8029 Z-3.
(Line Move)
X1.3137 Y-79.7432 Z-3.
(Line Move)
X1.2346 Y-79.664 Z-3.
(Line Move)
X1.175 Y-79.5691 Z-3.
(Line Move)
X1.1381 Y-79.4634 Z-3.
(Line Move)
X1.1257 Y-79.3521 Z-3.
(Line Move)
X1.1417 Y-58.8098 Z-3.
(Line Move)
X1.1948 Y-58.6867 Z-3.
(Line Move)
X1.3346 Y-58.6691 Z-3.
(Line Move)
X1.7585 Y-58.8096 Z-3.
(Line Move)
X2.1823 Y-58.9501 Z-3.
(Line Move)
X2.3219 Y-58.9325 Z-3.
(Line Move)
X2.3749 Y-58.8094 Z-3.
(Line Move)
X2.3573 Y-2.8063 Z-3.
(Line Move)
X2.3698 Y-2.695 Z-3.
(Line Move)
X2.4067 Y-2.5893 Z-3.
(Line Move)
X2.4663 Y-2.4945 Z-3.
(Line Move)
X2.5455 Y-2.4153 Z-3.
(Line Move)
X2.6403 Y-2.3557 Z-3.
(Line Move)
X2.746 Y-2.3187 Z-3.
(Line Move)
X2.8573 Y-2.3061 Z-3.
(Line Move)
X102.1893 Y-2.3027 Z-3.
(Line Move)
X102.3006 Y-2.3152 Z-3.
(Line Move)
X102.4063 Y-2.3522 Z-3.
(Line Move)
X102.5011 Y-2.4118 Z-3.
(Line Move)
X102.5803 Y-2.491 Z-3.
(Line Move)
X102.6398 Y-2.5858 Z-3.
(Line Move)
X102.6768 Y-2.6915 Z-3.
(Line Move)
X102.6893 Y-2.8027 Z-3.
(Line Move)
X102.6796 Y-78.1125 Z-3.
(Line Move)
X102.6626 Y-78.2418 Z-3.
(Line Move)
X102.6127 Y-78.3624 Z-3.
(Line Move)
X102.5333 Y-78.4659 Z-3.
(Line Move)
X102.4298 Y-78.5453 Z-3.
(Line Move)
X102.3093 Y-78.5953 Z-3.
(Line Move)
X102.18 Y-78.6124 Z-3.
(Line Move)
X2.8813 Y-78.6817 Z-3.
(Line Move)
X2.77 Y-78.6692 Z-3.
(Line Move)
X2.6643 Y-78.6323 Z-3.
(Line Move)
X2.5694 Y-78.5727 Z-3.
(Line Move)
X2.4902 Y-78.4936 Z-3.
(Line Move)
X2.4306 Y-78.3988 Z-3.
(Line Move)
X2.3935 Y-78.2931 Z-3.
(Line Move)
X2.3809 Y-78.1818 Z-3.
(Line Move)
X2.3749 Y-58.8094 Z-3.
(Line Move)
X2.4285 Y-58.6863 Z-3.
(Line Move)
X2.5699 Y-58.6686 Z-3.
(Line Move)
X3.4284 Y-58.9492 Z-3.
(Line Move)
X3.5698 Y-58.9315 Z-3.
(Line Move)
X3.6233 Y-58.8085 Z-3.
(Line Move)
X3.5816 Y-3.9765 Z-3.
(Line Move)
X3.5941 Y-3.8651 Z-3.
(Line Move)
X3.631 Y-3.7594 Z-3.
(Line Move)
X3.6906 Y-3.6645 Z-3.
(Line Move)
X3.7698 Y-3.5853 Z-3.
(Line Move)
X3.8646 Y-3.5257 Z-3.
(Line Move)
X3.9703 Y-3.4886 Z-3.
(Line Move)
X4.0816 Y-3.4761 Z-3.
(Line Move)
X101.0192 Y-3.4727 Z-3.
(Line Move)
X101.1304 Y-3.4853 Z-3.
(Line Move)
X101.2361 Y-3.5222 Z-3.
(Line Move)
X101.3309 Y-3.5818 Z-3.
(Line Move)
X101.4101 Y-3.661 Z-3.
(Line Move)
X101.4697 Y-3.7558 Z-3.
(Line Move)
X101.5067 Y-3.8615 Z-3.
(Line Move)
X101.5192 Y-3.9728 Z-3.
(Line Move)
X101.5098 Y-76.9214 Z-3.
(Line Move)
X101.4928 Y-77.0507 Z-3.
(Line Move)
X101.4429 Y-77.1712 Z-3.
(Line Move)
X101.3635 Y-77.2747 Z-3.
(Line Move)
X101.26 Y-77.3542 Z-3.
(Line Move)
X101.1396 Y-77.4042 Z-3.
(Line Move)
X101.0103 Y-77.4213 Z-3.
(Line Move)
X4.1377 Y-77.5107 Z-3.
(Line Move)
X4.0264 Y-77.4983 Z-3.
(Line Move)
X3.9206 Y-77.4614 Z-3.
(Line Move)
X3.8258 Y-77.4019 Z-3.
(Line Move)
X3.7465 Y-77.3228 Z-3.
(Line Move)
X3.6869 Y-77.228 Z-3.
(Line Move)
X3.6498 Y-77.1223 Z-3.
(Line Move)
X3.6372 Y-77.0111 Z-3.
(Line Move)
X3.6233 Y-58.8085 Z-3.
(Line Move)
X3.7464 Y-58.6679 Z-3.
(Line Move)
X4.0174 Y-58.8086 Z-3.
(Line Move)
X4.2886 Y-58.9493 Z-3.
(Line Move)
X4.4119 Y-58.8087 Z-3.
(Line Move)
X4.4165 Y-43.2606 Z-3.
(Line Move)
X4.4182 Y-43.2467 Z-3.
(Line Move)
X4.4233 Y-43.2337 Z-3.
(Line Move)
X4.4315 Y-43.2223 Z-3.
(Line Move)
X4.4421 Y-43.2132 Z-3.
(Line Move)
X4.4547 Y-43.207 Z-3.
(Line Move)
X4.4684 Y-43.2041 Z-3.
(Line Move)
X4.4824 Y-43.2047 Z-3.
(Line Move)
X4.4959 Y-43.2087 Z-3.
(Line Move)
X4.5079 Y-43.2158 Z-3.
(Line Move)
X4.5178 Y-43.2257 Z-3.
(Line Move)
X4.525 Y-43.2377 Z-3.
(Line Move)
X4.5291 Y-43.2511 Z-3.
(Line Move)
X4.8963 Y-45.4072 Z-3.
(Line Move)
X5.7398 Y-48.6487 Z-3.
(Line Move)
X6.6521 Y-51.2887 Z-3.
(Line Move)
X9.4421 Y-56.3099 Z-3.
(Line Move)
X12.1455 Y-59.8256 Z-3.
(Line Move)
X14.6389 Y-62.4538 Z-3.
(Line Move)
X17.6125 Y-65.0127 Z-3.
(Line Move)
X21.6401 Y-67.7934 Z-3.
(Line Move)
X26.2043 Y-70.2892 Z-3.
(Line Move)
X30.3473 Y-72.0376 Z-3.
(Line Move)
X34.4481 Y-73.4451 Z-3.
(Line Move)
X38.4255 Y-74.4373 Z-3.
(Line Move)
X45.3778 Y-75.7392 Z-3.
(Line Move)
X50.0453 Y-76.1331 Z-3.
(Line Move)
X55.1228 Y-76.0964 Z-3.
(Line Move)
X60.7443 Y-75.5816 Z-3.
(Line Move)
X68.0723 Y-74.1968 Z-3.
(Line Move)
X74.5063 Y-72.0944 Z-3.
(Line Move)
X78.8649 Y-70.2339 Z-3.
(Line Move)
X82.1317 Y-68.5149 Z-3.
(Line Move)
X85.2798 Y-66.5751 Z-3.
(Line Move)
X88.3799 Y-64.2753 Z-3.
(Line Move)
X91.2881 Y-61.5384 Z-3.
(Line Move)
X94.4151 Y-57.9223 Z-3.
(Line Move)
X95.7752 Y-55.9859 Z-3.
(Line Move)
X97.1101 Y-53.7051 Z-3.
(Line Move)
X98.8005 Y-50.0548 Z-3.
(Line Move)
X100.1308 Y-45.5235 Z-3.
(Line Move)
X100.6198 Y-42.1772 Z-3.
(Line Move)
X100.6054 Y-38.717 Z-3.
(Line Move)
X100.1783 Y-35.5134 Z-3.
(Line Move)
X98.8005 Y-31.1944 Z-3.
(Line Move)
X97.5965 Y-28.3266 Z-3.
(Line Move)
X95.6011 Y-24.8228 Z-3.
(Line Move)
X92.9247 Y-21.1933 Z-3.
(Line Move)
X90.7307 Y-18.9091 Z-3.
(Line Move)
X87.8552 Y-16.3506 Z-3.
(Line Move)
X84.3936 Y-13.8841 Z-3.
(Line Move)
X78.4492 Y-10.5164 Z-3.
(Line Move)
X72.5077 Y-8.1236 Z-3.
(Line Move)
X67.2193 Y-6.6928 Z-3.
(Line Move)
X61.7669 Y-5.6295 Z-3.
(Line Move)
X58.1537 Y-5.0722 Z-3.
(Line Move)
X52.0992 Y-4.8174 Z-3.
(Line Move)
X48.7305 Y-4.9363 Z-3.
(Line Move)
X42.8146 Y-5.59 Z-3.
(Line Move)
X40.11 Y-6.1221 Z-3.
(Line Move)
X35.0932 Y-7.3711 Z-3.
(Line Move)
X30.2016 Y-9.0544 Z-3.
(Line Move)
X24.7 Y-11.516 Z-3.
(Line Move)
X20.6391 Y-13.8226 Z-3.
(Line Move)
X17.2657 Y-16.2194 Z-3.
(Line Move)
X14.2682 Y-18.9194 Z-3.
(Line Move)
X11.8699 Y-21.4043 Z-3.
(Line Move)
X9.6983 Y-24.3423 Z-3.
(Line Move)
X8.1943 Y-26.755 Z-3.
(Line Move)
X6.3264 Y-30.4909 Z-3.
(Line Move)
X4.8615 Y-35.5713 Z-3.
(Line Move)
X4.5104 Y-38.049 Z-3.
(Line Move)
X4.5073 Y-38.06 Z-3.
(Line Move)
X4.5017 Y-38.07 Z-3.
(Line Move)
X4.4938 Y-38.0782 Z-3.
(Line Move)
X4.484 Y-38.0843 Z-3.
(Line Move)
X4.4731 Y-38.0877 Z-3.
(Line Move)
X4.4617 Y-38.0883 Z-3.
(Line Move)
X4.4504 Y-38.0861 Z-3.
(Line Move)
X4.4401 Y-38.0811 Z-3.
(Line Move)
X4.4313 Y-38.0738 Z-3.
(Line Move)
X4.4246 Y-38.0645 Z-3.
(Line Move)
X4.4205 Y-38.0538 Z-3.
(Line Move)
X4.419 Y-38.0425 Z-3.
(Line Move)
X4.4794 Y-4.7439 Z-3.
(Line Move)
X4.4966 Y-4.6147 Z-3.
(Line Move)
X4.5467 Y-4.4943 Z-3.
(Line Move)
X4.6262 Y-4.3909 Z-3.
(Line Move)
X4.7297 Y-4.3117 Z-3.
(Line Move)
X4.8501 Y-4.2618 Z-3.
(Line Move)
X4.9794 Y-4.2448 Z-3.
(Line Move)
X100.2244 Y-4.2415 Z-3.
(Line Move)
X100.3538 Y-4.2585 Z-3.
(Line Move)
X100.4744 Y-4.3085 Z-3.
(Line Move)
X100.578 Y-4.3879 Z-3.
(Line Move)
X100.6574 Y-4.4914 Z-3.
(Line Move)
X100.7074 Y-4.612 Z-3.
(Line Move)
X100.7244 Y-4.7414 Z-3.
(Line Move)
X100.7407 Y-76.1514 Z-3.
(Line Move)
X100.7237 Y-76.2807 Z-3.
(Line Move)
X100.6738 Y-76.4013 Z-3.
(Line Move)
X100.5944 Y-76.5048 Z-3.
(Line Move)
X100.491 Y-76.5843 Z-3.
(Line Move)
X100.3705 Y-76.6343 Z-3.
(Line Move)
X100.2412 Y-76.6515 Z-3.
(Line Move)
X4.9072 Y-76.7412 Z-3.
(Line Move)
X4.7958 Y-76.7288 Z-3.
(Line Move)
X4.69 Y-76.6918 Z-3.
(Line Move)
X4.5951 Y-76.6323 Z-3.
(Line Move)
X4.5159 Y-76.5531 Z-3.
(Line Move)
X4.4562 Y-76.4582 Z-3.
(Line Move)
X4.4192 Y-76.3524 Z-3.
(Line Move)
X4.4067 Y-76.2411 Z-3.
(Line Move)
X4.4119 Y-58.8087 Z-3.
(Feed Z Down)
Z-.5
(Rapid Z up)
G0 Z1.
(Rapid Move)
X61.786 Y-78.019
(Rapid Z Down)
Z-.5
(Feed Z Down)
G1 Z-3. F300.
(Line Move)
X61.411 Y-76.0348 Z-3. F750.
(Line Move)
X61.4186 Y-76.0216 Z-3.
(Line Move)
X61.4292 Y-76.0108 Z-3.
(Line Move)
X61.4421 Y-76.0028 Z-3.
(Line Move)
X61.4566 Y-75.9982 Z-3.
(Line Move)
X68.1751 Y-74.7527 Z-3.
(Line Move)
X74.6812 Y-72.6313 Z-3.
(Line Move)
X79.0903 Y-70.7601 Z-3.
(Line Move)
X82.749 Y-68.7847 Z-3.
(Line Move)
X85.7744 Y-66.8974 Z-3.
(Line Move)
X88.6994 Y-64.7059 Z-3.
(Line Move)
X91.6516 Y-61.9247 Z-3.
(Line Move)
X94.6207 Y-58.5308 Z-3.
(Line Move)
X95.9477 Y-56.7035 Z-3.
(Line Move)
X97.5809 Y-53.9807 Z-3.
(Line Move)
X98.8835 Y-51.1928 Z-3.
(Line Move)
X99.9186 Y-48.3243 Z-3.
(Line Move)
X99.9334 Y-48.2954 Z-3.
(Line Move)
X99.955 Y-48.2711 Z-3.
(Line Move)
X99.982 Y-48.253 Z-3.
(Line Move)
X100.0127 Y-48.2423 Z-3.
(Line Move)
X100.0451 Y-48.2397 Z-3.
(Line Move)
X100.0772 Y-48.2453 Z-3.
(Line Move)
X100.1068 Y-48.2587 Z-3.
(Line Move)
X100.132 Y-48.2792 Z-3.
(Line Move)
X100.1513 Y-48.3054 Z-3.
(Line Move)
X100.1634 Y-48.3355 Z-3.
(Line Move)
X100.1676 Y-48.3678 Z-3.
(Line Move)
X100.1865 Y-75.5979 Z-3.
(Line Move)
X100.1741 Y-75.7092 Z-3.
(Line Move)
X100.1371 Y-75.8149 Z-3.
(Line Move)
X100.0776 Y-75.9098 Z-3.
(Line Move)
X99.9985 Y-75.989 Z-3.
(Line Move)
X99.9037 Y-76.0486 Z-3.
(Line Move)
X99.7981 Y-76.0857 Z-3.
(Line Move)
X99.6868 Y-76.0983 Z-3.
(Line Move)
X61.4679 Y-76.1206 Z-3.
(Line Move)
X61.4528 Y-76.1188 Z-3.
(Line Move)
X61.4387 Y-76.1133 Z-3.
(Line Move)
X61.4263 Y-76.1045 Z-3.
(Line Move)
X61.4164 Y-76.093 Z-3.
(Line Move)
X61.4096 Y-76.0794 Z-3.
(Line Move)
X61.4064 Y-76.0646 Z-3.
(Line Move)
X61.4068 Y-76.0494 Z-3.
(Line Move)
X61.411 Y-76.0348 Z-3.
(Line Move)
X61.7161 Y-75.8938 Z-3.
(Line Move)
X62.4351 Y-75.8169 Z-3.
(Line Move)
X64.554 Y-75.7687 Z-3.
(Line Move)
X66.6467 Y-75.717 Z-3.
(Line Move)
X67.3327 Y-75.6356 Z-3.
(Line Move)
X67.5918 Y-75.4883 Z-3.
(Line Move)
X67.5917 Y-75.4671 Z-3.
(Line Move)
X67.5966 Y-75.4465 Z-3.
(Line Move)
X67.6063 Y-75.4277 Z-3.
(Line Move)
X67.6202 Y-75.4117 Z-3.
(Line Move)
X67.6375 Y-75.3995 Z-3.
(Line Move)
X67.6572 Y-75.3918 Z-3.
(Line Move)
X69.7952 Y-74.8404 Z-3.
(Line Move)
X74.8552 Y-73.1666 Z-3.
(Line Move)
X79.3097 Y-71.2728 Z-3.
(Line Move)
X83.0181 Y-69.2792 Z-3.
(Line Move)
X86.282 Y-67.2214 Z-3.
(Line Move)
X89.0969 Y-65.1047 Z-3.
(Line Move)
X92.0757 Y-62.2919 Z-3.
(Line Move)
X94.8203 Y-59.1607 Z-3.
(Line Move)
X96.3917 Y-57.0259 Z-3.
(Line Move)
X97.7188 Y-54.8528 Z-3.
(Line Move)
X99.2788 Y-51.5431 Z-3.
(Line Move)
X99.3013 Y-51.5074 Z-3.
(Line Move)
X99.3318 Y-51.4783 Z-3.
(Line Move)
X99.3685 Y-51.4575 Z-3.
(Line Move)
X99.4092 Y-51.4462 Z-3.
(Line Move)
X99.4513 Y-51.4451 Z-3.
(Line Move)
X99.4925 Y-51.4543 Z-3.
(Line Move)
X99.5302 Y-51.4732 Z-3.
(Line Move)
X99.5621 Y-51.5007 Z-3.
(Line Move)
X99.5865 Y-51.5352 Z-3.
(Line Move)
X99.6017 Y-51.5745 Z-3.
(Line Move)
X99.6069 Y-51.6164 Z-3.
(Line Move)
X99.6231 Y-75.0341 Z-3.
(Line Move)
X99.6062 Y-75.1635 Z-3.
(Line Move)
X99.5564 Y-75.2841 Z-3.
(Line Move)
X99.477 Y-75.3877 Z-3.
(Line Move)
X99.3735 Y-75.4673 Z-3.
(Line Move)
X99.253 Y-75.5173 Z-3.
(Line Move)
X99.1236 Y-75.5345 Z-3.
(Line Move)
X67.6793 Y-75.5653 Z-3.
(Line Move)
X67.6583 Y-75.5628 Z-3.
(Line Move)
X67.6385 Y-75.5553 Z-3.
(Line Move)
X67.621 Y-75.5434 Z-3.
(Line Move)
X67.6069 Y-75.5276 Z-3.
(Line Move)
X67.597 Y-75.5088 Z-3.
(Line Move)
X67.5918 Y-75.4883 Z-3.
(Line Move)
X67.8074 Y-75.3314 Z-3.
(Line Move)
X68.4522 Y-75.2151 Z-3.
(Line Move)
X70.4673 Y-75.0494 Z-3.
(Line Move)
X72.5126 Y-74.8811 Z-3.
(Line Move)
X73.1953 Y-74.7616 Z-3.
(Line Move)
X73.4639 Y-74.6002 Z-3.
(Line Move)
X73.4665 Y-74.5677 Z-3.
(Line Move)
X73.4771 Y-74.5368 Z-3.
(Line Move)
X73.4952 Y-74.5096 Z-3.
(Line Move)
X73.5195 Y-74.4878 Z-3.
(Line Move)
X73.5486 Y-74.4728 Z-3.
(Line Move)
X76.6067 Y-73.3581 Z-3.
(Line Move)
X80.5822 Y-71.5547 Z-3.
(Line Move)
X83.9997 Y-69.6489 Z-3.
(Line Move)
X87.044 Y-67.6961 Z-3.
(Line Move)
X89.7604 Y-65.6574 Z-3.
(Line Move)
X92.5562 Y-63.0188 Z-3.
(Line Move)
X95.1003 Y-60.1153 Z-3.
(Line Move)
X96.6261 Y-58.1321 Z-3.
(Line Move)
X98.3539 Y-55.2713 Z-3.
(Line Move)
X98.3904 Y-55.2256 Z-3.
(Line Move)
X98.4375 Y-55.1907 Z-3.
(Line Move)
X98.4918 Y-55.1691 Z-3.
(Line Move)
X98.55 Y-55.1622 Z-3.
(Line Move)
X98.6079 Y-55.1705 Z-3.
(Line Move)
X98.6618 Y-55.1933 Z-3.
(Line Move)
X98.708 Y-55.2292 Z-3.
(Line Move)
X98.7434 Y-55.2758 Z-3.
(Line Move)
X98.7657 Y-55.3299 Z-3.
(Line Move)
X98.7733 Y-55.388 Z-3.
(Line Move)
X98.7864 Y-74.1972 Z-3.
(Line Move)
X98.7694 Y-74.3266 Z-3.
(Line Move)
X98.7196 Y-74.4472 Z-3.
(Line Move)
X98.6402 Y-74.5508 Z-3.
(Line Move)
X98.5368 Y-74.6303 Z-3.
(Line Move)
X98.4162 Y-74.6804 Z-3.
(Line Move)
X98.2869 Y-74.6976 Z-3.
(Line Move)
X73.5929 Y-74.723 Z-3.
(Line Move)
X73.5605 Y-74.7189 Z-3.
(Line Move)
X73.5301 Y-74.7068 Z-3.
(Line Move)
X73.5038 Y-74.6874 Z-3.
(Line Move)
X73.4832 Y-74.6621 Z-3.
(Line Move)
X73.4696 Y-74.6324 Z-3.
(Line Move)
X73.4639 Y-74.6002 Z-3.
(Line Move)
X73.609 Y-74.4469 Z-3.
(Line Move)
X74.046 Y-74.3446 Z-3.
(Line Move)
X75.4127 Y-74.2246 Z-3.
(Line Move)
X76.7982 Y-74.1032 Z-3.
(Line Move)
X77.2587 Y-73.9992 Z-3.
(Line Move)
X77.4368 Y-73.8433 Z-3.
(Line Move)
X77.4379 Y-73.8013 Z-3.
(Line Move)
X77.4492 Y-73.7608 Z-3.
(Line Move)
X77.47 Y-73.7243 Z-3.
(Line Move)
X77.4991 Y-73.6939 Z-3.
(Line Move)
X77.5347 Y-73.6715 Z-3.
(Line Move)
X81.65 Y-71.7389 Z-3.
(Line Move)
X84.8229 Y-69.9298 Z-3.
(Line Move)
X87.6762 Y-68.0729 Z-3.
(Line Move)
X90.1567 Y-66.1855 Z-3.
(Line Move)
X92.8885 Y-63.6414 Z-3.
(Line Move)
X96.7506 Y-59.0869 Z-3.
(Line Move)
X97.6447 Y-57.7105 Z-3.
(Line Move)
X97.6852 Y-57.6628 Z-3.
(Line Move)
X97.7364 Y-57.627 Z-3.
(Line Move)
X97.7951 Y-57.6054 Z-3.
(Line Move)
X97.8573 Y-57.5993 Z-3.
(Line Move)
X97.919 Y-57.6093 Z-3.
(Line Move)
X97.9762 Y-57.6345 Z-3.
(Line Move)
X98.0251 Y-57.6735 Z-3.
(Line Move)
X98.0625 Y-57.7235 Z-3.
(Line Move)
X98.0861 Y-57.7815 Z-3.
(Line Move)
X98.0941 Y-57.8435 Z-3.
(Line Move)
X98.105 Y-73.5137 Z-3.
(Line Move)
X98.0925 Y-73.6251 Z-3.
(Line Move)
X98.0555 Y-73.7309 Z-3.
(Line Move)
X97.9959 Y-73.8258 Z-3.
(Line Move)
X97.9167 Y-73.905 Z-3.
(Line Move)
X97.8218 Y-73.9646 Z-3.
(Line Move)
X97.716 Y-74.0016 Z-3.
(Line Move)
X97.6046 Y-74.0141 Z-3.
(Line Move)
X77.6075 Y-73.9984 Z-3.
(Line Move)
X77.5658 Y-73.9932 Z-3.
(Line Move)
X77.5266 Y-73.9781 Z-3.
(Line Move)
X77.4922 Y-73.9538 Z-3.
(Line Move)
X77.4648 Y-73.9219 Z-3.
(Line Move)
X77.446 Y-73.8844 Z-3.
(Line Move)
X77.4368 Y-73.8433 Z-3.
(Line Move)
X77.513 Y-73.7001 Z-3.
(Line Move)
X77.7814 Y-73.622 Z-3.
(Line Move)
X78.646 Y-73.5735 Z-3.
(Line Move)
X79.5325 Y-73.5227 Z-3.
(Line Move)
X79.8283 Y-73.4418 Z-3.
(Line Move)
X79.9428 Y-73.2947 Z-3.
(Line Move)
X79.9436 Y-73.2513 Z-3.
(Line Move)
X79.9548 Y-73.2093 Z-3.
(Line Move)
X79.9758 Y-73.1713 Z-3.
(Line Move)
X80.0054 Y-73.1394 Z-3.
(Line Move)
X80.0418 Y-73.1157 Z-3.
(Line Move)
X82.5929 Y-71.8691 Z-3.
(Line Move)
X85.5453 Y-70.1518 Z-3.
(Line Move)
X88.2253 Y-68.3856 Z-3.
(Line Move)
X90.5805 Y-66.5888 Z-3.
(Line Move)
X93.2657 Y-64.0411 Z-3.
(Line Move)
X96.9501 Y-59.6488 Z-3.
(Line Move)
X97.0071 Y-59.5956 Z-3.
(Line Move)
X97.0753 Y-59.5577 Z-3.
(Line Move)
X97.1506 Y-59.5375 Z-3.
(Line Move)
X97.2286 Y-59.5361 Z-3.
(Line Move)
X97.3046 Y-59.5536 Z-3.
(Line Move)
X97.3741 Y-59.589 Z-3.
(Line Move)
X97.433 Y-59.6402 Z-3.
(Line Move)
X97.4778 Y-59.704 Z-3.
(Line Move)
X97.5058 Y-59.7768 Z-3.
(Line Move)
X97.5153 Y-59.8542 Z-3.
(Line Move)
X97.5244 Y-72.9332 Z-3.
(Line Move)
X97.5075 Y-73.0626 Z-3.
(Line Move)
X97.4576 Y-73.1832 Z-3.
(Line Move)
