(Start of Tape)

(Made in : UPC)
(G Code optimized for RS-CNC32 with GRBL V0.9j controller)

( PART NUMBER=1 )
( PART NAME=  )
( PROGRAMMER=  )
( OPERATION NUMBER=  )
( DATE=  )

G90 G17 G21 G80

(Init Tool Change)
(3MM CRB 2FL 15 LOC)
G53
G0 Z2 
G54
S0 M3
M9
G4 P1 
(Rapid From Tool Change)
G0 G90 X1.9197 Y38.8848
(Rapid Z Down)
Z3.
(Line Leadin Move)
G1 X3.0227 Y39.9879 Z2.9915 F562.5
(Arc Move)
G3 X3.1106 Y40.2 Z2.9902 I-.2121 J.2121
(Line Move)
G1 X3.1106 Y40.5 Z2.9886 F750.
(Line Move)
X3.1106 Y41.2886 Z2.9842
(Line Move)
X3.2047 Y42.913 Z2.9754
(Line Move)
X3.4042 Y44.6006 Z2.9661
(Line Move)
X3.7217 Y46.3494 Z2.9564
(Line Move)
X4.1705 Y48.156 Z2.9462
(Line Move)
X4.7644 Y50.0157 Z2.9355
(Line Move)
X5.5176 Y51.9224 Z2.9244
(Line Move)
X6.4445 Y53.8683 Z2.9126
(Line Move)
X7.5592 Y55.8439 Z2.9002
(Line Move)
X8.8753 Y57.8377 Z2.8871
(Line Move)
X10.4056 Y59.8364 Z2.8734
(Line Move)
X12.1614 Y61.8245 Z2.8589
(Line Move)
X14.1519 Y63.7848 Z2.8437
(Line Move)
X16.3838 Y65.6979 Z2.8276
(Line Move)
X18.8503 Y67.5351 Z2.8108
(Line Move)
X20.191 Y68.432 Z2.802
(Line Move)
X21.5819 Y69.2963 Z2.7931
(Line Move)
X23.0327 Y70.1321 Z2.7839
(Line Move)
X24.5424 Y70.9365 Z2.7746
(Line Move)
X26.1095 Y71.7064 Z2.765
(Line Move)
X27.7323 Y72.4389 Z2.7553
(Line Move)
X29.4087 Y73.131 Z2.7454
(Line Move)
X31.1363 Y73.7799 Z2.7353
(Line Move)
X32.9122 Y74.3829 Z2.7251
(Line Move)
X34.7334 Y74.9374 Z2.7147
(Line Move)
X36.5964 Y75.4407 Z2.7041
(Line Move)
X38.4974 Y75.8907 Z2.6935
(Line Move)
X40.4325 Y76.2852 Z2.6827
(Line Move)
X42.3972 Y76.6223 Z2.6718
(Line Move)
X44.3871 Y76.9005 Z2.6608
(Line Move)
X46.3973 Y77.1183 Z2.6498
(Line Move)
X48.4229 Y77.2746 Z2.6387
(Line Move)
X50.4588 Y77.3688 Z2.6276
(Line Move)
X52.5 Y77.4002 Z2.6164
(Line Move)
X54.5412 Y77.3688 Z2.6053
(Line Move)
X56.5771 Y77.2746 Z2.5941
(Line Move)
X58.6027 Y77.1183 Z2.583
(Line Move)
X60.6129 Y76.9005 Z2.572
(Line Move)
X62.6028 Y76.6223 Z2.561
(Line Move)
X64.5675 Y76.2852 Z2.5501
(Line Move)
X66.5026 Y75.8907 Z2.5394
(Line Move)
X68.4036 Y75.4407 Z2.5287
(Line Move)
X70.2666 Y74.9374 Z2.5181
(Line Move)
X72.0878 Y74.3829 Z2.5078
(Line Move)
X73.8637 Y73.7799 Z2.4975
(Line Move)
X75.5913 Y73.131 Z2.4874
(Line Move)
X77.2677 Y72.4389 Z2.4775
(Line Move)
X78.8905 Y71.7064 Z2.4678
(Line Move)
X80.4576 Y70.9365 Z2.4583
(Line Move)
X81.9673 Y70.1321 Z2.4489
(Line Move)
X83.4181 Y69.2963 Z2.4398
(Line Move)
X84.809 Y68.432 Z2.4308
(Line Move)
X86.1392 Y67.5421 Z2.4221
(Line Move)
X87.4185 Y66.6222 Z2.4135
(Line Move)
X89.7627 Y64.7485 Z2.3971
(Line Move)
X91.8732 Y62.8093 Z2.3815
(Line Move)
X93.7453 Y60.8328 Z2.3666
(Line Move)
X95.3871 Y58.8373 Z2.3525
(Line Move)
X96.8088 Y56.8393 Z2.3391
(Line Move)
X98.0225 Y54.853 Z2.3264
(Line Move)
X99.0415 Y52.891 Z2.3143
(Line Move)
X99.8798 Y50.9636 Z2.3028
(Line Move)
X100.5516 Y49.0796 Z2.2919
(Line Move)
X101.0712 Y47.2458 Z2.2815
(Line Move)
X101.4526 Y45.4676 Z2.2715
(Line Move)
X101.7095 Y43.749 Z2.2621
(Line Move)
X101.8548 Y42.0929 Z2.253
(Line Move)
X101.9009 Y40.4904 Z2.2442
(Line Move)
X101.8059 Y38.2025 Z2.2317
(Line Move)
X101.4982 Y35.7889 Z2.2184
(Line Move)
X101.1513 Y34.085 Z2.2089
(Line Move)
X100.506 Y31.7791 Z2.1959
(Line Move)
X100.0194 Y30.3978 Z2.1879
(Line Move)
X99.3631 Y28.8071 Z2.1785
(Line Move)
X98.4644 Y26.9573 Z2.1672
(Line Move)
X97.2371 Y24.8275 Z2.1538
(Line Move)
X96.4736 Y23.6633 Z2.1462
(Line Move)
X95.5895 Y22.4308 Z2.1379
(Line Move)
X94.5548 Y21.1164 Z2.1288
(Line Move)
X93.3434 Y19.7196 Z2.1187
(Line Move)
X91.925 Y18.2423 Z2.1075
(Line Move)
X90.2649 Y16.6894 Z2.0951
(Line Move)
X88.3235 Y15.0703 Z2.0813
(Line Move)
X86.0568 Y13.4002 Z2.0659
(Line Move)
X83.4282 Y11.7095 Z2.0488
(Line Move)
X81.9673 Y10.8679 Z2.0396
(Line Move)
X80.4576 Y10.0635 Z2.0303
(Line Move)
X78.8905 Y9.2936 Z2.0208
(Line Move)
X77.2677 Y8.5611 Z2.011
(Line Move)
X75.5913 Y7.869 Z2.0011
(Line Move)
X73.8637 Y7.2201 Z1.991
(Line Move)
X72.0878 Y6.6171 Z1.9808
(Line Move)
X70.2666 Y6.0626 Z1.9704
(Line Move)
X68.4036 Y5.5593 Z1.9599
(Line Move)
X66.5026 Y5.1093 Z1.9492
(Line Move)
X64.5675 Y4.7148 Z1.9384
(Line Move)
X62.6028 Y4.3777 Z1.9275
(Line Move)
X60.6129 Y4.0995 Z1.9166
(Line Move)
X58.6027 Y3.8817 Z1.9055
(Line Move)
X56.5771 Y3.7254 Z1.8944
(Line Move)
X54.5412 Y3.6312 Z1.8833
(Line Move)
X52.5 Y3.5998 Z1.8721
(Line Move)
X50.4588 Y3.6312 Z1.861
(Line Move)
X48.4229 Y3.7254 Z1.8499
(Line Move)
X46.3973 Y3.8817 Z1.8388
(Line Move)
X44.3871 Y4.0995 Z1.8277
(Line Move)
X42.3972 Y4.3777 Z1.8167
(Line Move)
X40.4325 Y4.7148 Z1.8059
(Line Move)
X38.4974 Y5.1093 Z1.7951
(Line Move)
X36.5964 Y5.5593 Z1.7844
(Line Move)
X34.7334 Y6.0626 Z1.7739
(Line Move)
X32.9122 Y6.6171 Z1.7635
(Line Move)
X31.1363 Y7.2201 Z1.7532
(Line Move)
X29.4087 Y7.869 Z1.7432
(Line Move)
X27.7323 Y8.5611 Z1.7332
(Line Move)
X26.1095 Y9.2936 Z1.7235
(Line Move)
X24.5424 Y10.0635 Z1.714
(Line Move)
X23.0327 Y10.8679 Z1.7046
(Line Move)
X21.5819 Y11.7037 Z1.6955
(Line Move)
X20.191 Y12.568 Z1.6866
(Line Move)
X18.8503 Y13.4649 Z1.6777
(Line Move)
X16.3838 Y15.3021 Z1.661
(Line Move)
X14.1519 Y17.2152 Z1.6449
(Line Move)
X12.1614 Y19.1755 Z1.6296
(Line Move)
X10.4056 Y21.1636 Z1.6152
(Line Move)
X8.8753 Y23.1623 Z1.6014
(Line Move)
X7.5592 Y25.1561 Z1.5884
(Line Move)
X6.4445 Y27.1317 Z1.576
(Line Move)
X5.5176 Y29.0776 Z1.5642
(Line Move)
X4.7644 Y30.9843 Z1.553
(Line Move)
X4.1705 Y32.844 Z1.5423
(Line Move)
X3.7217 Y34.6506 Z1.5322
(Line Move)
X3.4042 Y36.3994 Z1.5225
(Line Move)
X3.2047 Y38.087 Z1.5132
(Line Move)
X3.1106 Y39.7114 Z1.5043
(Line Move)
X3.1106 Y40.5 Z1.5
(Line Move)
X3.1106 Y41.2886 Z1.4978
(Line Move)
X3.2047 Y42.913 Z1.4934
(Line Move)
X3.4042 Y44.6006 Z1.4887
(Line Move)
X3.7217 Y46.3494 Z1.4838
(Line Move)
X4.1705 Y48.156 Z1.4787
(Line Move)
X4.7644 Y50.0157 Z1.4733
(Line Move)
X5.5176 Y51.9224 Z1.4677
(Line Move)
X6.4445 Y53.8683 Z1.4617
(Line Move)
X7.5592 Y55.8439 Z1.4555
(Line Move)
X8.8753 Y57.8377 Z1.4489
(Line Move)
X10.4056 Y59.8364 Z1.442
(Line Move)
X12.1614 Y61.8245 Z1.4347
(Line Move)
X14.1519 Y63.7848 Z1.427
(Line Move)
X16.3838 Y65.6979 Z1.4189
(Line Move)
X18.8503 Y67.5351 Z1.4104
(Line Move)
X20.191 Y68.432 Z1.406
(Line Move)
X21.5819 Y69.2963 Z1.4015
(Line Move)
X23.0327 Y70.1321 Z1.3969
(Line Move)
X24.5424 Y70.9365 Z1.3922
(Line Move)
X26.1095 Y71.7064 Z1.3874
(Line Move)
X27.7323 Y72.4389 Z1.3825
(Line Move)
X29.4087 Y73.131 Z1.3775
(Line Move)
X31.1363 Y73.7799 Z1.3724
(Line Move)
X32.9122 Y74.3829 Z1.3673
(Line Move)
X34.7334 Y74.9374 Z1.362
(Line Move)
X36.5964 Y75.4407 Z1.3567
(Line Move)
X38.4974 Y75.8907 Z1.3513
(Line Move)
X40.4325 Y76.2852 Z1.3459
(Line Move)
X42.3972 Y76.6223 Z1.3404
(Line Move)
X44.3871 Y76.9005 Z1.3349
(Line Move)
X46.3973 Y77.1183 Z1.3293
(Line Move)
X48.4229 Y77.2746 Z1.3237
(Line Move)
X50.4588 Y77.3688 Z1.3181
(Line Move)
X52.5 Y77.4002 Z1.3125
(Line Move)
X54.5412 Y77.3688 Z1.3069
(Line Move)
X56.5771 Y77.2746 Z1.3013
(Line Move)
X58.6027 Y77.1183 Z1.2957
(Line Move)
X60.6129 Y76.9005 Z1.2901
(Line Move)
X62.6028 Y76.6223 Z1.2846
(Line Move)
X64.5675 Y76.2852 Z1.2791
(Line Move)
X66.5026 Y75.8907 Z1.2737
(Line Move)
X68.4036 Y75.4407 Z1.2683
(Line Move)
X70.2666 Y74.9374 Z1.263
(Line Move)
X72.0878 Y74.3829 Z1.2577
(Line Move)
X73.8637 Y73.7799 Z1.2526
(Line Move)
X75.5913 Y73.131 Z1.2475
(Line Move)
X77.2677 Y72.4389 Z1.2425
(Line Move)
X78.8905 Y71.7064 Z1.2376
(Line Move)
X80.4576 Y70.9365 Z1.2328
(Line Move)
X81.9673 Y70.1321 Z1.2281
(Line Move)
X83.4181 Y69.2963 Z1.2235
(Line Move)
X84.809 Y68.432 Z1.219
(Line Move)
X86.1392 Y67.5421 Z1.2146
(Line Move)
X87.4185 Y66.6222 Z1.2103
(Line Move)
X89.7627 Y64.7485 Z1.202
(Line Move)
X91.8732 Y62.8093 Z1.1941
(Line Move)
X93.7453 Y60.8328 Z1.1866
(Line Move)
X95.3871 Y58.8373 Z1.1795
(Line Move)
X96.8088 Y56.8393 Z1.1728
(Line Move)
X98.0225 Y54.853 Z1.1664
(Line Move)
X99.0415 Y52.891 Z1.1603
(Line Move)
X99.8798 Y50.9636 Z1.1545
(Line Move)
X100.5516 Y49.0796 Z1.149
(Line Move)
X101.0712 Y47.2458 Z1.1437
(Line Move)
X101.4526 Y45.4676 Z1.1387
(Line Move)
X101.7095 Y43.749 Z1.134
(Line Move)
X101.8548 Y42.0929 Z1.1294
(Line Move)
X101.9009 Y40.4904 Z1.125
(Line Move)
X101.8059 Y38.2025 Z1.1187
(Line Move)
X101.4982 Y35.7889 Z1.112
(Line Move)
X101.1513 Y34.085 Z1.1072
(Line Move)
X100.506 Y31.7791 Z1.1006
(Line Move)
X100.0194 Y30.3978 Z1.0966
(Line Move)
X99.3631 Y28.8071 Z1.0918
(Line Move)
X98.4644 Y26.9573 Z1.0862
(Line Move)
X97.2371 Y24.8275 Z1.0794
(Line Move)
X96.4736 Y23.6633 Z1.0756
(Line Move)
X95.5895 Y22.4308 Z1.0714
(Line Move)
X94.5548 Y21.1164 Z1.0668
(Line Move)
X93.3434 Y19.7196 Z1.0617
(Line Move)
X91.925 Y18.2423 Z1.0561
(Line Move)
X90.2649 Y16.6894 Z1.0498
(Line Move)
X88.3235 Y15.0703 Z1.0429
(Line Move)
X86.0568 Y13.4002 Z1.0351
(Line Move)
X83.4282 Y11.7095 Z1.0265
(Line Move)
X81.9673 Y10.8679 Z1.0219
(Line Move)
X80.4576 Y10.0635 Z1.0172
(Line Move)
X78.8905 Y9.2936 Z1.0124
(Line Move)
X77.2677 Y8.5611 Z1.0075
(Line Move)
X75.5913 Y7.869 Z1.0025
(Line Move)
X73.8637 Y7.2201 Z.9974
(Line Move)
X72.0878 Y6.6171 Z.9923
(Line Move)
X70.2666 Y6.0626 Z.987
(Line Move)
X68.4036 Y5.5593 Z.9817
(Line Move)
X66.5026 Y5.1093 Z.9763
(Line Move)
X64.5675 Y4.7148 Z.9709
(Line Move)
X62.6028 Y4.3777 Z.9654
(Line Move)
X60.6129 Y4.0995 Z.9599
(Line Move)
X58.6027 Y3.8817 Z.9543
(Line Move)
X56.5771 Y3.7254 Z.9487
(Line Move)
X54.5412 Y3.6312 Z.9431
(Line Move)
X52.5 Y3.5998 Z.9375
(Line Move)
X50.4588 Y3.6312 Z.9319
(Line Move)
X48.4229 Y3.7254 Z.9263
(Line Move)
X46.3973 Y3.8817 Z.9207
(Line Move)
X44.3871 Y4.0995 Z.9151
(Line Move)
X42.3972 Y4.3777 Z.9096
(Line Move)
X40.4325 Y4.7148 Z.9041
(Line Move)
X38.4974 Y5.1093 Z.8987
(Line Move)
X36.5964 Y5.5593 Z.8933
(Line Move)
X34.7334 Y6.0626 Z.888
(Line Move)
X32.9122 Y6.6171 Z.8827
(Line Move)
X31.1363 Y7.2201 Z.8776
(Line Move)
X29.4087 Y7.869 Z.8725
(Line Move)
X27.7323 Y8.5611 Z.8675
(Line Move)
X26.1095 Y9.2936 Z.8626
(Line Move)
X24.5424 Y10.0635 Z.8578
(Line Move)
X23.0327 Y10.8679 Z.8531
(Line Move)
X21.5819 Y11.7037 Z.8485
(Line Move)
X20.191 Y12.568 Z.844
(Line Move)
X18.8503 Y13.4649 Z.8396
(Line Move)
X16.3838 Y15.3021 Z.8311
(Line Move)
X14.1519 Y17.2152 Z.823
(Line Move)
X12.1614 Y19.1755 Z.8153
(Line Move)
X10.4056 Y21.1636 Z.808
(Line Move)
X8.8753 Y23.1623 Z.8011
(Line Move)
X7.5592 Y25.1561 Z.7945
(Line Move)
X6.4445 Y27.1317 Z.7883
(Line Move)
X5.5176 Y29.0776 Z.7823
(Line Move)
X4.7644 Y30.9843 Z.7767
(Line Move)
X4.1705 Y32.844 Z.7713
(Line Move)
X3.7217 Y34.6506 Z.7662
(Line Move)
X3.4042 Y36.3994 Z.7613
(Line Move)
X3.2047 Y38.087 Z.7566
(Line Move)
X3.1106 Y39.7114 Z.7522
(Line Move)
X3.1106 Y40.5 Z.75
(Line Move)
X3.1106 Y41.2886 Z.7478
(Line Move)
X3.2047 Y42.913 Z.7434
(Line Move)
X3.4042 Y44.6006 Z.7387
(Line Move)
X3.7217 Y46.3494 Z.7338
(Line Move)
X4.1705 Y48.156 Z.7287
(Line Move)
X4.7644 Y50.0157 Z.7233
(Line Move)
X5.5176 Y51.9224 Z.7177
(Line Move)
X6.4445 Y53.8683 Z.7117
(Line Move)
X7.5592 Y55.8439 Z.7055
(Line Move)
X8.8753 Y57.8377 Z.6989
(Line Move)
X10.4056 Y59.8364 Z.692
(Line Move)
X12.1614 Y61.8245 Z.6847
(Line Move)
X14.1519 Y63.7848 Z.677
(Line Move)
X16.3838 Y65.6979 Z.6689
(Line Move)
X18.8503 Y67.5351 Z.6604
(Line Move)
X20.191 Y68.432 Z.656
(Line Move)
X21.5819 Y69.2963 Z.6515
(Line Move)
X23.0327 Y70.1321 Z.6469
(Line Move)
X24.5424 Y70.9365 Z.6422
(Line Move)
X26.1095 Y71.7064 Z.6374
(Line Move)
X27.7323 Y72.4389 Z.6325
(Line Move)
X29.4087 Y73.131 Z.6275
(Line Move)
X31.1363 Y73.7799 Z.6224
(Line Move)
X32.9122 Y74.3829 Z.6173
(Line Move)
X34.7334 Y74.9374 Z.612
(Line Move)
X36.5964 Y75.4407 Z.6067
(Line Move)
X38.4974 Y75.8907 Z.6013
(Line Move)
X40.4325 Y76.2852 Z.5959
(Line Move)
X42.3972 Y76.6223 Z.5904
(Line Move)
X44.3871 Y76.9005 Z.5849
(Line Move)
X46.3973 Y77.1183 Z.5793
(Line Move)
X48.4229 Y77.2746 Z.5737
(Line Move)
X50.4588 Y77.3688 Z.5681
(Line Move)
X52.5 Y77.4002 Z.5625
(Line Move)
X54.5412 Y77.3688 Z.5569
(Line Move)
X56.5771 Y77.2746 Z.5513
(Line Move)
X58.6027 Y77.1183 Z.5457
(Line Move)
X60.6129 Y76.9005 Z.5401
(Line Move)
X62.6028 Y76.6223 Z.5346
(Line Move)
X64.5675 Y76.2852 Z.5291
(Line Move)
X66.5026 Y75.8907 Z.5237
(Line Move)
X68.4036 Y75.4407 Z.5183
(Line Move)
X70.2666 Y74.9374 Z.513
(Line Move)
X72.0878 Y74.3829 Z.5077
(Line Move)
X73.8637 Y73.7799 Z.5026
(Line Move)
X75.5913 Y73.131 Z.4975
(Line Move)
X77.2677 Y72.4389 Z.4925
(Line Move)
X78.8905 Y71.7064 Z.4876
(Line Move)
X80.4576 Y70.9365 Z.4828
(Line Move)
X81.9673 Y70.1321 Z.4781
(Line Move)
X83.4181 Y69.2963 Z.4735
(Line Move)
X84.809 Y68.432 Z.469
(Line Move)
X86.1392 Y67.5421 Z.4646
(Line Move)
X87.4185 Y66.6222 Z.4603
(Line Move)
X89.7627 Y64.7485 Z.452
(Line Move)
X91.8732 Y62.8093 Z.4441
(Line Move)
X93.7453 Y60.8328 Z.4366
(Line Move)
X95.3871 Y58.8373 Z.4295
(Line Move)
X96.8088 Y56.8393 Z.4228
(Line Move)
X98.0225 Y54.853 Z.4164
(Line Move)
X99.0415 Y52.891 Z.4103
(Line Move)
X99.8798 Y50.9636 Z.4045
(Line Move)
X100.5516 Y49.0796 Z.399
(Line Move)
X101.0712 Y47.2458 Z.3937
(Line Move)
X101.4526 Y45.4676 Z.3887
(Line Move)
X101.7095 Y43.749 Z.384
(Line Move)
X101.8548 Y42.0929 Z.3794
(Line Move)
X101.9009 Y40.4904 Z.375
(Line Move)
X101.8059 Y38.2025 Z.3687
(Line Move)
X101.4982 Y35.7889 Z.362
(Line Move)
X101.1513 Y34.085 Z.3572
(Line Move)
X100.506 Y31.7791 Z.3506
(Line Move)
X100.0194 Y30.3978 Z.3466
(Line Move)
X99.3631 Y28.8071 Z.3418
(Line Move)
X98.4644 Y26.9573 Z.3362
(Line Move)
X97.2371 Y24.8275 Z.3294
(Line Move)
X96.4736 Y23.6633 Z.3256
(Line Move)
X95.5895 Y22.4308 Z.3214
(Line Move)
X94.5548 Y21.1164 Z.3168
(Line Move)
X93.3434 Y19.7196 Z.3117
(Line Move)
X91.925 Y18.2423 Z.3061
(Line Move)
X90.2649 Y16.6894 Z.2998
(Line Move)
X88.3235 Y15.0703 Z.2929
(Line Move)
X86.0568 Y13.4002 Z.2851
(Line Move)
X83.4282 Y11.7095 Z.2765
(Line Move)
X81.9673 Y10.8679 Z.2719
(Line Move)
X80.4576 Y10.0635 Z.2672
(Line Move)
X78.8905 Y9.2936 Z.2624
(Line Move)
X77.2677 Y8.5611 Z.2575
(Line Move)
X75.5913 Y7.869 Z.2525
(Line Move)
X73.8637 Y7.2201 Z.2474
(Line Move)
X72.0878 Y6.6171 Z.2423
(Line Move)
X70.2666 Y6.0626 Z.237
(Line Move)
X68.4036 Y5.5593 Z.2317
(Line Move)
X66.5026 Y5.1093 Z.2263
(Line Move)
X64.5675 Y4.7148 Z.2209
(Line Move)
X62.6028 Y4.3777 Z.2154
(Line Move)
X60.6129 Y4.0995 Z.2099
(Line Move)
X58.6027 Y3.8817 Z.2043
(Line Move)
X56.5771 Y3.7254 Z.1987
(Line Move)
X54.5412 Y3.6312 Z.1931
(Line Move)
X52.5 Y3.5998 Z.1875
(Line Move)
X50.4588 Y3.6312 Z.1819
(Line Move)
X48.4229 Y3.7254 Z.1763
(Line Move)
X46.3973 Y3.8817 Z.1707
(Line Move)
X44.3871 Y4.0995 Z.1651
(Line Move)
X42.3972 Y4.3777 Z.1596
(Line Move)
X40.4325 Y4.7148 Z.1541
(Line Move)
X38.4974 Y5.1093 Z.1487
(Line Move)
X36.5964 Y5.5593 Z.1433
(Line Move)
X34.7334 Y6.0626 Z.138
(Line Move)
X32.9122 Y6.6171 Z.1327
(Line Move)
X31.1363 Y7.2201 Z.1276
(Line Move)
X29.4087 Y7.869 Z.1225
(Line Move)
X27.7323 Y8.5611 Z.1175
(Line Move)
X26.1095 Y9.2936 Z.1126
(Line Move)
X24.5424 Y10.0635 Z.1078
(Line Move)
X23.0327 Y10.8679 Z.1031
(Line Move)
X21.5819 Y11.7037 Z.0985
(Line Move)
X20.191 Y12.568 Z.094
(Line Move)
X18.8503 Y13.4649 Z.0896
(Line Move)
X16.3838 Y15.3021 Z.0811
(Line Move)
X14.1519 Y17.2152 Z.073
(Line Move)
X12.1614 Y19.1755 Z.0653
(Line Move)
X10.4056 Y21.1636 Z.058
(Line Move)
X8.8753 Y23.1623 Z.0511
(Line Move)
X7.5592 Y25.1561 Z.0445
(Line Move)
X6.4445 Y27.1317 Z.0383
(Line Move)
X5.5176 Y29.0776 Z.0323
(Line Move)
X4.7644 Y30.9843 Z.0267
(Line Move)
X4.1705 Y32.844 Z.0213
(Line Move)
X3.7217 Y34.6506 Z.0162
(Line Move)
X3.4042 Y36.3994 Z.0113
(Line Move)
X3.2047 Y38.087 Z.0066
(Line Move)
X3.1106 Y39.7114 Z.0022
(Line Move)
X3.1106 Y40.5 Z0
(Line Move)
X3.1106 Y41.2886 Z-.0022
(Line Move)
X3.2047 Y42.913 Z-.0066
(Line Move)
X3.4042 Y44.6006 Z-.0113
(Line Move)
X3.7217 Y46.3494 Z-.0162
(Line Move)
X4.1705 Y48.156 Z-.0213
(Line Move)
X4.7644 Y50.0157 Z-.0267
(Line Move)
X5.5176 Y51.9224 Z-.0323
(Line Move)
X6.4445 Y53.8683 Z-.0383
(Line Move)
X7.5592 Y55.8439 Z-.0445
(Line Move)
X8.8753 Y57.8377 Z-.0511
(Line Move)
X10.4056 Y59.8364 Z-.058
(Line Move)
X12.1614 Y61.8245 Z-.0653
(Line Move)
X14.1519 Y63.7848 Z-.073
(Line Move)
X16.3838 Y65.6979 Z-.0811
(Line Move)
X18.8503 Y67.5351 Z-.0896
(Line Move)
X20.191 Y68.432 Z-.094
(Line Move)
X21.5819 Y69.2963 Z-.0985
(Line Move)
X23.0327 Y70.1321 Z-.1031
(Line Move)
X24.5424 Y70.9365 Z-.1078
(Line Move)
X26.1095 Y71.7064 Z-.1126
(Line Move)
X27.7323 Y72.4389 Z-.1175
(Line Move)
X29.4087 Y73.131 Z-.1225
(Line Move)
X31.1363 Y73.7799 Z-.1276
(Line Move)
X32.9122 Y74.3829 Z-.1327
(Line Move)
X34.7334 Y74.9374 Z-.138
(Line Move)
X36.5964 Y75.4407 Z-.1433
(Line Move)
X38.4974 Y75.8907 Z-.1487
(Line Move)
X40.4325 Y76.2852 Z-.1541
(Line Move)
X42.3972 Y76.6223 Z-.1596
(Line Move)
X44.3871 Y76.9005 Z-.1651
(Line Move)
X46.3973 Y77.1183 Z-.1707
(Line Move)
X48.4229 Y77.2746 Z-.1763
(Line Move)
X50.4588 Y77.3688 Z-.1819
(Line Move)
X52.5 Y77.4002 Z-.1875
(Line Move)
X54.5412 Y77.3688 Z-.1931
(Line Move)
X56.5771 Y77.2746 Z-.1987
(Line Move)
X58.6027 Y77.1183 Z-.2043
(Line Move)
X60.6129 Y76.9005 Z-.2099
(Line Move)
X62.6028 Y76.6223 Z-.2154
(Line Move)
X64.5675 Y76.2852 Z-.2209
(Line Move)
X66.5026 Y75.8907 Z-.2263
(Line Move)
X68.4036 Y75.4407 Z-.2317
(Line Move)
X70.2666 Y74.9374 Z-.237
(Line Move)
X72.0878 Y74.3829 Z-.2423
(Line Move)
X73.8637 Y73.7799 Z-.2474
(Line Move)
X75.5913 Y73.131 Z-.2525
(Line Move)
X77.2677 Y72.4389 Z-.2575
(Line Move)
X78.8905 Y71.7064 Z-.2624
(Line Move)
X80.4576 Y70.9365 Z-.2672
(Line Move)
X81.9673 Y70.1321 Z-.2719
(Line Move)
X83.4181 Y69.2963 Z-.2765
(Line Move)
X84.809 Y68.432 Z-.281
(Line Move)
X86.1392 Y67.5421 Z-.2854
(Line Move)
X87.4185 Y66.6222 Z-.2897
(Line Move)
X89.7627 Y64.7485 Z-.298
(Line Move)
X91.8732 Y62.8093 Z-.3059
(Line Move)
X93.7453 Y60.8328 Z-.3134
(Line Move)
X95.3871 Y58.8373 Z-.3205
(Line Move)
X96.8088 Y56.8393 Z-.3272
(Line Move)
X98.0225 Y54.853 Z-.3336
(Line Move)
X99.0415 Y52.891 Z-.3397
(Line Move)
X99.8798 Y50.9636 Z-.3455
(Line Move)
X100.5516 Y49.0796 Z-.351
(Line Move)
X101.0712 Y47.2458 Z-.3563
(Line Move)
X101.4526 Y45.4676 Z-.3613
(Line Move)
X101.7095 Y43.749 Z-.366
(Line Move)
X101.8548 Y42.0929 Z-.3706
(Line Move)
X101.9009 Y40.4904 Z-.375
(Line Move)
X101.8059 Y38.2025 Z-.3813
(Line Move)
X101.4982 Y35.7889 Z-.388
(Line Move)
X101.1513 Y34.085 Z-.3928
(Line Move)
X100.506 Y31.7791 Z-.3994
(Line Move)
X100.0194 Y30.3978 Z-.4034
(Line Move)
X99.3631 Y28.8071 Z-.4082
(Line Move)
X98.4644 Y26.9573 Z-.4138
(Line Move)
X97.2371 Y24.8275 Z-.4206
(Line Move)
X96.4736 Y23.6633 Z-.4244
(Line Move)
X95.5895 Y22.4308 Z-.4286
(Line Move)
X94.5548 Y21.1164 Z-.4332
(Line Move)
X93.3434 Y19.7196 Z-.4383
(Line Move)
X91.925 Y18.2423 Z-.4439
(Line Move)
X90.2649 Y16.6894 Z-.4502
(Line Move)
X88.3235 Y15.0703 Z-.4571
(Line Move)
X86.0568 Y13.4002 Z-.4649
(Line Move)
X83.4282 Y11.7095 Z-.4735
(Line Move)
X81.9673 Y10.8679 Z-.4781
(Line Move)
X80.4576 Y10.0635 Z-.4828
(Line Move)
X78.8905 Y9.2936 Z-.4876
(Line Move)
X77.2677 Y8.5611 Z-.4925
(Line Move)
X75.5913 Y7.869 Z-.4975
(Line Move)
X73.8637 Y7.2201 Z-.5026
(Line Move)
X72.0878 Y6.6171 Z-.5077
(Line Move)
X70.2666 Y6.0626 Z-.513
(Line Move)
X68.4036 Y5.5593 Z-.5183
(Line Move)
X66.5026 Y5.1093 Z-.5237
(Line Move)
X64.5675 Y4.7148 Z-.5291
(Line Move)
X62.6028 Y4.3777 Z-.5346
(Line Move)
X60.6129 Y4.0995 Z-.5401
(Line Move)
X58.6027 Y3.8817 Z-.5457
(Line Move)
X56.5771 Y3.7254 Z-.5513
(Line Move)
X54.5412 Y3.6312 Z-.5569
(Line Move)
X52.5 Y3.5998 Z-.5625
(Line Move)
X50.4588 Y3.6312 Z-.5681
(Line Move)
X48.4229 Y3.7254 Z-.5737
(Line Move)
X46.3973 Y3.8817 Z-.5793
(Line Move)
X44.3871 Y4.0995 Z-.5849
(Line Move)
X42.3972 Y4.3777 Z-.5904
(Line Move)
X40.4325 Y4.7148 Z-.5959
(Line Move)
X38.4974 Y5.1093 Z-.6013
(Line Move)
X36.5964 Y5.5593 Z-.6067
(Line Move)
X34.7334 Y6.0626 Z-.612
(Line Move)
X32.9122 Y6.6171 Z-.6173
(Line Move)
X31.1363 Y7.2201 Z-.6224
(Line Move)
X29.4087 Y7.869 Z-.6275
(Line Move)
X27.7323 Y8.5611 Z-.6325
(Line Move)
X26.1095 Y9.2936 Z-.6374
(Line Move)
X24.5424 Y10.0635 Z-.6422
(Line Move)
X23.0327 Y10.8679 Z-.6469
(Line Move)
X21.5819 Y11.7037 Z-.6515
(Line Move)
X20.191 Y12.568 Z-.656
(Line Move)
X18.8503 Y13.4649 Z-.6604
(Line Move)
X16.3838 Y15.3021 Z-.6689
(Line Move)
X14.1519 Y17.2152 Z-.677
(Line Move)
X12.1614 Y19.1755 Z-.6847
(Line Move)
X10.4056 Y21.1636 Z-.692
(Line Move)
X8.8753 Y23.1623 Z-.6989
(Line Move)
X7.5592 Y25.1561 Z-.7055
(Line Move)
X6.4445 Y27.1317 Z-.7117
(Line Move)
X5.5176 Y29.0776 Z-.7177
(Line Move)
X4.7644 Y30.9843 Z-.7233
(Line Move)
X4.1705 Y32.844 Z-.7287
(Line Move)
X3.7217 Y34.6506 Z-.7338
(Line Move)
X3.4042 Y36.3994 Z-.7387
(Line Move)
X3.2047 Y38.087 Z-.7434
(Line Move)
X3.1106 Y39.7114 Z-.7478
(Line Move)
X3.1106 Y40.5 Z-.75
(Line Move)
X3.1106 Y41.2886 Z-.7522
(Line Move)
X3.2047 Y42.913 Z-.7566
(Line Move)
X3.4042 Y44.6006 Z-.7613
(Line Move)
X3.7217 Y46.3494 Z-.7662
(Line Move)
X4.1705 Y48.156 Z-.7713
(Line Move)
X4.7644 Y50.0157 Z-.7767
(Line Move)
X5.5176 Y51.9224 Z-.7823
(Line Move)
X6.4445 Y53.8683 Z-.7883
(Line Move)
X7.5592 Y55.8439 Z-.7945
(Line Move)
X8.8753 Y57.8377 Z-.8011
(Line Move)
X10.4056 Y59.8364 Z-.808
(Line Move)
X12.1614 Y61.8245 Z-.8153
(Line Move)
X14.1519 Y63.7848 Z-.823
(Line Move)
X16.3838 Y65.6979 Z-.8311
(Line Move)
X18.8503 Y67.5351 Z-.8396
(Line Move)
X20.191 Y68.432 Z-.844
(Line Move)
X21.5819 Y69.2963 Z-.8485
(Line Move)
X23.0327 Y70.1321 Z-.8531
(Line Move)
X24.5424 Y70.9365 Z-.8578
(Line Move)
X26.1095 Y71.7064 Z-.8626
(Line Move)
X27.7323 Y72.4389 Z-.8675
(Line Move)
X29.4087 Y73.131 Z-.8725
(Line Move)
X31.1363 Y73.7799 Z-.8776
(Line Move)
X32.9122 Y74.3829 Z-.8827
(Line Move)
X34.7334 Y74.9374 Z-.888
(Line Move)
X36.5964 Y75.4407 Z-.8933
(Line Move)
X38.4974 Y75.8907 Z-.8987
(Line Move)
X40.4325 Y76.2852 Z-.9041
(Line Move)
X42.3972 Y76.6223 Z-.9096
(Line Move)
X44.3871 Y76.9005 Z-.9151
(Line Move)
X46.3973 Y77.1183 Z-.9207
(Line Move)
X48.4229 Y77.2746 Z-.9263
(Line Move)
X50.4588 Y77.3688 Z-.9319
(Line Move)
X52.5 Y77.4002 Z-.9375
(Line Move)
X54.5412 Y77.3688 Z-.9431
(Line Move)
X56.5771 Y77.2746 Z-.9487
(Line Move)
X58.6027 Y77.1183 Z-.9543
(Line Move)
X60.6129 Y76.9005 Z-.9599
(Line Move)
X62.6028 Y76.6223 Z-.9654
(Line Move)
X64.5675 Y76.2852 Z-.9709
(Line Move)
X66.5026 Y75.8907 Z-.9763
(Line Move)
X68.4036 Y75.4407 Z-.9817
(Line Move)
X70.2666 Y74.9374 Z-.987
(Line Move)
X72.0878 Y74.3829 Z-.9923
(Line Move)
X73.8637 Y73.7799 Z-.9974
(Line Move)
X75.5913 Y73.131 Z-1.0025
(Line Move)
X77.2677 Y72.4389 Z-1.0075
(Line Move)
X78.8905 Y71.7064 Z-1.0124
(Line Move)
X80.4576 Y70.9365 Z-1.0172
(Line Move)
X81.9673 Y70.1321 Z-1.0219
(Line Move)
X83.4181 Y69.2963 Z-1.0265
(Line Move)
X84.809 Y68.432 Z-1.031
(Line Move)
X86.1392 Y67.5421 Z-1.0354
(Line Move)
X87.4185 Y66.6222 Z-1.0397
(Line Move)
X89.7627 Y64.7485 Z-1.048
(Line Move)
X91.8732 Y62.8093 Z-1.0559
(Line Move)
X93.7453 Y60.8328 Z-1.0634
(Line Move)
X95.3871 Y58.8373 Z-1.0705
(Line Move)
X96.8088 Y56.8393 Z-1.0772
(Line Move)
X98.0225 Y54.853 Z-1.0836
(Line Move)
X99.0415 Y52.891 Z-1.0897
(Line Move)
X99.8798 Y50.9636 Z-1.0955
(Line Move)
X100.5516 Y49.0796 Z-1.101
(Line Move)
X101.0712 Y47.2458 Z-1.1063
(Line Move)
X101.4526 Y45.4676 Z-1.1113
(Line Move)
X101.7095 Y43.749 Z-1.116
(Line Move)
X101.8548 Y42.0929 Z-1.1206
(Line Move)
X101.9009 Y40.4904 Z-1.125
(Line Move)
X101.8059 Y38.2025 Z-1.1313
(Line Move)
X101.4982 Y35.7889 Z-1.138
(Line Move)
X101.1513 Y34.085 Z-1.1428
(Line Move)
X100.506 Y31.7791 Z-1.1494
(Line Move)
X100.0194 Y30.3978 Z-1.1534
(Line Move)
X99.3631 Y28.8071 Z-1.1582
(Line Move)
X98.4644 Y26.9573 Z-1.1638
(Line Move)
X97.2371 Y24.8275 Z-1.1706
(Line Move)
X96.4736 Y23.6633 Z-1.1744
(Line Move)
X95.5895 Y22.4308 Z-1.1786
(Line Move)
X94.5548 Y21.1164 Z-1.1832
(Line Move)
X93.3434 Y19.7196 Z-1.1883
(Line Move)
X91.925 Y18.2423 Z-1.1939
(Line Move)
X90.2649 Y16.6894 Z-1.2002
(Line Move)
X88.3235 Y15.0703 Z-1.2071
(Line Move)
X86.0568 Y13.4002 Z-1.2149
(Line Move)
X83.4282 Y11.7095 Z-1.2235
(Line Move)
X81.9673 Y10.8679 Z-1.2281
(Line Move)
X80.4576 Y10.0635 Z-1.2328
(Line Move)
X78.8905 Y9.2936 Z-1.2376
(Line Move)
X77.2677 Y8.5611 Z-1.2425
(Line Move)
X75.5913 Y7.869 Z-1.2475
(Line Move)
X73.8637 Y7.2201 Z-1.2526
(Line Move)
X72.0878 Y6.6171 Z-1.2577
(Line Move)
X70.2666 Y6.0626 Z-1.263
(Line Move)
X68.4036 Y5.5593 Z-1.2683
(Line Move)
X66.5026 Y5.1093 Z-1.2737
(Line Move)
X64.5675 Y4.7148 Z-1.2791
(Line Move)
X62.6028 Y4.3777 Z-1.2846
(Line Move)
X60.6129 Y4.0995 Z-1.2901
(Line Move)
X58.6027 Y3.8817 Z-1.2957
(Line Move)
X56.5771 Y3.7254 Z-1.3013
(Line Move)
X54.5412 Y3.6312 Z-1.3069
(Line Move)
X52.5 Y3.5998 Z-1.3125
(Line Move)
X50.4588 Y3.6312 Z-1.3181
(Line Move)
X48.4229 Y3.7254 Z-1.3237
(Line Move)
X46.3973 Y3.8817 Z-1.3293
(Line Move)
X44.3871 Y4.0995 Z-1.3349
(Line Move)
X42.3972 Y4.3777 Z-1.3404
(Line Move)
X40.4325 Y4.7148 Z-1.3459
(Line Move)
X38.4974 Y5.1093 Z-1.3513
(Line Move)
X36.5964 Y5.5593 Z-1.3567
(Line Move)
X34.7334 Y6.0626 Z-1.362
(Line Move)
X32.9122 Y6.6171 Z-1.3673
(Line Move)
X31.1363 Y7.2201 Z-1.3724
(Line Move)
X29.4087 Y7.869 Z-1.3775
(Line Move)
X27.7323 Y8.5611 Z-1.3825
(Line Move)
X26.1095 Y9.2936 Z-1.3874
(Line Move)
X24.5424 Y10.0635 Z-1.3922
(Line Move)
X23.0327 Y10.8679 Z-1.3969
(Line Move)
X21.5819 Y11.7037 Z-1.4015
(Line Move)
X20.191 Y12.568 Z-1.406
(Line Move)
X18.8503 Y13.4649 Z-1.4104
(Line Move)
X16.3838 Y15.3021 Z-1.4189
(Line Move)
X14.1519 Y17.2152 Z-1.427
(Line Move)
X12.1614 Y19.1755 Z-1.4347
(Line Move)
X10.4056 Y21.1636 Z-1.442
(Line Move)
X8.8753 Y23.1623 Z-1.4489
(Line Move)
X7.5592 Y25.1561 Z-1.4555
(Line Move)
X6.4445 Y27.1317 Z-1.4617
(Line Move)
X5.5176 Y29.0776 Z-1.4677
(Line Move)
X4.7644 Y30.9843 Z-1.4733
(Line Move)
X4.1705 Y32.844 Z-1.4787
(Line Move)
X3.7217 Y34.6506 Z-1.4838
(Line Move)
X3.4042 Y36.3994 Z-1.4887
(Line Move)
X3.2047 Y38.087 Z-1.4934
(Line Move)
X3.1106 Y39.7114 Z-1.4978
(Line Move)
X3.1106 Y40.5 Z-1.5
(Line Move)
X3.1106 Y41.2886 Z-1.5022
(Line Move)
X3.2047 Y42.913 Z-1.5066
(Line Move)
X3.4042 Y44.6006 Z-1.5113
(Line Move)
X3.7217 Y46.3494 Z-1.5162
(Line Move)
X4.1705 Y48.156 Z-1.5213
(Line Move)
X4.7644 Y50.0157 Z-1.5267
(Line Move)
X5.5176 Y51.9224 Z-1.5323
(Line Move)
X6.4445 Y53.8683 Z-1.5383
(Line Move)
X7.5592 Y55.8439 Z-1.5445
(Line Move)
X8.8753 Y57.8377 Z-1.5511
(Line Move)
X10.4056 Y59.8364 Z-1.558
(Line Move)
X12.1614 Y61.8245 Z-1.5653
(Line Move)
X14.1519 Y63.7848 Z-1.573
(Line Move)
X16.3838 Y65.6979 Z-1.5811
(Line Move)
X18.8503 Y67.5351 Z-1.5896
(Line Move)
X20.191 Y68.432 Z-1.594
(Line Move)
X21.5819 Y69.2963 Z-1.5985
(Line Move)
X23.0327 Y70.1321 Z-1.6031
(Line Move)
X24.5424 Y70.9365 Z-1.6078
(Line Move)
X26.1095 Y71.7064 Z-1.6126
(Line Move)
X27.7323 Y72.4389 Z-1.6175
(Line Move)
X29.4087 Y73.131 Z-1.6225
(Line Move)
X31.1363 Y73.7799 Z-1.6276
(Line Move)
X32.9122 Y74.3829 Z-1.6327
(Line Move)
X34.7334 Y74.9374 Z-1.638
(Line Move)
X36.5964 Y75.4407 Z-1.6433
(Line Move)
X38.4974 Y75.8907 Z-1.6487
(Line Move)
X40.4325 Y76.2852 Z-1.6541
(Line Move)
X42.3972 Y76.6223 Z-1.6596
(Line Move)
X44.3871 Y76.9005 Z-1.6651
(Line Move)
X46.3973 Y77.1183 Z-1.6707
(Line Move)
X48.4229 Y77.2746 Z-1.6763
(Line Move)
X50.4588 Y77.3688 Z-1.6819
(Line Move)
X52.5 Y77.4002 Z-1.6875
(Line Move)
X54.5412 Y77.3688 Z-1.6931
(Line Move)
X56.5771 Y77.2746 Z-1.6987
(Line Move)
X58.6027 Y77.1183 Z-1.7043
(Line Move)
X60.6129 Y76.9005 Z-1.7099
(Line Move)
X62.6028 Y76.6223 Z-1.7154
(Line Move)
X64.5675 Y76.2852 Z-1.7209
(Line Move)
X66.5026 Y75.8907 Z-1.7263
(Line Move)
X68.4036 Y75.4407 Z-1.7317
(Line Move)
X70.2666 Y74.9374 Z-1.737
(Line Move)
X72.0878 Y74.3829 Z-1.7423
(Line Move)
X73.8637 Y73.7799 Z-1.7474
(Line Move)
X75.5913 Y73.131 Z-1.7525
(Line Move)
X77.2677 Y72.4389 Z-1.7575
(Line Move)
X78.8905 Y71.7064 Z-1.7624
(Line Move)
X80.4576 Y70.9365 Z-1.7672
(Line Move)
X81.9673 Y70.1321 Z-1.7719
(Line Move)
X83.4181 Y69.2963 Z-1.7765
(Line Move)
X84.809 Y68.432 Z-1.781
(Line Move)
X86.1392 Y67.5421 Z-1.7854
(Line Move)
X87.4185 Y66.6222 Z-1.7897
(Line Move)
X89.7627 Y64.7485 Z-1.798
(Line Move)
X91.8732 Y62.8093 Z-1.8059
(Line Move)
X93.7453 Y60.8328 Z-1.8134
(Line Move)
X95.3871 Y58.8373 Z-1.8205
(Line Move)
X96.8088 Y56.8393 Z-1.8272
(Line Move)
X98.0225 Y54.853 Z-1.8336
(Line Move)
X99.0415 Y52.891 Z-1.8397
(Line Move)
X99.8798 Y50.9636 Z-1.8455
(Line Move)
X100.5516 Y49.0796 Z-1.851
(Line Move)
X101.0712 Y47.2458 Z-1.8563
(Line Move)
X101.4526 Y45.4676 Z-1.8613
(Line Move)
X101.7095 Y43.749 Z-1.866
(Line Move)
X101.8548 Y42.0929 Z-1.8706
(Line Move)
X101.9009 Y40.4904 Z-1.875
(Line Move)
X101.8059 Y38.2025 Z-1.8813
(Line Move)
X101.4982 Y35.7889 Z-1.888
(Line Move)
X101.1513 Y34.085 Z-1.8928
(Line Move)
X100.506 Y31.7791 Z-1.8994
(Line Move)
X100.0194 Y30.3978 Z-1.9034
(Line Move)
X99.3631 Y28.8071 Z-1.9082
(Line Move)
X98.4644 Y26.9573 Z-1.9138
(Line Move)
X97.2371 Y24.8275 Z-1.9206
(Line Move)
X96.4736 Y23.6633 Z-1.9244
(Line Move)
X95.5895 Y22.4308 Z-1.9286
(Line Move)
X94.5548 Y21.1164 Z-1.9332
(Line Move)
X93.3434 Y19.7196 Z-1.9383
(Line Move)
X91.925 Y18.2423 Z-1.9439
(Line Move)
X90.2649 Y16.6894 Z-1.9502
(Line Move)
X88.3235 Y15.0703 Z-1.9571
(Line Move)
X86.0568 Y13.4002 Z-1.9649
(Line Move)
X83.4282 Y11.7095 Z-1.9735
(Line Move)
X81.9673 Y10.8679 Z-1.9781
(Line Move)
X80.4576 Y10.0635 Z-1.9828
(Line Move)
X78.8905 Y9.2936 Z-1.9876
(Line Move)
X77.2677 Y8.5611 Z-1.9925
(Line Move)
X75.5913 Y7.869 Z-1.9975
(Line Move)
X73.8637 Y7.2201 Z-2.0026
(Line Move)
X72.0878 Y6.6171 Z-2.0077
(Line Move)
X70.2666 Y6.0626 Z-2.013
(Line Move)
X68.4036 Y5.5593 Z-2.0183
(Line Move)
X66.5026 Y5.1093 Z-2.0237
(Line Move)
X64.5675 Y4.7148 Z-2.0291
(Line Move)
X62.6028 Y4.3777 Z-2.0346
(Line Move)
X60.6129 Y4.0995 Z-2.0401
(Line Move)
X58.6027 Y3.8817 Z-2.0457
(Line Move)
X56.5771 Y3.7254 Z-2.0513
(Line Move)
X54.5412 Y3.6312 Z-2.0569
(Line Move)
X52.5 Y3.5998 Z-2.0625
(Line Move)
X50.4588 Y3.6312 Z-2.0681
(Line Move)
X48.4229 Y3.7254 Z-2.0737
(Line Move)
X46.3973 Y3.8817 Z-2.0793
(Line Move)
X44.3871 Y4.0995 Z-2.0849
(Line Move)
X42.3972 Y4.3777 Z-2.0904
(Line Move)
X40.4325 Y4.7148 Z-2.0959
(Line Move)
X38.4974 Y5.1093 Z-2.1013
(Line Move)
X36.5964 Y5.5593 Z-2.1067
(Line Move)
X34.7334 Y6.0626 Z-2.112
(Line Move)
X32.9122 Y6.6171 Z-2.1173
(Line Move)
X31.1363 Y7.2201 Z-2.1224
(Line Move)
X29.4087 Y7.869 Z-2.1275
(Line Move)
X27.7323 Y8.5611 Z-2.1325
(Line Move)
X26.1095 Y9.2936 Z-2.1374
(Line Move)
X24.5424 Y10.0635 Z-2.1422
(Line Move)
X23.0327 Y10.8679 Z-2.1469
(Line Move)
X21.5819 Y11.7037 Z-2.1515
(Line Move)
X20.191 Y12.568 Z-2.156
(Line Move)
X18.8503 Y13.4649 Z-2.1604
(Line Move)
X16.3838 Y15.3021 Z-2.1689
(Line Move)
X14.1519 Y17.2152 Z-2.177
(Line Move)
X12.1614 Y19.1755 Z-2.1847
(Line Move)
X10.4056 Y21.1636 Z-2.192
(Line Move)
X8.8753 Y23.1623 Z-2.1989
(Line Move)
X7.5592 Y25.1561 Z-2.2055
(Line Move)
X6.4445 Y27.1317 Z-2.2117
(Line Move)
X5.5176 Y29.0776 Z-2.2177
(Line Move)
X4.7644 Y30.9843 Z-2.2233
(Line Move)
X4.1705 Y32.844 Z-2.2287
(Line Move)
X3.7217 Y34.6506 Z-2.2338
(Line Move)
X3.4042 Y36.3994 Z-2.2387
(Line Move)
X3.2047 Y38.087 Z-2.2434
(Line Move)
X3.1106 Y39.7114 Z-2.2478
(Line Move)
X3.1106 Y40.5 Z-2.25
(Line Move)
X3.1106 Y41.2886 Z-2.2522
(Line Move)
X3.2047 Y42.913 Z-2.2566
(Line Move)
X3.4042 Y44.6006 Z-2.2613
(Line Move)
X3.7217 Y46.3494 Z-2.2662
(Line Move)
X4.1705 Y48.156 Z-2.2713
(Line Move)
X4.7644 Y50.0157 Z-2.2767
(Line Move)
X5.5176 Y51.9224 Z-2.2823
(Line Move)
X6.4445 Y53.8683 Z-2.2883
(Line Move)
X7.5592 Y55.8439 Z-2.2945
(Line Move)
X8.8753 Y57.8377 Z-2.3011
(Line Move)
X10.4056 Y59.8364 Z-2.308
(Line Move)
X12.1614 Y61.8245 Z-2.3153
(Line Move)
X14.1519 Y63.7848 Z-2.323
(Line Move)
X16.3838 Y65.6979 Z-2.3311
(Line Move)
X18.8503 Y67.5351 Z-2.3396
(Line Move)
X20.191 Y68.432 Z-2.344
(Line Move)
X21.5819 Y69.2963 Z-2.3485
(Line Move)
X23.0327 Y70.1321 Z-2.3531
(Line Move)
X24.5424 Y70.9365 Z-2.3578
(Line Move)
X26.1095 Y71.7064 Z-2.3626
(Line Move)
X27.7323 Y72.4389 Z-2.3675
(Line Move)
X29.4087 Y73.131 Z-2.3725
(Line Move)
X31.1363 Y73.7799 Z-2.3776
(Line Move)
X32.9122 Y74.3829 Z-2.3827
(Line Move)
X34.7334 Y74.9374 Z-2.388
(Line Move)
X36.5964 Y75.4407 Z-2.3933
(Line Move)
X38.4974 Y75.8907 Z-2.3987
(Line Move)
X40.4325 Y76.2852 Z-2.4041
(Line Move)
X42.3972 Y76.6223 Z-2.4096
(Line Move)
X44.3871 Y76.9005 Z-2.4151
(Line Move)
X46.3973 Y77.1183 Z-2.4207
(Line Move)
X48.4229 Y77.2746 Z-2.4263
(Line Move)
X50.4588 Y77.3688 Z-2.4319
(Line Move)
X52.5 Y77.4002 Z-2.4375
(Line Move)
X54.5412 Y77.3688 Z-2.4431
(Line Move)
X56.5771 Y77.2746 Z-2.4487
(Line Move)
X58.6027 Y77.1183 Z-2.4543
(Line Move)
X60.6129 Y76.9005 Z-2.4599
(Line Move)
X62.6028 Y76.6223 Z-2.4654
(Line Move)
X64.5675 Y76.2852 Z-2.4709
(Line Move)
X66.5026 Y75.8907 Z-2.4763
(Line Move)
X68.4036 Y75.4407 Z-2.4817
(Line Move)
X70.2666 Y74.9374 Z-2.487
(Line Move)
X72.0878 Y74.3829 Z-2.4923
(Line Move)
X73.8637 Y73.7799 Z-2.4974
(Line Move)
X74.7445 Y73.4491 Z-2.5
(Line Move)
X75.5913 Y73.131 Z-2.5
(Line Move)
X77.2677 Y72.4389 Z-2.5
(Line Move)
X78.8905 Y71.7064 Z-2.5
(Line Move)
X80.4576 Y70.9365 Z-2.5
(Line Move)
X81.9673 Y70.1321 Z-2.5
(Line Move)
X83.4181 Y69.2963 Z-2.5
(Line Move)
X84.809 Y68.432 Z-2.5
(Line Move)
X86.1392 Y67.5421 Z-2.5
(Line Move)
X87.4185 Y66.6222 Z-2.5
(Line Move)
X89.7627 Y64.7485 Z-2.5
(Line Move)
X91.8732 Y62.8093 Z-2.5
(Line Move)
X93.7453 Y60.8328 Z-2.5
(Line Move)
X95.3871 Y58.8373 Z-2.5
(Line Move)
X96.8088 Y56.8393 Z-2.5
(Line Move)
X98.0225 Y54.853 Z-2.5
(Line Move)
X99.0415 Y52.891 Z-2.5
(Line Move)
X99.8798 Y50.9636 Z-2.5
(Line Move)
X100.5516 Y49.0796 Z-2.5
(Line Move)
X101.0712 Y47.2458 Z-2.5
(Line Move)
X101.4526 Y45.4676 Z-2.5
(Line Move)
X101.7095 Y43.749 Z-2.5
(Line Move)
X101.8548 Y42.0929 Z-2.5
(Line Move)
X101.9009 Y40.4904 Z-2.5
(Line Move)
X101.8059 Y38.2025 Z-2.5
(Line Move)
X101.4982 Y35.7889 Z-2.5
(Line Move)
X101.1513 Y34.085 Z-2.5
(Line Move)
X100.506 Y31.7791 Z-2.5
(Line Move)
X100.0194 Y30.3978 Z-2.5
(Line Move)
X99.3631 Y28.8071 Z-2.5
(Line Move)
X98.4644 Y26.9573 Z-2.5
(Line Move)
X97.2371 Y24.8275 Z-2.5
(Line Move)
X96.4736 Y23.6633 Z-2.5
(Line Move)
X95.5895 Y22.4308 Z-2.5
(Line Move)
X94.5548 Y21.1164 Z-2.5
(Line Move)
X93.3434 Y19.7196 Z-2.5
(Line Move)
X91.925 Y18.2423 Z-2.5
(Line Move)
X90.2649 Y16.6894 Z-2.5
(Line Move)
X88.3235 Y15.0703 Z-2.5
(Line Move)
X86.0568 Y13.4002 Z-2.5
(Line Move)
X83.4282 Y11.7095 Z-2.5
(Line Move)
X81.9673 Y10.8679 Z-2.5
(Line Move)
X80.4576 Y10.0635 Z-2.5
(Line Move)
X78.8905 Y9.2936 Z-2.5
(Line Move)
X77.2677 Y8.5611 Z-2.5
(Line Move)
X75.5913 Y7.869 Z-2.5
(Line Move)
X73.8637 Y7.2201 Z-2.5
(Line Move)
X72.0878 Y6.6171 Z-2.5
(Line Move)
X70.2666 Y6.0626 Z-2.5
(Line Move)
X68.4036 Y5.5593 Z-2.5
(Line Move)
X66.5026 Y5.1093 Z-2.5
(Line Move)
X64.5675 Y4.7148 Z-2.5
(Line Move)
X62.6028 Y4.3777 Z-2.5
(Line Move)
X60.6129 Y4.0995 Z-2.5
(Line Move)
X58.6027 Y3.8817 Z-2.5
(Line Move)
X56.5771 Y3.7254 Z-2.5
(Line Move)
X54.5412 Y3.6312 Z-2.5
(Line Move)
X52.5 Y3.5998 Z-2.5
(Line Move)
X50.4588 Y3.6312 Z-2.5
(Line Move)
X48.4229 Y3.7254 Z-2.5
(Line Move)
X46.3973 Y3.8817 Z-2.5
(Line Move)
X44.3871 Y4.0995 Z-2.5
(Line Move)
X42.3972 Y4.3777 Z-2.5
(Line Move)
X40.4325 Y4.7148 Z-2.5
(Line Move)
X38.4974 Y5.1093 Z-2.5
(Line Move)
X36.5964 Y5.5593 Z-2.5
(Line Move)
X34.7334 Y6.0626 Z-2.5
(Line Move)
X32.9122 Y6.6171 Z-2.5
(Line Move)
X31.1363 Y7.2201 Z-2.5
(Line Move)
X29.4087 Y7.869 Z-2.5
(Line Move)
X27.7323 Y8.5611 Z-2.5
(Line Move)
X26.1095 Y9.2936 Z-2.5
(Line Move)
X24.5424 Y10.0635 Z-2.5
(Line Move)
X23.0327 Y10.8679 Z-2.5
(Line Move)
X21.5819 Y11.7037 Z-2.5
(Line Move)
X20.191 Y12.568 Z-2.5
(Line Move)
X18.8503 Y13.4649 Z-2.5
(Line Move)
X16.3838 Y15.3021 Z-2.5
(Line Move)
X14.1519 Y17.2152 Z-2.5
(Line Move)
X12.1614 Y19.1755 Z-2.5
(Line Move)
X10.4056 Y21.1636 Z-2.5
(Line Move)
X8.8753 Y23.1623 Z-2.5
(Line Move)
X7.5592 Y25.1561 Z-2.5
(Line Move)
X6.4445 Y27.1317 Z-2.5
(Line Move)
X5.5176 Y29.0776 Z-2.5
(Line Move)
X4.7644 Y30.9843 Z-2.5
(Line Move)
X4.1705 Y32.844 Z-2.5
(Line Move)
X3.7217 Y34.6506 Z-2.5
(Line Move)
X3.4042 Y36.3994 Z-2.5
(Line Move)
X3.2047 Y38.087 Z-2.5
(Line Move)
X3.1106 Y39.7114 Z-2.5
(Line Move)
X3.1106 Y41.2886 Z-2.5
(Line Move)
X3.2047 Y42.913 Z-2.5
(Line Move)
X3.4042 Y44.6006 Z-2.5
(Line Move)
X3.7217 Y46.3494 Z-2.5
(Line Move)
X4.1705 Y48.156 Z-2.5
(Line Move)
X4.7644 Y50.0157 Z-2.5
(Line Move)
X5.5176 Y51.9224 Z-2.5
(Line Move)
X6.4445 Y53.8683 Z-2.5
(Line Move)
X7.5592 Y55.8439 Z-2.5
(Line Move)
X8.8753 Y57.8377 Z-2.5
(Line Move)
X10.4056 Y59.8364 Z-2.5
(Line Move)
X12.1614 Y61.8245 Z-2.5
(Line Move)
X14.1519 Y63.7848 Z-2.5
(Line Move)
X16.3838 Y65.6979 Z-2.5
(Line Move)
X18.8503 Y67.5351 Z-2.5
(Line Move)
X20.191 Y68.432 Z-2.5
(Line Move)
X21.5819 Y69.2963 Z-2.5
(Line Move)
X23.0327 Y70.1321 Z-2.5
(Line Move)
X24.5424 Y70.9365 Z-2.5
(Line Move)
X26.1095 Y71.7064 Z-2.5
(Line Move)
X27.7323 Y72.4389 Z-2.5
(Line Move)
X29.4087 Y73.131 Z-2.5
(Line Move)
X31.1363 Y73.7799 Z-2.5
(Line Move)
X32.9122 Y74.3829 Z-2.5
(Line Move)
X34.7334 Y74.9374 Z-2.5
(Line Move)
X36.5964 Y75.4407 Z-2.5
(Line Move)
X38.4974 Y75.8907 Z-2.5
(Line Move)
X40.4325 Y76.2852 Z-2.5
(Line Move)
X42.3972 Y76.6223 Z-2.5
(Line Move)
X44.3871 Y76.9005 Z-2.5
(Line Move)
X46.3973 Y77.1183 Z-2.5
(Line Move)
X48.4229 Y77.2746 Z-2.5
(Line Move)
X50.4588 Y77.3688 Z-2.5
(Line Move)
X52.5 Y77.4002 Z-2.5
(Line Move)
X54.5412 Y77.3688 Z-2.5
(Line Move)
X56.5771 Y77.2746 Z-2.5
(Line Move)
X58.6027 Y77.1183 Z-2.5
(Line Move)
X60.6129 Y76.9005 Z-2.5
(Line Move)
X62.6028 Y76.6223 Z-2.5
(Line Move)
X64.5675 Y76.2852 Z-2.5
(Line Move)
X66.5026 Y75.8907 Z-2.5
(Line Move)
X68.4036 Y75.4407 Z-2.5
(Line Move)
X70.2666 Y74.9374 Z-2.5
(Line Move)
X72.0878 Y74.3829 Z-2.5
(Line Move)
X73.8637 Y73.7799 Z-2.5
(Line Move)
X74.7445 Y73.4491 Z-2.5
(Line Move)
X75.0253 Y73.3436 Z-2.5
(Arc Move)
G3 X75.1308 Y73.3244 I.1055 J.2808
(Arc Move)
X75.2548 Y73.3512 I0 J.3
(Line Leadout Move)
G1 X76.6754 Y73.996
(Rapid Z up)
G0 Z3.
(Rapid Z up)
Z5.
(Rapid Move)
S5000
X-.2127 Y39.8305
(Rapid Z Down)
Z3.
(Line Leadin Move)
G1 X.9237 Y40.8992 Z2.9797 F562.5
(Arc Move)
G3 X1.0181 Y41.1085 Z2.9766 I-.2055 J.2185
(Line Move)
G1 X1.0273 Y41.4083 Z2.9727 F750.
(Line Move)
X1.0552 Y42.3175 Z2.9608
(Line Move)
X1.2221 Y44.1289 Z2.9371
(Line Move)
X1.4987 Y45.9259 Z2.9134
(Line Move)
X1.8825 Y47.7016 Z2.8898
(Line Move)
X2.3698 Y49.4501 Z2.8661
(Line Move)
X2.9571 Y51.1656 Z2.8425
(Line Move)
X3.6394 Y52.843 Z2.8189
(Line Move)
X4.4119 Y54.4783 Z2.7953
(Line Move)
X5.2694 Y56.0677 Z2.7718
(Line Move)
X6.2065 Y57.6085 Z2.7483
(Line Move)
X7.2179 Y59.0985 Z2.7248
(Line Move)
X8.2986 Y60.5356 Z2.7014
(Line Move)
X9.4434 Y61.919 Z2.678
(Line Move)
X10.6476 Y63.2477 Z2.6546
(Line Move)
X11.9065 Y64.5212 Z2.6313
(Line Move)
X13.216 Y65.7393 Z2.608
(Line Move)
X14.5721 Y66.9022 Z2.5847
(Line Move)
X15.9708 Y68.0099 Z2.5615
(Line Move)
X17.4089 Y69.063 Z2.5383
(Line Move)
X18.883 Y70.0618 Z2.515
(Line Move)
X20.3901 Y71.0069 Z2.4919
(Line Move)
X21.9274 Y71.8988 Z2.4687
(Line Move)
X23.4925 Y72.7383 Z2.4456
(Line Move)
X25.0827 Y73.5258 Z2.4224
(Line Move)
X26.696 Y74.2621 Z2.3993
(Line Move)
X28.3303 Y74.9478 Z2.3762
(Line Move)
X29.9938 Y75.5873 Z2.353
(Line Move)
X33.3396 Y76.7071 Z2.307
(Line Move)
X36.7518 Y77.6366 Z2.261
(Line Move)
X40.2078 Y78.3759 Z2.2149
(Line Move)
X43.6968 Y78.9279 Z2.1689
(Line Move)
X47.2088 Y79.2946 Z2.1229
(Line Move)
X50.7344 Y79.4776 Z2.0769
(Line Move)
X54.2645 Y79.4777 Z2.0309
(Line Move)
X57.7901 Y79.2947 Z1.9849
(Line Move)
X61.3021 Y78.928 Z1.9389
(Line Move)
X64.7912 Y78.3761 Z1.8928
(Line Move)
X68.2471 Y77.6369 Z1.8468
(Line Move)
X71.6594 Y76.7074 Z1.8007
(Line Move)
X75.0052 Y75.5877 Z1.7547
(Line Move)
X76.6687 Y74.9482 Z1.7315
(Line Move)
X78.303 Y74.2626 Z1.7084
(Line Move)
X79.9163 Y73.5263 Z1.6853
(Line Move)
X81.5066 Y72.7388 Z1.6622
(Line Move)
X83.0717 Y71.8993 Z1.639
(Line Move)
X84.609 Y71.0074 Z1.6159
(Line Move)
X86.1161 Y70.0624 Z1.5927
(Line Move)
X87.5903 Y69.0636 Z1.5695
(Line Move)
X89.0283 Y68.0106 Z1.5463
(Line Move)
X90.4271 Y66.9028 Z1.523
(Line Move)
X91.7832 Y65.74 Z1.4997
(Line Move)
X93.0927 Y64.5219 Z1.4764
(Line Move)
X94.3517 Y63.2485 Z1.4531
(Line Move)
X95.5559 Y61.9198 Z1.4297
(Line Move)
X96.7007 Y60.5365 Z1.4063
(Line Move)
X97.7814 Y59.0993 Z1.3829
(Line Move)
X98.7929 Y57.6094 Z1.3594
(Line Move)
X99.7301 Y56.0687 Z1.3359
(Line Move)
X100.5876 Y54.4792 Z1.3124
(Line Move)
X101.359 Y52.8463 Z1.2889
(Line Move)
X101.9613 Y51.3807 Z1.2682
(Line Move)
X102.434 Y50.06 Z1.2499
(Line Move)
X103.1072 Y47.7444 Z1.2185
(Line Move)
X103.4951 Y45.9587 Z1.1947
(Line Move)
X103.7171 Y44.5919 Z1.1767
(Line Move)
X103.9293 Y42.5552 Z1.15
(Line Move)
X104.0008 Y40.5031 Z1.1232
(Line Move)
X103.945 Y38.6825 Z1.0995
(Line Move)
X103.778 Y36.8722 Z1.0758
(Line Move)
X103.5014 Y35.0756 Z1.0521
(Line Move)
X103.1178 Y33.2997 Z1.0284
(Line Move)
X102.6305 Y31.5509 Z1.0048
(Line Move)
X102.0433 Y29.8354 Z.9812
(Line Move)
X101.361 Y28.1579 Z.9576
(Line Move)
X100.5886 Y26.5227 Z.934
(Line Move)
X99.7312 Y24.9333 Z.9105
(Line Move)
X98.7941 Y23.3924 Z.887
(Line Move)
X97.7827 Y21.9024 Z.8635
(Line Move)
X96.7021 Y20.4652 Z.8401
(Line Move)
X95.5573 Y19.0818 Z.8167
(Line Move)
X94.3532 Y17.7531 Z.7933
(Line Move)
X93.0942 Y16.4796 Z.77
(Line Move)
X91.7847 Y15.2614 Z.7467
(Line Move)
X90.4288 Y14.0985 Z.7234
(Line Move)
X89.0301 Y12.9907 Z.7001
(Line Move)
X87.592 Y11.9376 Z.6769
(Line Move)
X86.1179 Y10.9388 Z.6537
(Line Move)
X84.6109 Y9.9937 Z.6305
(Line Move)
X83.0735 Y9.1017 Z.6074
(Line Move)
X81.5085 Y8.2622 Z.5842
(Line Move)
X79.9183 Y7.4746 Z.5611
(Line Move)
X78.305 Y6.7383 Z.538
(Line Move)
X76.6707 Y6.0526 Z.5149
(Line Move)
X75.0072 Y5.413 Z.4917
(Line Move)
X71.6614 Y4.2932 Z.4457
(Line Move)
X68.2492 Y3.3636 Z.3996
(Line Move)
X64.7932 Y2.6243 Z.3536
(Line Move)
X61.3043 Y2.0723 Z.3075
(Line Move)
X57.7923 Y1.7055 Z.2615
(Line Move)
X54.2667 Y1.5224 Z.2155
(Line Move)
X50.7365 Y1.5223 Z.1695
(Line Move)
X47.2109 Y1.7052 Z.1235
(Line Move)
X43.6989 Y2.0719 Z.0775
(Line Move)
X40.2099 Y2.6237 Z.0315
(Line Move)
X36.7539 Y3.3629 Z-.0146
(Line Move)
X33.3417 Y4.2923 Z-.0606
(Line Move)
X29.9958 Y5.4119 Z-.1066
(Line Move)
X28.3323 Y6.0514 Z-.1298
(Line Move)
X26.698 Y6.737 Z-.1529
(Line Move)
X25.0847 Y7.4732 Z-.176
(Line Move)
X23.4943 Y8.2607 Z-.1992
(Line Move)
X21.9293 Y9.1001 Z-.2223
(Line Move)
X20.3919 Y9.992 Z-.2455
(Line Move)
X18.8847 Y10.9371 Z-.2686
(Line Move)
X17.4106 Y11.9358 Z-.2918
(Line Move)
X15.9726 Y12.9888 Z-.3151
(Line Move)
X14.5737 Y14.0965 Z-.3383
(Line Move)
X13.2176 Y15.2593 Z-.3616
(Line Move)
X11.9081 Y16.4773 Z-.3849
(Line Move)
X10.6491 Y17.7508 Z-.4082
(Line Move)
X9.4448 Y19.0794 Z-.4316
(Line Move)
X8.2999 Y20.4626 Z-.455
(Line Move)
X7.2192 Y21.8998 Z-.4784
(Line Move)
X6.2076 Y23.3896 Z-.5019
(Line Move)
X5.2704 Y24.9303 Z-.5254
(Line Move)
X4.4129 Y26.5198 Z-.5489
(Line Move)
X3.6403 Y28.155 Z-.5725
(Line Move)
X2.9578 Y29.8324 Z-.5961
(Line Move)
X2.3706 Y31.5478 Z-.6197
(Line Move)
X1.883 Y33.2962 Z-.6434
(Line Move)
X1.4991 Y35.072 Z-.667
(Line Move)
X1.2225 Y36.869 Z-.6907
(Line Move)
X1.0553 Y38.6803 Z-.7144
(Line Move)
X.9993 Y40.4989 Z-.7381
(Line Move)
X1.0273 Y41.4083 Z-.75
(Line Move)
X1.0552 Y42.3175 Z-.7524
(Line Move)
X1.2221 Y44.1289 Z-.7572
(Line Move)
X1.4987 Y45.9259 Z-.7619
(Line Move)
X1.8825 Y47.7016 Z-.7667
(Line Move)
X2.3698 Y49.4501 Z-.7715
(Line Move)
X2.9571 Y51.1656 Z-.7762
(Line Move)
X3.6394 Y52.843 Z-.781
(Line Move)
X4.4119 Y54.4783 Z-.7857
(Line Move)
X5.2694 Y56.0677 Z-.7905
(Line Move)
X6.2065 Y57.6085 Z-.7952
(Line Move)
X7.2179 Y59.0985 Z-.7999
(Line Move)
X8.2986 Y60.5356 Z-.8047
(Line Move)
X9.4434 Y61.919 Z-.8094
(Line Move)
X10.6476 Y63.2477 Z-.8141
(Line Move)
X11.9065 Y64.5212 Z-.8188
(Line Move)
X13.216 Y65.7393 Z-.8235
(Line Move)
X14.5721 Y66.9022 Z-.8282
(Line Move)
X15.9708 Y68.0099 Z-.8328
(Line Move)
X17.4089 Y69.063 Z-.8375
(Line Move)
X18.883 Y70.0618 Z-.8422
(Line Move)
X20.3901 Y71.0069 Z-.8469
(Line Move)
X21.9274 Y71.8988 Z-.8515
(Line Move)
X23.4925 Y72.7383 Z-.8562
(Line Move)
X25.0827 Y73.5258 Z-.8609
(Line Move)
X26.696 Y74.2621 Z-.8655
(Line Move)
X28.3303 Y74.9478 Z-.8702
(Line Move)
X29.9938 Y75.5873 Z-.8748
(Line Move)
X33.3396 Y76.7071 Z-.8841
(Line Move)
X36.7518 Y77.6366 Z-.8934
(Line Move)
X40.2078 Y78.3759 Z-.9027
(Line Move)
X43.6968 Y78.9279 Z-.9119
(Line Move)
X47.2088 Y79.2946 Z-.9212
(Line Move)
X50.7344 Y79.4776 Z-.9305
(Line Move)
X54.2645 Y79.4777 Z-.9397
(Line Move)
X57.7901 Y79.2947 Z-.949
(Line Move)
X61.3021 Y78.928 Z-.9583
(Line Move)
X64.7912 Y78.3761 Z-.9676
(Line Move)
X68.2471 Y77.6369 Z-.9768
(Line Move)
X71.6594 Y76.7074 Z-.9861
(Line Move)
X75.0052 Y75.5877 Z-.9954
(Line Move)
X76.6687 Y74.9482 Z-1.0001
(Line Move)
X78.303 Y74.2626 Z-1.0047
(Line Move)
X79.9163 Y73.5263 Z-1.0094
(Line Move)
X81.5066 Y72.7388 Z-1.014
(Line Move)
X83.0717 Y71.8993 Z-1.0187
(Line Move)
X84.609 Y71.0074 Z-1.0234
(Line Move)
X86.1161 Y70.0624 Z-1.028
(Line Move)
X87.5903 Y69.0636 Z-1.0327
(Line Move)
X89.0283 Y68.0106 Z-1.0374
(Line Move)
X90.4271 Y66.9028 Z-1.0421
(Line Move)
X91.7832 Y65.74 Z-1.0468
(Line Move)
X93.0927 Y64.5219 Z-1.0514
(Line Move)
X94.3517 Y63.2485 Z-1.0561
(Line Move)
X95.5559 Y61.9198 Z-1.0609
(Line Move)
X96.7007 Y60.5365 Z-1.0656
(Line Move)
X97.7814 Y59.0993 Z-1.0703
(Line Move)
X98.7929 Y57.6094 Z-1.075
(Line Move)
X99.7301 Y56.0687 Z-1.0798
(Line Move)
X100.5876 Y54.4792 Z-1.0845
(Line Move)
X101.359 Y52.8463 Z-1.0892
(Line Move)
X101.9613 Y51.3807 Z-1.0934
(Line Move)
X102.434 Y50.06 Z-1.0971
(Line Move)
X103.1072 Y47.7444 Z-1.1034
(Line Move)
X103.4951 Y45.9587 Z-1.1082
(Line Move)
X103.7171 Y44.5919 Z-1.1118
(Line Move)
X103.9293 Y42.5552 Z-1.1172
(Line Move)
X104.0008 Y40.5031 Z-1.1226
(Line Move)
X103.945 Y38.6825 Z-1.1274
(Line Move)
X103.778 Y36.8722 Z-1.1322
(Line Move)
X103.5014 Y35.0756 Z-1.1369
(Line Move)
X103.1178 Y33.2997 Z-1.1417
(Line Move)
X102.6305 Y31.5509 Z-1.1465
(Line Move)
X102.0433 Y29.8354 Z-1.1512
(Line Move)
X101.361 Y28.1579 Z-1.156
(Line Move)
X100.5886 Y26.5227 Z-1.1607
(Line Move)
X99.7312 Y24.9333 Z-1.1655
(Line Move)
X98.7941 Y23.3924 Z-1.1702
(Line Move)
X97.7827 Y21.9024 Z-1.1749
(Line Move)
X96.7021 Y20.4652 Z-1.1797
(Line Move)
X95.5573 Y19.0818 Z-1.1844
(Line Move)
X94.3532 Y17.7531 Z-1.1891
(Line Move)
X93.0942 Y16.4796 Z-1.1938
(Line Move)
X91.7847 Y15.2614 Z-1.1985
(Line Move)
X90.4288 Y14.0985 Z-1.2032
(Line Move)
X89.0301 Y12.9907 Z-1.2078
(Line Move)
X87.592 Y11.9376 Z-1.2125
(Line Move)
X86.1179 Y10.9388 Z-1.2172
(Line Move)
X84.6109 Y9.9937 Z-1.2219
(Line Move)
X83.0735 Y9.1017 Z-1.2265
(Line Move)
X81.5085 Y8.2622 Z-1.2312
(Line Move)
X79.9183 Y7.4746 Z-1.2359
(Line Move)
X78.305 Y6.7383 Z-1.2405
(Line Move)
X76.6707 Y6.0526 Z-1.2452
(Line Move)
X75.0072 Y5.413 Z-1.2498
(Line Move)
X71.6614 Y4.2932 Z-1.2591
(Line Move)
X68.2492 Y3.3636 Z-1.2684
(Line Move)
X64.7932 Y2.6243 Z-1.2777
(Line Move)
X61.3043 Y2.0723 Z-1.2869
(Line Move)
X57.7923 Y1.7055 Z-1.2962
(Line Move)
X54.2667 Y1.5224 Z-1.3055
(Line Move)
X50.7365 Y1.5223 Z-1.3147
(Line Move)
X47.2109 Y1.7052 Z-1.324
(Line Move)
X43.6989 Y2.0719 Z-1.3333
(Line Move)
X40.2099 Y2.6237 Z-1.3426
(Line Move)
X36.7539 Y3.3629 Z-1.3518
(Line Move)
X33.3417 Y4.2923 Z-1.3611
(Line Move)
X29.9958 Y5.4119 Z-1.3704
(Line Move)
X28.3323 Y6.0514 Z-1.3751
(Line Move)
X26.698 Y6.737 Z-1.3797
(Line Move)
X25.0847 Y7.4732 Z-1.3844
(Line Move)
X23.4943 Y8.2607 Z-1.389
(Line Move)
X21.9293 Y9.1001 Z-1.3937
(Line Move)
X20.3919 Y9.992 Z-1.3984
(Line Move)
X18.8847 Y10.9371 Z-1.403
(Line Move)
X17.4106 Y11.9358 Z-1.4077
(Line Move)
X15.9726 Y12.9888 Z-1.4124
(Line Move)
X14.5737 Y14.0965 Z-1.4171
(Line Move)
X13.2176 Y15.2593 Z-1.4217
(Line Move)
X11.9081 Y16.4773 Z-1.4264
(Line Move)
X10.6491 Y17.7508 Z-1.4311
(Line Move)
X9.4448 Y19.0794 Z-1.4359
(Line Move)
X8.2999 Y20.4626 Z-1.4406
(Line Move)
X7.2192 Y21.8998 Z-1.4453
(Line Move)
X6.2076 Y23.3896 Z-1.45
(Line Move)
X5.2704 Y24.9303 Z-1.4547
(Line Move)
X4.4129 Y26.5198 Z-1.4595
(Line Move)
X3.6403 Y28.155 Z-1.4642
(Line Move)
X2.9578 Y29.8324 Z-1.469
(Line Move)
X2.3706 Y31.5478 Z-1.4738
(Line Move)
X1.883 Y33.2962 Z-1.4785
(Line Move)
X1.4991 Y35.072 Z-1.4833
(Line Move)
X1.2225 Y36.869 Z-1.4881
(Line Move)
X1.0553 Y38.6803 Z-1.4928
(Line Move)
X.9993 Y40.4989 Z-1.4976
(Line Move)
X1.0273 Y41.4083 Z-1.5
(Line Move)
X1.0552 Y42.3175 Z-1.5024
(Line Move)
X1.2221 Y44.1289 Z-1.5072
(Line Move)
X1.4987 Y45.9259 Z-1.5119
(Line Move)
X1.8825 Y47.7016 Z-1.5167
(Line Move)
X2.3698 Y49.4501 Z-1.5215
(Line Move)
X2.9571 Y51.1656 Z-1.5262
(Line Move)
X3.6394 Y52.843 Z-1.531
(Line Move)
X4.4119 Y54.4783 Z-1.5357
(Line Move)
X5.2694 Y56.0677 Z-1.5405
(Line Move)
X6.2065 Y57.6085 Z-1.5452
(Line Move)
X7.2179 Y59.0985 Z-1.5499
(Line Move)
X8.2986 Y60.5356 Z-1.5547
(Line Move)
X9.4434 Y61.919 Z-1.5594
(Line Move)
X10.6476 Y63.2477 Z-1.5641
(Line Move)
X11.9065 Y64.5212 Z-1.5688
(Line Move)
X13.216 Y65.7393 Z-1.5735
(Line Move)
X14.5721 Y66.9022 Z-1.5782
(Line Move)
X15.9708 Y68.0099 Z-1.5828
(Line Move)
X17.4089 Y69.063 Z-1.5875
(Line Move)
X18.883 Y70.0618 Z-1.5922
(Line Move)
X20.3901 Y71.0069 Z-1.5969
(Line Move)
X21.9274 Y71.8988 Z-1.6015
(Line Move)
X23.4925 Y72.7383 Z-1.6062
(Line Move)
X25.0827 Y73.5258 Z-1.6109
(Line Move)
X26.696 Y74.2621 Z-1.6155
(Line Move)
X28.3303 Y74.9478 Z-1.6202
(Line Move)
X29.9938 Y75.5873 Z-1.6248
(Line Move)
X33.3396 Y76.7071 Z-1.6341
(Line Move)
X36.7518 Y77.6366 Z-1.6434
(Line Move)
X40.2078 Y78.3759 Z-1.6527
(Line Move)
X43.6968 Y78.9279 Z-1.6619
(Line Move)
X47.2088 Y79.2946 Z-1.6712
(Line Move)
X50.7344 Y79.4776 Z-1.6805
(Line Move)
X54.2645 Y79.4777 Z-1.6897
(Line Move)
X57.7901 Y79.2947 Z-1.699
(Line Move)
X61.3021 Y78.928 Z-1.7083
(Line Move)
X64.7912 Y78.3761 Z-1.7176
(Line Move)
X68.2471 Y77.6369 Z-1.7268
(Line Move)
X71.6594 Y76.7074 Z-1.7361
(Line Move)
X75.0052 Y75.5877 Z-1.7454
(Line Move)
X76.6687 Y74.9482 Z-1.7501
(Line Move)
X78.303 Y74.2626 Z-1.7547
(Line Move)
X79.9163 Y73.5263 Z-1.7594
(Line Move)
X81.5066 Y72.7388 Z-1.764
(Line Move)
X83.0717 Y71.8993 Z-1.7687
(Line Move)
X84.609 Y71.0074 Z-1.7734
(Line Move)
X86.1161 Y70.0624 Z-1.778
(Line Move)
X87.5903 Y69.0636 Z-1.7827
(Line Move)
X89.0283 Y68.0106 Z-1.7874
(Line Move)
X90.4271 Y66.9028 Z-1.7921
(Line Move)
X91.7832 Y65.74 Z-1.7968
(Line Move)
X93.0927 Y64.5219 Z-1.8014
(Line Move)
X94.3517 Y63.2485 Z-1.8061
(Line Move)
X95.5559 Y61.9198 Z-1.8109
(Line Move)
X96.7007 Y60.5365 Z-1.8156
(Line Move)
X97.7814 Y59.0993 Z-1.8203
(Line Move)
X98.7929 Y57.6094 Z-1.825
(Line Move)
X99.7301 Y56.0687 Z-1.8298
(Line Move)
X100.5876 Y54.4792 Z-1.8345
(Line Move)
X101.359 Y52.8463 Z-1.8392
(Line Move)
X101.9613 Y51.3807 Z-1.8434
(Line Move)
X102.434 Y50.06 Z-1.8471
(Line Move)
X103.1072 Y47.7444 Z-1.8534
(Line Move)
X103.4951 Y45.9587 Z-1.8582
(Line Move)
X103.7171 Y44.5919 Z-1.8618
(Line Move)
X103.9293 Y42.5552 Z-1.8672
(Line Move)
X104.0008 Y40.5031 Z-1.8726
(Line Move)
X103.945 Y38.6825 Z-1.8774
(Line Move)
X103.778 Y36.8722 Z-1.8822
(Line Move)
X103.5014 Y35.0756 Z-1.8869
(Line Move)
X103.1178 Y33.2997 Z-1.8917
(Line Move)
X102.6305 Y31.5509 Z-1.8965
(Line Move)
X102.0433 Y29.8354 Z-1.9012
(Line Move)
X101.361 Y28.1579 Z-1.906
(Line Move)
X100.5886 Y26.5227 Z-1.9107
(Line Move)
X99.7312 Y24.9333 Z-1.9155
(Line Move)
X98.7941 Y23.3924 Z-1.9202
(Line Move)
X97.7827 Y21.9024 Z-1.9249
(Line Move)
X96.7021 Y20.4652 Z-1.9297
(Line Move)
X95.5573 Y19.0818 Z-1.9344
(Line Move)
X94.3532 Y17.7531 Z-1.9391
(Line Move)
X93.0942 Y16.4796 Z-1.9438
(Line Move)
X91.7847 Y15.2614 Z-1.9485
(Line Move)
X90.4288 Y14.0985 Z-1.9532
(Line Move)
X89.0301 Y12.9907 Z-1.9578
(Line Move)
X87.592 Y11.9376 Z-1.9625
(Line Move)
X86.1179 Y10.9388 Z-1.9672
(Line Move)
X84.6109 Y9.9937 Z-1.9719
(Line Move)
X83.0735 Y9.1017 Z-1.9765
(Line Move)
X81.5085 Y8.2622 Z-1.9812
(Line Move)
X79.9183 Y7.4746 Z-1.9859
(Line Move)
X78.305 Y6.7383 Z-1.9905
(Line Move)
X76.6707 Y6.0526 Z-1.9952
(Line Move)
X75.0072 Y5.413 Z-1.9998
(Line Move)
X71.6614 Y4.2932 Z-2.0091
(Line Move)
X68.2492 Y3.3636 Z-2.0184
(Line Move)
X64.7932 Y2.6243 Z-2.0277
(Line Move)
X61.3043 Y2.0723 Z-2.0369
(Line Move)
X57.7923 Y1.7055 Z-2.0462
(Line Move)
X54.2667 Y1.5224 Z-2.0555
(Line Move)
X50.7365 Y1.5223 Z-2.0647
(Line Move)
X47.2109 Y1.7052 Z-2.074
(Line Move)
X43.6989 Y2.0719 Z-2.0833
(Line Move)
X40.2099 Y2.6237 Z-2.0926
(Line Move)
X36.7539 Y3.3629 Z-2.1018
(Line Move)
X33.3417 Y4.2923 Z-2.1111
(Line Move)
X29.9958 Y5.4119 Z-2.1204
(Line Move)
X28.3323 Y6.0514 Z-2.1251
(Line Move)
X26.698 Y6.737 Z-2.1297
(Line Move)
X25.0847 Y7.4732 Z-2.1344
(Line Move)
X23.4943 Y8.2607 Z-2.139
(Line Move)
X21.9293 Y9.1001 Z-2.1437
(Line Move)
X20.3919 Y9.992 Z-2.1484
(Line Move)
X18.8847 Y10.9371 Z-2.153
(Line Move)
X17.4106 Y11.9358 Z-2.1577
(Line Move)
X15.9726 Y12.9888 Z-2.1624
(Line Move)
X14.5737 Y14.0965 Z-2.1671
(Line Move)
X13.2176 Y15.2593 Z-2.1717
(Line Move)
X11.9081 Y16.4773 Z-2.1764
(Line Move)
X10.6491 Y17.7508 Z-2.1811
(Line Move)
X9.4448 Y19.0794 Z-2.1859
(Line Move)
X8.2999 Y20.4626 Z-2.1906
(Line Move)
X7.2192 Y21.8998 Z-2.1953
(Line Move)
X6.2076 Y23.3896 Z-2.2
(Line Move)
X5.2704 Y24.9303 Z-2.2047
(Line Move)
X4.4129 Y26.5198 Z-2.2095
(Line Move)
X3.6403 Y28.155 Z-2.2142
(Line Move)
X2.9578 Y29.8324 Z-2.219
(Line Move)
X2.3706 Y31.5478 Z-2.2238
(Line Move)
X1.883 Y33.2962 Z-2.2285
(Line Move)
X1.4991 Y35.072 Z-2.2333
(Line Move)
X1.2225 Y36.869 Z-2.2381
(Line Move)
X1.0553 Y38.6803 Z-2.2428
(Line Move)
X.9993 Y40.4989 Z-2.2476
(Line Move)
X1.0273 Y41.4083 Z-2.25
(Line Move)
X1.0552 Y42.3175 Z-2.2524
(Line Move)
X1.2221 Y44.1289 Z-2.2572
(Line Move)
X1.4987 Y45.9259 Z-2.2619
(Line Move)
X1.8825 Y47.7016 Z-2.2667
(Line Move)
X2.3698 Y49.4501 Z-2.2715
(Line Move)
X2.9571 Y51.1656 Z-2.2762
(Line Move)
X3.6394 Y52.843 Z-2.281
(Line Move)
X4.4119 Y54.4783 Z-2.2857
(Line Move)
X5.2694 Y56.0677 Z-2.2905
(Line Move)
X6.2065 Y57.6085 Z-2.2952
(Line Move)
X7.2179 Y59.0985 Z-2.2999
(Line Move)
X8.2986 Y60.5356 Z-2.3047
(Line Move)
X9.4434 Y61.919 Z-2.3094
(Line Move)
X10.6476 Y63.2477 Z-2.3141
(Line Move)
X11.9065 Y64.5212 Z-2.3188
(Line Move)
X13.216 Y65.7393 Z-2.3235
(Line Move)
X14.5721 Y66.9022 Z-2.3282
(Line Move)
X15.9708 Y68.0099 Z-2.3328
(Line Move)
X17.4089 Y69.063 Z-2.3375
(Line Move)
X18.883 Y70.0618 Z-2.3422
(Line Move)
X20.3901 Y71.0069 Z-2.3469
(Line Move)
X21.9274 Y71.8988 Z-2.3515
(Line Move)
X23.4925 Y72.7383 Z-2.3562
(Line Move)
X25.0827 Y73.5258 Z-2.3609
(Line Move)
X26.696 Y74.2621 Z-2.3655
(Line Move)
X28.3303 Y74.9478 Z-2.3702
(Line Move)
X29.9938 Y75.5873 Z-2.3748
(Line Move)
X33.3396 Y76.7071 Z-2.3841
(Line Move)
X36.7518 Y77.6366 Z-2.3934
(Line Move)
X40.2078 Y78.3759 Z-2.4027
(Line Move)
X43.6968 Y78.9279 Z-2.4119
(Line Move)
X47.2088 Y79.2946 Z-2.4212
(Line Move)
X50.7344 Y79.4776 Z-2.4305
(Line Move)
X54.2645 Y79.4777 Z-2.4397
(Line Move)
X57.7901 Y79.2947 Z-2.449
(Line Move)
X61.3021 Y78.928 Z-2.4583
(Line Move)
X64.7912 Y78.3761 Z-2.4676
(Line Move)
X68.2471 Y77.6369 Z-2.4768
(Line Move)
X71.6594 Y76.7074 Z-2.4861
(Line Move)
X75.0052 Y75.5877 Z-2.4954
(Line Move)
X76.6687 Y74.9482 Z-2.5001
(Line Move)
X78.303 Y74.2626 Z-2.5047
(Line Move)
X79.9163 Y73.5263 Z-2.5094
(Line Move)
X81.5066 Y72.7388 Z-2.514
(Line Move)
X83.0717 Y71.8993 Z-2.5187
(Line Move)
X84.609 Y71.0074 Z-2.5234
(Line Move)
X86.1161 Y70.0624 Z-2.528
(Line Move)
X87.5903 Y69.0636 Z-2.5327
(Line Move)
X89.0283 Y68.0106 Z-2.5374
(Line Move)
X90.4271 Y66.9028 Z-2.5421
(Line Move)
X91.7832 Y65.74 Z-2.5468
(Line Move)
X93.0927 Y64.5219 Z-2.5514
(Line Move)
X94.3517 Y63.2485 Z-2.5561
(Line Move)
X95.5559 Y61.9198 Z-2.5609
(Line Move)
X96.7007 Y60.5365 Z-2.5656
(Line Move)
X97.7814 Y59.0993 Z-2.5703
(Line Move)
X98.7929 Y57.6094 Z-2.575
(Line Move)
X99.7301 Y56.0687 Z-2.5798
(Line Move)
X100.5876 Y54.4792 Z-2.5845
(Line Move)
X101.359 Y52.8463 Z-2.5892
(Line Move)
X101.9613 Y51.3807 Z-2.5934
(Line Move)
X102.434 Y50.06 Z-2.5971
(Line Move)
X103.1072 Y47.7444 Z-2.6034
(Line Move)
X103.4951 Y45.9587 Z-2.6082
(Line Move)
X103.7171 Y44.5919 Z-2.6118
(Line Move)
X103.9293 Y42.5552 Z-2.6172
(Line Move)
X104.0008 Y40.5031 Z-2.6226
(Line Move)
X103.945 Y38.6825 Z-2.6274
(Line Move)
X103.778 Y36.8722 Z-2.6322
(Line Move)
X103.5014 Y35.0756 Z-2.6369
(Line Move)
X103.1178 Y33.2997 Z-2.6417
(Line Move)
X102.6305 Y31.5509 Z-2.6465
(Line Move)
X102.0433 Y29.8354 Z-2.6512
(Line Move)
X101.361 Y28.1579 Z-2.656
(Line Move)
X100.5886 Y26.5227 Z-2.6607
(Line Move)
X99.7312 Y24.9333 Z-2.6655
(Line Move)
X98.7941 Y23.3924 Z-2.6702
(Line Move)
X97.7827 Y21.9024 Z-2.6749
(Line Move)
X96.7021 Y20.4652 Z-2.6797
(Line Move)
X95.5573 Y19.0818 Z-2.6844
(Line Move)
X94.3532 Y17.7531 Z-2.6891
(Line Move)
X93.0942 Y16.4796 Z-2.6938
(Line Move)
X91.7847 Y15.2614 Z-2.6985
(Line Move)
X90.4288 Y14.0985 Z-2.7032
(Line Move)
X89.0301 Y12.9907 Z-2.7078
(Line Move)
X87.592 Y11.9376 Z-2.7125
(Line Move)
X86.1179 Y10.9388 Z-2.7172
(Line Move)
X84.6109 Y9.9937 Z-2.7219
(Line Move)
X83.0735 Y9.1017 Z-2.7265
(Line Move)
X81.5085 Y8.2622 Z-2.7312
(Line Move)
X79.9183 Y7.4746 Z-2.7359
(Line Move)
X78.305 Y6.7383 Z-2.7405
(Line Move)
X76.6707 Y6.0526 Z-2.7452
(Line Move)
X75.0072 Y5.413 Z-2.7498
(Line Move)
X71.6614 Y4.2932 Z-2.7591
(Line Move)
X68.2492 Y3.3636 Z-2.7684
(Line Move)
X64.7932 Y2.6243 Z-2.7777
(Line Move)
X61.3043 Y2.0723 Z-2.7869
(Line Move)
X57.7923 Y1.7055 Z-2.7962
(Line Move)
X54.2667 Y1.5224 Z-2.8055
(Line Move)
X50.7365 Y1.5223 Z-2.8147
(Line Move)
X47.2109 Y1.7052 Z-2.824
(Line Move)
X43.6989 Y2.0719 Z-2.8333
(Line Move)
X40.2099 Y2.6237 Z-2.8426
(Line Move)
X36.7539 Y3.3629 Z-2.8518
(Line Move)
X33.3417 Y4.2923 Z-2.8611
(Line Move)
X29.9958 Y5.4119 Z-2.8704
(Line Move)
X28.3323 Y6.0514 Z-2.8751
(Line Move)
X26.698 Y6.737 Z-2.8797
(Line Move)
X25.0847 Y7.4732 Z-2.8844
(Line Move)
X23.4943 Y8.2607 Z-2.889
(Line Move)
X21.9293 Y9.1001 Z-2.8937
(Line Move)
X20.3919 Y9.992 Z-2.8984
(Line Move)
X18.8847 Y10.9371 Z-2.903
(Line Move)
X17.4106 Y11.9358 Z-2.9077
(Line Move)
X15.9726 Y12.9888 Z-2.9124
(Line Move)
X14.5737 Y14.0965 Z-2.9171
(Line Move)
X13.2176 Y15.2593 Z-2.9217
(Line Move)
X11.9081 Y16.4773 Z-2.9264
(Line Move)
X10.6491 Y17.7508 Z-2.9311
(Line Move)
X9.4448 Y19.0794 Z-2.9359
(Line Move)
X8.2999 Y20.4626 Z-2.9406
(Line Move)
X7.2192 Y21.8998 Z-2.9453
(Line Move)
X6.2076 Y23.3896 Z-2.95
(Line Move)
X5.2704 Y24.9303 Z-2.9547
(Line Move)
X4.4129 Y26.5198 Z-2.9595
(Line Move)
X3.6403 Y28.155 Z-2.9642
(Line Move)
X2.9578 Y29.8324 Z-2.969
(Line Move)
X2.3706 Y31.5478 Z-2.9738
(Line Move)
X1.883 Y33.2962 Z-2.9785
(Line Move)
X1.4991 Y35.072 Z-2.9833
(Line Move)
X1.2225 Y36.869 Z-2.9881
(Line Move)
X1.0553 Y38.6803 Z-2.9928
(Line Move)
X.9993 Y40.4989 Z-2.9976
(Line Move)
X1.0273 Y41.4083 Z-3.
(Line Move)
X1.0552 Y42.3175 Z-3.0024
(Line Move)
X1.2221 Y44.1289 Z-3.0072
(Line Move)
X1.4987 Y45.9259 Z-3.0119
(Line Move)
X1.8825 Y47.7016 Z-3.0167
(Line Move)
X2.3698 Y49.4501 Z-3.0215
(Line Move)
X2.9571 Y51.1656 Z-3.0262
(Line Move)
X3.6394 Y52.843 Z-3.031
(Line Move)
X4.4119 Y54.4783 Z-3.0357
(Line Move)
X5.2694 Y56.0677 Z-3.0405
(Line Move)
X6.2065 Y57.6085 Z-3.0452
(Line Move)
X7.2179 Y59.0985 Z-3.0499
(Line Move)
X8.2986 Y60.5356 Z-3.0547
(Line Move)
X9.4434 Y61.919 Z-3.0594
(Line Move)
X10.6476 Y63.2477 Z-3.0641
(Line Move)
X11.9065 Y64.5212 Z-3.0688
(Line Move)
X13.216 Y65.7393 Z-3.0735
(Line Move)
X14.5721 Y66.9022 Z-3.0782
(Line Move)
X15.9708 Y68.0099 Z-3.0828
(Line Move)
X17.4089 Y69.063 Z-3.0875
(Line Move)
X18.883 Y70.0618 Z-3.0922
(Line Move)
X20.3901 Y71.0069 Z-3.0969
(Line Move)
X21.9274 Y71.8988 Z-3.1015
(Line Move)
X23.4925 Y72.7383 Z-3.1062
(Line Move)
X25.0827 Y73.5258 Z-3.1109
(Line Move)
X26.696 Y74.2621 Z-3.1155
(Line Move)
X28.3303 Y74.9478 Z-3.1202
(Line Move)
X29.9938 Y75.5873 Z-3.1248
(Line Move)
X33.3396 Y76.7071 Z-3.1341
(Line Move)
X36.7518 Y77.6366 Z-3.1434
(Line Move)
X40.2078 Y78.3759 Z-3.1527
(Line Move)
X43.6968 Y78.9279 Z-3.1619
(Line Move)
X47.2088 Y79.2946 Z-3.1712
(Line Move)
X50.7344 Y79.4776 Z-3.1805
(Line Move)
X54.2645 Y79.4777 Z-3.1897
(Line Move)
X57.7901 Y79.2947 Z-3.199
(Line Move)
X61.3021 Y78.928 Z-3.2083
(Line Move)
X64.7912 Y78.3761 Z-3.2176
(Line Move)
X68.2471 Y77.6369 Z-3.2268
(Line Move)
X71.6594 Y76.7074 Z-3.2361
(Line Move)
X75.0052 Y75.5877 Z-3.2454
(Line Move)
X76.6687 Y74.9482 Z-3.2501
(Line Move)
X78.303 Y74.2626 Z-3.2547
(Line Move)
X79.9163 Y73.5263 Z-3.2594
(Line Move)
X81.5066 Y72.7388 Z-3.264
(Line Move)
X83.0717 Y71.8993 Z-3.2687
(Line Move)
X84.609 Y71.0074 Z-3.2734
(Line Move)
X86.1161 Y70.0624 Z-3.278
(Line Move)
X87.5903 Y69.0636 Z-3.2827
(Line Move)
X89.0283 Y68.0106 Z-3.2874
(Line Move)
X90.4271 Y66.9028 Z-3.2921
(Line Move)
X91.7832 Y65.74 Z-3.2968
(Line Move)
X93.0927 Y64.5219 Z-3.3014
(Line Move)
X94.3517 Y63.2485 Z-3.3061
(Line Move)
X95.5559 Y61.9198 Z-3.3109
(Line Move)
X96.7007 Y60.5365 Z-3.3156
(Line Move)
X97.7814 Y59.0993 Z-3.3203
(Line Move)
X98.7929 Y57.6094 Z-3.325
(Line Move)
X99.7301 Y56.0687 Z-3.3298
(Line Move)
X100.5876 Y54.4792 Z-3.3345
(Line Move)
X101.359 Y52.8463 Z-3.3392
(Line Move)
X101.9613 Y51.3807 Z-3.3434
(Line Move)
X102.434 Y50.06 Z-3.3471
(Line Move)
X103.1072 Y47.7444 Z-3.3534
(Line Move)
X103.4951 Y45.9587 Z-3.3582
(Line Move)
X103.7171 Y44.5919 Z-3.3618
(Line Move)
X103.9293 Y42.5552 Z-3.3672
(Line Move)
X104.0008 Y40.5031 Z-3.3726
(Line Move)
X103.945 Y38.6825 Z-3.3774
(Line Move)
X103.778 Y36.8722 Z-3.3822
(Line Move)
X103.5014 Y35.0756 Z-3.3869
(Line Move)
X103.1178 Y33.2997 Z-3.3917
(Line Move)
X102.6305 Y31.5509 Z-3.3965
(Line Move)
X102.0433 Y29.8354 Z-3.4012
(Line Move)
X101.361 Y28.1579 Z-3.406
(Line Move)
X100.5886 Y26.5227 Z-3.4107
(Line Move)
X99.7312 Y24.9333 Z-3.4155
(Line Move)
X98.7941 Y23.3924 Z-3.4202
(Line Move)
X97.7827 Y21.9024 Z-3.4249
(Line Move)
X96.7021 Y20.4652 Z-3.4297
(Line Move)
X95.5573 Y19.0818 Z-3.4344
(Line Move)
X94.3532 Y17.7531 Z-3.4391
(Line Move)
X93.0942 Y16.4796 Z-3.4438
(Line Move)
X91.7847 Y15.2614 Z-3.4485
(Line Move)
X90.4288 Y14.0985 Z-3.4532
(Line Move)
X89.0301 Y12.9907 Z-3.4578
(Line Move)
X87.592 Y11.9376 Z-3.4625
(Line Move)
X86.1179 Y10.9388 Z-3.4672
(Line Move)
X84.6109 Y9.9937 Z-3.4719
(Line Move)
X83.0735 Y9.1017 Z-3.4765
(Line Move)
X81.5085 Y8.2622 Z-3.4812
(Line Move)
X79.9183 Y7.4746 Z-3.4859
(Line Move)
X78.305 Y6.7383 Z-3.4905
(Line Move)
X76.6707 Y6.0526 Z-3.4952
(Line Move)
X75.0072 Y5.413 Z-3.4998
(Line Move)
X71.6614 Y4.2932 Z-3.5091
(Line Move)
X68.2492 Y3.3636 Z-3.5184
(Line Move)
X64.7932 Y2.6243 Z-3.5277
(Line Move)
X61.3043 Y2.0723 Z-3.5369
(Line Move)
X57.7923 Y1.7055 Z-3.5462
(Line Move)
X54.2667 Y1.5224 Z-3.5555
(Line Move)
X50.7365 Y1.5223 Z-3.5647
(Line Move)
X47.2109 Y1.7052 Z-3.574
(Line Move)
X43.6989 Y2.0719 Z-3.5833
(Line Move)
X40.2099 Y2.6237 Z-3.5926
(Line Move)
X36.7539 Y3.3629 Z-3.6018
(Line Move)
X33.3417 Y4.2923 Z-3.6111
(Line Move)
X29.9958 Y5.4119 Z-3.6204
(Line Move)
X28.3323 Y6.0514 Z-3.6251
(Line Move)
X26.698 Y6.737 Z-3.6297
(Line Move)
X25.0847 Y7.4732 Z-3.6344
(Line Move)
X23.4943 Y8.2607 Z-3.639
(Line Move)
X21.9293 Y9.1001 Z-3.6437
(Line Move)
X20.3919 Y9.992 Z-3.6484
(Line Move)
X18.8847 Y10.9371 Z-3.653
(Line Move)
X17.4106 Y11.9358 Z-3.6577
(Line Move)
X15.9726 Y12.9888 Z-3.6624
(Line Move)
X14.5737 Y14.0965 Z-3.6671
(Line Move)
X13.2176 Y15.2593 Z-3.6717
(Line Move)
X11.9081 Y16.4773 Z-3.6764
(Line Move)
X10.6491 Y17.7508 Z-3.6811
(Line Move)
X9.4448 Y19.0794 Z-3.6859
(Line Move)
X8.2999 Y20.4626 Z-3.6906
(Line Move)
X7.2192 Y21.8998 Z-3.6953
(Line Move)
X6.2076 Y23.3896 Z-3.7
(Line Move)
X5.2704 Y24.9303 Z-3.7047
(Line Move)
X4.4129 Y26.5198 Z-3.7095
(Line Move)
X3.6403 Y28.155 Z-3.7142
(Line Move)
X2.9578 Y29.8324 Z-3.719
(Line Move)
X2.3706 Y31.5478 Z-3.7238
(Line Move)
X1.883 Y33.2962 Z-3.7285
(Line Move)
X1.4991 Y35.072 Z-3.7333
(Line Move)
X1.2225 Y36.869 Z-3.7381
(Line Move)
X1.0553 Y38.6803 Z-3.7428
(Line Move)
X.9993 Y40.4989 Z-3.7476
(Line Move)
X1.0273 Y41.4083 Z-3.75
(Line Move)
X1.0552 Y42.3175 Z-3.7524
(Line Move)
X1.2221 Y44.1289 Z-3.7572
(Line Move)
X1.4987 Y45.9259 Z-3.7619
(Line Move)
X1.8825 Y47.7016 Z-3.7667
(Line Move)
X2.3698 Y49.4501 Z-3.7715
(Line Move)
X2.9571 Y51.1656 Z-3.7762
(Line Move)
X3.6394 Y52.843 Z-3.781
(Line Move)
X4.4119 Y54.4783 Z-3.7857
(Line Move)
X5.2694 Y56.0677 Z-3.7905
(Line Move)
X6.2065 Y57.6085 Z-3.7952
(Line Move)
X7.2179 Y59.0985 Z-3.7999
(Line Move)
X8.2986 Y60.5356 Z-3.8047
(Line Move)
X9.4434 Y61.919 Z-3.8094
(Line Move)
X10.6476 Y63.2477 Z-3.8141
(Line Move)
X11.9065 Y64.5212 Z-3.8188
(Line Move)
X13.216 Y65.7393 Z-3.8235
(Line Move)
X14.5721 Y66.9022 Z-3.8282
(Line Move)
X15.9708 Y68.0099 Z-3.8328
(Line Move)
X17.4089 Y69.063 Z-3.8375
(Line Move)
X18.883 Y70.0618 Z-3.8422
(Line Move)
X20.3901 Y71.0069 Z-3.8469
(Line Move)
X21.9274 Y71.8988 Z-3.8515
(Line Move)
X23.4925 Y72.7383 Z-3.8562
(Line Move)
X25.0827 Y73.5258 Z-3.8609
(Line Move)
X26.696 Y74.2621 Z-3.8655
(Line Move)
X28.3303 Y74.9478 Z-3.8702
(Line Move)
X29.9938 Y75.5873 Z-3.8748
(Line Move)
X33.3396 Y76.7071 Z-3.8841
(Line Move)
X36.7518 Y77.6366 Z-3.8934
(Line Move)
X40.2078 Y78.3759 Z-3.9027
(Line Move)
X43.6968 Y78.9279 Z-3.9119
(Line Move)
X47.2088 Y79.2946 Z-3.9212
(Line Move)
X50.7344 Y79.4776 Z-3.9305
(Line Move)
X54.2645 Y79.4777 Z-3.9397
(Line Move)
X57.7901 Y79.2947 Z-3.949
(Line Move)
X61.3021 Y78.928 Z-3.9583
(Line Move)
X64.7912 Y78.3761 Z-3.9676
(Line Move)
X68.2471 Y77.6369 Z-3.9768
(Line Move)
X71.6594 Y76.7074 Z-3.9861
(Line Move)
X75.0052 Y75.5877 Z-3.9954
(Line Move)
X76.6687 Y74.9482 Z-4.0001
(Line Move)
X78.303 Y74.2626 Z-4.0047
(Line Move)
X79.9163 Y73.5263 Z-4.0094
(Line Move)
X81.5066 Y72.7388 Z-4.014
(Line Move)
X83.0717 Y71.8993 Z-4.0187
(Line Move)
X84.609 Y71.0074 Z-4.0234
(Line Move)
X86.1161 Y70.0624 Z-4.028
(Line Move)
X87.5903 Y69.0636 Z-4.0327
(Line Move)
X89.0283 Y68.0106 Z-4.0374
(Line Move)
X90.4271 Y66.9028 Z-4.0421
(Line Move)
X91.7832 Y65.74 Z-4.0468
(Line Move)
X93.0927 Y64.5219 Z-4.0514
(Line Move)
X94.3517 Y63.2485 Z-4.0561
(Line Move)
X95.5559 Y61.9198 Z-4.0609
(Line Move)
X96.7007 Y60.5365 Z-4.0656
(Line Move)
X97.7814 Y59.0993 Z-4.0703
(Line Move)
X98.7929 Y57.6094 Z-4.075
(Line Move)
X99.7301 Y56.0687 Z-4.0798
(Line Move)
X100.5876 Y54.4792 Z-4.0845
(Line Move)
X101.359 Y52.8463 Z-4.0892
(Line Move)
X101.9613 Y51.3807 Z-4.0934
(Line Move)
X102.434 Y50.06 Z-4.0971
(Line Move)
X103.1072 Y47.7444 Z-4.1034
(Line Move)
X103.4951 Y45.9587 Z-4.1082
(Line Move)
X103.7171 Y44.5919 Z-4.1118
(Line Move)
X103.9293 Y42.5552 Z-4.1172
(Line Move)
X104.0008 Y40.5031 Z-4.1226
(Line Move)
X103.945 Y38.6825 Z-4.1274
(Line Move)
X103.778 Y36.8722 Z-4.1322
(Line Move)
X103.5014 Y35.0756 Z-4.1369
(Line Move)
X103.1178 Y33.2997 Z-4.1417
(Line Move)
X102.6305 Y31.5509 Z-4.1465
(Line Move)
X102.0433 Y29.8354 Z-4.1512
(Line Move)
X101.361 Y28.1579 Z-4.156
(Line Move)
X100.5886 Y26.5227 Z-4.1607
(Line Move)
X99.7312 Y24.9333 Z-4.1655
(Line Move)
X98.7941 Y23.3924 Z-4.1702
(Line Move)
X97.7827 Y21.9024 Z-4.1749
(Line Move)
X96.7021 Y20.4652 Z-4.1797
(Line Move)
X95.5573 Y19.0818 Z-4.1844
(Line Move)
X94.3532 Y17.7531 Z-4.1891
(Line Move)
X93.0942 Y16.4796 Z-4.1938
(Line Move)
X91.7847 Y15.2614 Z-4.1985
(Line Move)
X90.4288 Y14.0985 Z-4.2032
(Line Move)
X89.0301 Y12.9907 Z-4.2078
(Line Move)
X87.592 Y11.9376 Z-4.2125
(Line Move)
X86.1179 Y10.9388 Z-4.2172
(Line Move)
X84.6109 Y9.9937 Z-4.2219
(Line Move)
X83.0735 Y9.1017 Z-4.2265
(Line Move)
X81.5085 Y8.2622 Z-4.2312
(Line Move)
X79.9183 Y7.4746 Z-4.2359
(Line Move)
X78.305 Y6.7383 Z-4.2405
(Line Move)
X76.6707 Y6.0526 Z-4.2452
(Line Move)
X75.0072 Y5.413 Z-4.2498
(Line Move)
X71.6614 Y4.2932 Z-4.2591
(Line Move)
X68.2492 Y3.3636 Z-4.2684
(Line Move)
X64.7932 Y2.6243 Z-4.2777
(Line Move)
X61.3043 Y2.0723 Z-4.2869
(Line Move)
X57.7923 Y1.7055 Z-4.2962
(Line Move)
X54.2667 Y1.5224 Z-4.3055
(Line Move)
X50.7365 Y1.5223 Z-4.3147
(Line Move)
X47.2109 Y1.7052 Z-4.324
(Line Move)
X43.6989 Y2.0719 Z-4.3333
(Line Move)
X40.2099 Y2.6237 Z-4.3426
(Line Move)
X36.7539 Y3.3629 Z-4.3518
(Line Move)
X33.3417 Y4.2923 Z-4.3611
(Line Move)
X29.9958 Y5.4119 Z-4.3704
(Line Move)
X28.3323 Y6.0514 Z-4.3751
(Line Move)
X26.698 Y6.737 Z-4.3797
(Line Move)
X25.0847 Y7.4732 Z-4.3844
(Line Move)
X23.4943 Y8.2607 Z-4.389
(Line Move)
X21.9293 Y9.1001 Z-4.3937
(Line Move)
X20.3919 Y9.992 Z-4.3984
(Line Move)
X18.8847 Y10.9371 Z-4.403
(Line Move)
X17.4106 Y11.9358 Z-4.4077
(Line Move)
X15.9726 Y12.9888 Z-4.4124
(Line Move)
X14.5737 Y14.0965 Z-4.4171
(Line Move)
X13.2176 Y15.2593 Z-4.4217
(Line Move)
X11.9081 Y16.4773 Z-4.4264
(Line Move)
X10.6491 Y17.7508 Z-4.4311
(Line Move)
X9.4448 Y19.0794 Z-4.4359
(Line Move)
X8.2999 Y20.4626 Z-4.4406
(Line Move)
X7.2192 Y21.8998 Z-4.4453
(Line Move)
X6.2076 Y23.3896 Z-4.45
(Line Move)
X5.2704 Y24.9303 Z-4.4547
(Line Move)
X4.4129 Y26.5198 Z-4.4595
(Line Move)
X3.6403 Y28.155 Z-4.4642
(Line Move)
X2.9578 Y29.8324 Z-4.469
(Line Move)
X2.3706 Y31.5478 Z-4.4738
(Line Move)
X1.883 Y33.2962 Z-4.4785
(Line Move)
X1.4991 Y35.072 Z-4.4833
(Line Move)
X1.2225 Y36.869 Z-4.4881
(Line Move)
X1.0553 Y38.6803 Z-4.4928
(Line Move)
X.9993 Y40.4989 Z-4.4976
(Line Move)
X1.0273 Y41.4083 Z-4.5
(Line Move)
X1.0552 Y42.3175 Z-4.5024
(Line Move)
X1.2221 Y44.1289 Z-4.5072
(Line Move)
X1.4987 Y45.9259 Z-4.5119
(Line Move)
X1.8825 Y47.7016 Z-4.5167
(Line Move)
X2.3698 Y49.4501 Z-4.5215
(Line Move)
X2.9571 Y51.1656 Z-4.5262
(Line Move)
X3.6394 Y52.843 Z-4.531
(Line Move)
X4.4119 Y54.4783 Z-4.5357
(Line Move)
X5.2694 Y56.0677 Z-4.5405
(Line Move)
X6.2065 Y57.6085 Z-4.5452
(Line Move)
X7.2179 Y59.0985 Z-4.5499
(Line Move)
X8.2986 Y60.5356 Z-4.5547
(Line Move)
X9.4434 Y61.919 Z-4.5594
(Line Move)
X10.6476 Y63.2477 Z-4.5641
(Line Move)
X11.9065 Y64.5212 Z-4.5688
(Line Move)
X13.216 Y65.7393 Z-4.5735
(Line Move)
X14.5721 Y66.9022 Z-4.5782
(Line Move)
X15.9708 Y68.0099 Z-4.5828
(Line Move)
X17.4089 Y69.063 Z-4.5875
(Line Move)
X18.883 Y70.0618 Z-4.5922
(Line Move)
X20.3901 Y71.0069 Z-4.5969
(Line Move)
X21.9274 Y71.8988 Z-4.6015
(Line Move)
X23.4925 Y72.7383 Z-4.6062
(Line Move)
X25.0827 Y73.5258 Z-4.6109
(Line Move)
X26.696 Y74.2621 Z-4.6155
(Line Move)
X28.3303 Y74.9478 Z-4.6202
(Line Move)
X29.9938 Y75.5873 Z-4.6248
(Line Move)
X33.3396 Y76.7071 Z-4.6341
(Line Move)
X36.7518 Y77.6366 Z-4.6434
(Line Move)
X40.2078 Y78.3759 Z-4.6527
(Line Move)
X43.6968 Y78.9279 Z-4.6619
(Line Move)
X47.2088 Y79.2946 Z-4.6712
(Line Move)
X50.7344 Y79.4776 Z-4.6805
(Line Move)
X54.2645 Y79.4777 Z-4.6897
(Line Move)
X57.7901 Y79.2947 Z-4.699
(Line Move)
X61.3021 Y78.928 Z-4.7083
(Line Move)
X64.7912 Y78.3761 Z-4.7176
(Line Move)
X68.2471 Y77.6369 Z-4.7268
(Line Move)
X71.6594 Y76.7074 Z-4.7361
(Line Move)
X75.0052 Y75.5877 Z-4.7454
(Line Move)
X76.6687 Y74.9482 Z-4.7501
(Line Move)
X78.303 Y74.2626 Z-4.7547
(Line Move)
X79.9163 Y73.5263 Z-4.7594
(Line Move)
X81.5066 Y72.7388 Z-4.764
(Line Move)
X83.0717 Y71.8993 Z-4.7687
(Line Move)
X84.609 Y71.0074 Z-4.7734
(Line Move)
X86.1161 Y70.0624 Z-4.778
(Line Move)
X87.5903 Y69.0636 Z-4.7827
(Line Move)
X89.0283 Y68.0106 Z-4.7874
(Line Move)
X90.4271 Y66.9028 Z-4.7921
(Line Move)
X91.7832 Y65.74 Z-4.7968
(Line Move)
X93.0927 Y64.5219 Z-4.8014
(Line Move)
X94.3517 Y63.2485 Z-4.8061
(Line Move)
X95.5559 Y61.9198 Z-4.8109
(Line Move)
X96.7007 Y60.5365 Z-4.8156
(Line Move)
X97.7814 Y59.0993 Z-4.8203
(Line Move)
X98.7929 Y57.6094 Z-4.825
(Line Move)
X99.7301 Y56.0687 Z-4.8298
(Line Move)
X100.5876 Y54.4792 Z-4.8345
(Line Move)
X101.359 Y52.8463 Z-4.8392
(Line Move)
X101.9613 Y51.3807 Z-4.8434
(Line Move)
X102.434 Y50.06 Z-4.8471
(Line Move)
X103.1072 Y47.7444 Z-4.8534
(Line Move)
X103.4951 Y45.9587 Z-4.8582
(Line Move)
X103.7171 Y44.5919 Z-4.8618
(Line Move)
X103.9293 Y42.5552 Z-4.8672
(Line Move)
X104.0008 Y40.5031 Z-4.8726
(Line Move)
X103.945 Y38.6825 Z-4.8774
(Line Move)
X103.778 Y36.8722 Z-4.8822
(Line Move)
X103.5014 Y35.0756 Z-4.8869
(Line Move)
X103.1178 Y33.2997 Z-4.8917
(Line Move)
X102.6305 Y31.5509 Z-4.8965
(Line Move)
X102.0433 Y29.8354 Z-4.9012
(Line Move)
X101.361 Y28.1579 Z-4.906
(Line Move)
X100.5886 Y26.5227 Z-4.9107
(Line Move)
X99.7312 Y24.9333 Z-4.9155
(Line Move)
X98.7941 Y23.3924 Z-4.9202
(Line Move)
X97.7827 Y21.9024 Z-4.9249
(Line Move)
X96.7021 Y20.4652 Z-4.9297
(Line Move)
X95.5573 Y19.0818 Z-4.9344
(Line Move)
X94.3532 Y17.7531 Z-4.9391
(Line Move)
X93.0942 Y16.4796 Z-4.9438
(Line Move)
X91.7847 Y15.2614 Z-4.9485
(Line Move)
X90.4288 Y14.0985 Z-4.9532
(Line Move)
X89.0301 Y12.9907 Z-4.9578
(Line Move)
X87.592 Y11.9376 Z-4.9625
(Line Move)
X86.1179 Y10.9388 Z-4.9672
(Line Move)
X84.6109 Y9.9937 Z-4.9719
(Line Move)
X83.0735 Y9.1017 Z-4.9765
(Line Move)
X81.5085 Y8.2622 Z-4.9812
(Line Move)
X79.9183 Y7.4746 Z-4.9859
(Line Move)
X78.305 Y6.7383 Z-4.9905
(Line Move)
X76.6707 Y6.0526 Z-4.9952
(Line Move)
X75.0072 Y5.413 Z-4.9998
(Line Move)
X74.9498 Y5.3938 Z-5.
(Line Move)
X71.6614 Y4.2932 Z-5.
(Line Move)
X68.2492 Y3.3636 Z-5.
(Line Move)
X64.7932 Y2.6243 Z-5.
(Line Move)
X61.3043 Y2.0723 Z-5.
(Line Move)
X57.7923 Y1.7055 Z-5.
(Line Move)
X54.2667 Y1.5224 Z-5.
(Line Move)
X50.7365 Y1.5223 Z-5.
(Line Move)
X47.2109 Y1.7052 Z-5.
(Line Move)
X43.6989 Y2.0719 Z-5.
(Line Move)
X40.2099 Y2.6237 Z-5.
(Line Move)
X36.7539 Y3.3629 Z-5.
(Line Move)
X33.3417 Y4.2923 Z-5.
(Line Move)
X29.9958 Y5.4119 Z-5.
(Line Move)
X28.3323 Y6.0514 Z-5.
(Line Move)
X26.698 Y6.737 Z-5.
(Line Move)
X25.0847 Y7.4732 Z-5.
(Line Move)
X23.4943 Y8.2607 Z-5.
(Line Move)
X21.9293 Y9.1001 Z-5.
(Line Move)
X20.3919 Y9.992 Z-5.
(Line Move)
X18.8847 Y10.9371 Z-5.
(Line Move)
X17.4106 Y11.9358 Z-5.
(Line Move)
X15.9726 Y12.9888 Z-5.
(Line Move)
X14.5737 Y14.0965 Z-5.
(Line Move)
X13.2176 Y15.2593 Z-5.
(Line Move)
X11.9081 Y16.4773 Z-5.
(Line Move)
X10.6491 Y17.7508 Z-5.
(Line Move)
X9.4448 Y19.0794 Z-5.
(Line Move)
X8.2999 Y20.4626 Z-5.
(Line Move)
X7.2192 Y21.8998 Z-5.
(Line Move)
X6.2076 Y23.3896 Z-5.
(Line Move)
X5.2704 Y24.9303 Z-5.
(Line Move)
X4.4129 Y26.5198 Z-5.
(Line Move)
X3.6403 Y28.155 Z-5.
(Line Move)
X2.9578 Y29.8324 Z-5.
(Line Move)
X2.3706 Y31.5478 Z-5.
(Line Move)
X1.883 Y33.2962 Z-5.
(Line Move)
X1.4991 Y35.072 Z-5.
(Line Move)
X1.2225 Y36.869 Z-5.
(Line Move)
X1.0553 Y38.6803 Z-5.
(Line Move)
X.9993 Y40.4989 Z-5.
(Line Move)
X1.0552 Y42.3175 Z-5.
(Line Move)
X1.2221 Y44.1289 Z-5.
(Line Move)
X1.4987 Y45.9259 Z-5.
(Line Move)
X1.8825 Y47.7016 Z-5.
(Line Move)
X2.3698 Y49.4501 Z-5.
(Line Move)
X2.9571 Y51.1656 Z-5.
(Line Move)
X3.6394 Y52.843 Z-5.
(Line Move)
X4.4119 Y54.4783 Z-5.
(Line Move)
X5.2694 Y56.0677 Z-5.
(Line Move)
X6.2065 Y57.6085 Z-5.
(Line Move)
X7.2179 Y59.0985 Z-5.
(Line Move)
X8.2986 Y60.5356 Z-5.
(Line Move)
X9.4434 Y61.919 Z-5.
(Line Move)
X10.6476 Y63.2477 Z-5.
(Line Move)
X11.9065 Y64.5212 Z-5.
(Line Move)
X13.216 Y65.7393 Z-5.
(Line Move)
X14.5721 Y66.9022 Z-5.
(Line Move)
X15.9708 Y68.0099 Z-5.
(Line Move)
X17.4089 Y69.063 Z-5.
(Line Move)
X18.883 Y70.0618 Z-5.
(Line Move)
X20.3901 Y71.0069 Z-5.
(Line Move)
X21.9274 Y71.8988 Z-5.
(Line Move)
X23.4925 Y72.7383 Z-5.
(Line Move)
X25.0827 Y73.5258 Z-5.
(Line Move)
X26.696 Y74.2621 Z-5.
(Line Move)
X28.3303 Y74.9478 Z-5.
(Line Move)
X29.9938 Y75.5873 Z-5.
(Line Move)
X33.3396 Y76.7071 Z-5.
(Line Move)
X36.7518 Y77.6366 Z-5.
(Line Move)
X40.2078 Y78.3759 Z-5.
(Line Move)
X43.6968 Y78.9279 Z-5.
(Line Move)
X47.2088 Y79.2946 Z-5.
(Line Move)
X50.7344 Y79.4776 Z-5.
(Line Move)
X54.2645 Y79.4777 Z-5.
(Line Move)
X57.7901 Y79.2947 Z-5.
(Line Move)
X61.3021 Y78.928 Z-5.
(Line Move)
X64.7912 Y78.3761 Z-5.
(Line Move)
X68.2471 Y77.6369 Z-5.
(Line Move)
X71.6594 Y76.7074 Z-5.
(Line Move)
X75.0052 Y75.5877 Z-5.
(Line Move)
X76.6687 Y74.9482 Z-5.
(Line Move)
X78.303 Y74.2626 Z-5.
(Line Move)
X79.9163 Y73.5263 Z-5.
(Line Move)
X81.5066 Y72.7388 Z-5.
(Line Move)
X83.0717 Y71.8993 Z-5.
(Line Move)
X84.609 Y71.0074 Z-5.
(Line Move)
X86.1161 Y70.0624 Z-5.
(Line Move)
X87.5903 Y69.0636 Z-5.
(Line Move)
X89.0283 Y68.0106 Z-5.
(Line Move)
X90.4271 Y66.9028 Z-5.
(Line Move)
X91.7832 Y65.74 Z-5.
(Line Move)
X93.0927 Y64.5219 Z-5.
(Line Move)
X94.3517 Y63.2485 Z-5.
(Line Move)
X95.5559 Y61.9198 Z-5.
(Line Move)
X96.7007 Y60.5365 Z-5.
(Line Move)
X97.7814 Y59.0993 Z-5.
(Line Move)
X98.7929 Y57.6094 Z-5.
(Line Move)
X99.7301 Y56.0687 Z-5.
(Line Move)
X100.5876 Y54.4792 Z-5.
(Line Move)
X101.359 Y52.8463 Z-5.
(Line Move)
X101.9613 Y51.3807 Z-5.
(Line Move)
X102.434 Y50.06 Z-5.
(Line Move)
X103.1072 Y47.7444 Z-5.
(Line Move)
X103.4951 Y45.9587 Z-5.
(Line Move)
X103.7171 Y44.5919 Z-5.
(Line Move)
X103.9293 Y42.5552 Z-5.
(Line Move)
X104.0008 Y40.5031 Z-5.
(Line Move)
X103.945 Y38.6825 Z-5.
(Line Move)
X103.778 Y36.8722 Z-5.
(Line Move)
X103.5014 Y35.0756 Z-5.
(Line Move)
X103.1178 Y33.2997 Z-5.
(Line Move)
X102.6305 Y31.5509 Z-5.
(Line Move)
X102.0433 Y29.8354 Z-5.
(Line Move)
X101.361 Y28.1579 Z-5.
(Line Move)
X100.5886 Y26.5227 Z-5.
(Line Move)
X99.7312 Y24.9333 Z-5.
(Line Move)
X98.7941 Y23.3924 Z-5.
(Line Move)
X97.7827 Y21.9024 Z-5.
(Line Move)
X96.7021 Y20.4652 Z-5.
(Line Move)
X95.5573 Y19.0818 Z-5.
(Line Move)
X94.3532 Y17.7531 Z-5.
(Line Move)
X93.0942 Y16.4796 Z-5.
(Line Move)
X91.7847 Y15.2614 Z-5.
(Line Move)
X90.4288 Y14.0985 Z-5.
(Line Move)
X89.0301 Y12.9907 Z-5.
(Line Move)
X87.592 Y11.9376 Z-5.
(Line Move)
X86.1179 Y10.9388 Z-5.
(Line Move)
X84.6109 Y9.9937 Z-5.
(Line Move)
X83.0735 Y9.1017 Z-5.
(Line Move)
X81.5085 Y8.2622 Z-5.
(Line Move)
X79.9183 Y7.4746 Z-5.
(Line Move)
X78.305 Y6.7383 Z-5.
(Line Move)
X76.6707 Y6.0526 Z-5.
(Line Move)
X75.0072 Y5.413 Z-5.
(Line Move)
X74.9498 Y5.3938 Z-5.
(Line Move)
X74.6653 Y5.2986 Z-5.
(Arc Move)
G3 X74.492 Y5.1479 I.0952 J-.2845
(Line Leadout Move)
G1 X73.796 Y3.7518
(Rapid Z up)
G0 Z3.
(Last Rapid Z Up)
Z5.
(End of Tape)
G53
Z-2 
M5
G4 P1 
G53 X-538 Y-568 
M30
