(Start of Tape)

(Made in : UPC)
(G Code optimized for RS-CNC32 with GRBL V0.9j controller)

( PART NUMBER=1 )
( PART NAME=  )
( PROGRAMMER=  )
( OPERATION NUMBER=  )
( DATE=  )

G90 G17 G21 G80

(Init Tool Change)
(3.175MM CRB 2FL BM 9 LOC)
G0 Z5 
G54
S5000 M3
G4 P1 
(Rapid From Tool Change)
G0 G90 X3.9928 Y-.4763
(Rapid Z Down)
Z3.6
(Feed Z Down)
G1 Z1.1 F300.
(Line Move)
X4.7385 Y-.2565 Z1.0725
(Line Move)
X4.7635 Y-.0572 Z1.0652
(Line Move)
X4.6114 Y.0739 Z1.0579
(Line Move)
X2.7507 Y.4881 Z.9913
(Line Move)
X-.5945 Y.7754 Z.8741
(Line Move)
X-4.3789 Y.408 Z.7413
(Line Move)
X-5.3029 Y.2263 Z.7084
(Line Move)
X-5.4162 Y.1298 Z.703
(Line Move)
X-5.3652 Y-.0443 Z.6962
(Line Move)
X-2.1292 Y-.5062 Z.582
(Line Move)
X.7485 Y-.7376 Z.4811
(Line Move)
X3.4025 Y-.6054 Z.3884
(Line Move)
X4.7385 Y-.2565 Z.3397
(Line Move)
X4.7635 Y-.0572 Z.3324
(Line Move)
X4.6114 Y.0739 Z.3251
(Line Move)
X2.7507 Y.4881 Z.2586
(Line Move)
X-.5945 Y.7754 Z.1413
(Line Move)
X-4.3789 Y.408 Z.0085
(Line Move)
X-5.3029 Y.2263 Z-.0243
(Line Move)
X-5.4162 Y.1298 Z-.0298
(Line Move)
X-5.3652 Y-.0443 Z-.0365
(Line Move)
X-2.1292 Y-.5062 Z-.1508
(Line Move)
X.7485 Y-.7376 Z-.2516
(Line Move)
X3.4025 Y-.6054 Z-.3444
(Line Move)
X4.7385 Y-.2565 Z-.393
(Line Move)
X4.7635 Y-.0572 Z-.4003
(Line Move)
X4.6114 Y.0739 Z-.4076
(Line Move)
X2.7507 Y.4881 Z-.4742
(Line Move)
X-.5945 Y.7754 Z-.5914
(Line Move)
X-4.3789 Y.408 Z-.7242
(Line Move)
X-5.3029 Y.2263 Z-.7571
(Line Move)
X-5.4162 Y.1298 Z-.7625
(Line Move)
X-5.3652 Y-.0443 Z-.7693
(Line Move)
X-2.1292 Y-.5062 Z-.8835
(Line Move)
X.7485 Y-.7376 Z-.9844
(Line Move)
X3.4025 Y-.6054 Z-1.0771
(Line Move)
X4.7385 Y-.2565 Z-1.1258
(Line Move)
X4.7635 Y-.0572 Z-1.1331
(Line Move)
X4.6114 Y.0739 Z-1.1404
(Line Move)
X2.7507 Y.4881 Z-1.2069
(Line Move)
X-.5945 Y.7754 Z-1.3242
(Line Move)
X-4.3789 Y.408 Z-1.457
(Line Move)
X-5.3029 Y.2263 Z-1.4898
(Line Move)
X-5.4162 Y.1298 Z-1.4953
(Line Move)
X-5.4029 Y-.0005 Z-1.5
(Line Move)
X-5.3929 Y-.0172 Z-1.5 F750.
(Line Move)
X-5.3652 Y-.0443 Z-1.5
(Line Move)
X-5.3315 Y-.0635 Z-1.5
(Line Move)
X-5.2941 Y-.0736 Z-1.5
(Line Move)
X-2.1292 Y-.5062 Z-1.5
(Line Move)
X.7485 Y-.7376 Z-1.5
(Line Move)
X3.4025 Y-.6054 Z-1.5
(Line Move)
X4.6106 Y-.3412 Z-1.5
(Line Move)
X4.6598 Y-.3239 Z-1.5
(Line Move)
X4.7033 Y-.2951 Z-1.5
(Line Move)
X4.7385 Y-.2565 Z-1.5
(Line Move)
X4.7632 Y-.2106 Z-1.5
(Line Move)
X4.7761 Y-.16 Z-1.5
(Line Move)
X4.7762 Y-.1079 Z-1.5
(Line Move)
X4.7635 Y-.0572 Z-1.5
(Line Move)
X4.739 Y-.0112 Z-1.5
(Line Move)
X4.7039 Y.0274 Z-1.5
(Line Move)
X4.6605 Y.0564 Z-1.5
(Line Move)
X4.6114 Y.0739 Z-1.5
(Line Move)
X2.7507 Y.4881 Z-1.5
(Line Move)
X-.5945 Y.7754 Z-1.5
(Line Move)
X-4.3789 Y.408 Z-1.5
(Line Move)
X-5.3029 Y.2263 Z-1.5
(Line Move)
X-5.3396 Y.214 Z-1.5
(Line Move)
X-5.3721 Y.1929 Z-1.5
(Line Move)
X-5.3982 Y.1642 Z-1.5
(Line Move)
X-5.4162 Y.1298 Z-1.5
(Line Move)
X-5.4249 Y.092 Z-1.5
(Line Move)
X-5.4237 Y.0533 Z-1.5
(Line Move)
X-5.4128 Y.0161 Z-1.5
(Line Move)
X-5.4029 Y-.0005 Z-1.5
(Line Move)
X-5.3785 Y-.3048 Z-1.5
(Line Move)
X-5.5383 Y-.56 Z-1.5
(Line Move)
X-5.6532 Y-.745 Z-1.5
(Line Move)
X-5.4939 Y-.8384 Z-1.5
(Line Move)
X.2147 Y-1.4588 Z-1.5
(Line Move)
X3.8045 Y-1.28 Z-1.5
(Line Move)
X6.7933 Y-.6802 Z-1.5
(Line Move)
X7.7299 Y-.3993 Z-1.5
(Line Move)
X7.7857 Y-.375 Z-1.5
(Line Move)
X7.8342 Y-.3382 Z-1.5
(Line Move)
X7.8725 Y-.2909 Z-1.5
(Line Move)
X7.8986 Y-.2359 Z-1.5
(Line Move)
X7.9109 Y-.1762 Z-1.5
(Line Move)
X7.9087 Y-.1154 Z-1.5
(Line Move)
X7.8921 Y-.0568 Z-1.5
(Line Move)
X7.8622 Y-.0038 Z-1.5
(Line Move)
X7.8205 Y.0406 Z-1.5
(Line Move)
X7.7695 Y.0738 Z-1.5
(Line Move)
X7.7121 Y.0941 Z-1.5
(Line Move)
X2.2623 Y1.3076 Z-1.5
(Line Move)
X-.9485 Y1.4904 Z-1.5
(Line Move)
X-5.629 Y.916 Z-1.5
(Line Move)
X-7.5951 Y.4023 Z-1.5
(Line Move)
X-7.6692 Y.3724 Z-1.5
(Line Move)
X-7.7334 Y.3247 Z-1.5
(Line Move)
X-7.7834 Y.2623 Z-1.5
(Line Move)
X-7.8161 Y.1893 Z-1.5
(Line Move)
X-7.8292 Y.1104 Z-1.5
(Line Move)
X-7.8219 Y.0308 Z-1.5
(Line Move)
X-7.7948 Y-.0444 Z-1.5
(Line Move)
X-7.7495 Y-.1103 Z-1.5
(Line Move)
X-7.689 Y-.1627 Z-1.5
(Line Move)
X-7.6173 Y-.198 Z-1.5
(Line Move)
X-5.8622 Y-.7984 Z-1.5
(Line Move)
X-5.4939 Y-.8384 Z-1.5
(Line Move)
X-5.3667 Y-.9612 Z-1.5
(Line Move)
X-5.5342 Y-1.1829 Z-1.5
(Line Move)
X-5.7018 Y-1.4054 Z-1.5
(Line Move)
X-5.5748 Y-1.5304 Z-1.5
(Line Move)
X-.2949 Y-2.1473 Z-1.5
(Line Move)
X1.7287 Y-2.1681 Z-1.5
(Line Move)
X3.9024 Y-1.9679 Z-1.5
(Line Move)
X7.6179 Y-1.2223 Z-1.5
(Line Move)
X9.8521 Y-.4371 Z-1.5
(Line Move)
X9.9191 Y-.4042 Z-1.5
(Line Move)
X9.9765 Y-.3566 Z-1.5
(Line Move)
X10.0211 Y-.2968 Z-1.5
(Line Move)
X10.0504 Y-.2282 Z-1.5
(Line Move)
X10.0628 Y-.1546 Z-1.5
(Line Move)
X10.0577 Y-.0802 Z-1.5
(Line Move)
X10.0352 Y-.0091 Z-1.5
(Line Move)
X9.9966 Y.0548 Z-1.5
(Line Move)
X9.9442 Y.1079 Z-1.5
(Line Move)
X9.8808 Y.1471 Z-1.5
(Line Move)
X9.1783 Y.4744 Z-1.5
(Line Move)
X2.7558 Y1.9744 Z-1.5
(Line Move)
X-.9588 Y2.1859 Z-1.5
(Line Move)
X-3.7166 Y1.9464 Z-1.5
(Line Move)
X-6.5736 Y1.4585 Z-1.5
(Line Move)
X-8.8923 Y.777 Z-1.5
(Line Move)
X-9.7671 Y.4402 Z-1.5
(Line Move)
X-9.8404 Y.4012 Z-1.5
(Line Move)
X-9.902 Y.3455 Z-1.5
(Line Move)
X-9.9484 Y.2766 Z-1.5
(Line Move)
X-9.9767 Y.1986 Z-1.5
(Line Move)
X-9.9853 Y.1159 Z-1.5
(Line Move)
X-9.9736 Y.0337 Z-1.5
(Line Move)
X-9.9423 Y-.0432 Z-1.5
(Line Move)
X-9.8934 Y-.1103 Z-1.5
(Line Move)
X-9.8297 Y-.1636 Z-1.5
(Line Move)
X-9.755 Y-.1999 Z-1.5
(Line Move)
X-6.0165 Y-1.4788 Z-1.5
(Line Move)
X-5.5748 Y-1.5304 Z-1.5
(Line Move)
X-5.4485 Y-1.6543 Z-1.5
(Line Move)
X-5.6178 Y-1.8749 Z-1.5
(Line Move)
X-5.7871 Y-2.0962 Z-1.5
(Line Move)
X-5.6611 Y-2.2223 Z-1.5
(Line Move)
X-.7993 Y-2.8288 Z-1.5
(Line Move)
X1.5018 Y-2.8857 Z-1.5
(Line Move)
X3.9359 Y-2.6688 Z-1.5
(Line Move)
X8.27 Y-1.7991 Z-1.5
(Line Move)
X11.2764 Y-.6593 Z-1.5
(Line Move)
X11.389 Y-.5989 Z-1.5
(Line Move)
X11.4822 Y-.5116 Z-1.5
(Line Move)
X11.5498 Y-.4032 Z-1.5
(Line Move)
X11.5872 Y-.2811 Z-1.5
(Line Move)
X11.5919 Y-.1534 Z-1.5
(Line Move)
X11.5635 Y-.0289 Z-1.5
(Line Move)
X11.5041 Y.0842 Z-1.5
(Line Move)
X11.4176 Y.1781 Z-1.5
(Line Move)
X11.3098 Y.2467 Z-1.5
(Line Move)
X9.4095 Y1.132 Z-1.5
(Line Move)
X3.2493 Y2.6411 Z-1.5
(Line Move)
X-.9243 Y2.887 Z-1.5
(Line Move)
X-4.1204 Y2.6075 Z-1.5
(Line Move)
X-6.7336 Y2.1346 Z-1.5
(Line Move)
X-9.8701 Y1.2126 Z-1.5
(Line Move)
X-11.4885 Y.4828 Z-1.5
(Line Move)
X-11.5804 Y.4273 Z-1.5
(Line Move)
X-11.6565 Y.3518 Z-1.5
(Line Move)
X-11.7125 Y.2603 Z-1.5
(Line Move)
X-11.7454 Y.1582 Z-1.5
(Line Move)
X-11.7531 Y.0512 Z-1.5
(Line Move)
X-11.7354 Y-.0545 Z-1.5
(Line Move)
X-11.6931 Y-.1531 Z-1.5
(Line Move)
X-11.6287 Y-.2389 Z-1.5
(Line Move)
X-11.5458 Y-.3069 Z-1.5
(Line Move)
X-11.4492 Y-.3535 Z-1.5
(Line Move)
X-6.1733 Y-2.1584 Z-1.5
(Line Move)
X-5.6611 Y-2.2223 Z-1.5
(Line Move)
X-5.5359 Y-2.3472 Z-1.5
(Line Move)
X-5.7072 Y-2.5667 Z-1.5
(Line Move)
X-5.8786 Y-2.7871 Z-1.5
(Line Move)
X-5.7538 Y-2.9145 Z-1.5
(Line Move)
X-1.3038 Y-3.5103 Z-1.5
(Line Move)
X1.524 Y-3.5802 Z-1.5
(Line Move)
X4.0352 Y-3.3564 Z-1.5
(Line Move)
X8.8058 Y-2.3991 Z-1.5
(Line Move)
X11.8722 Y-1.2801 Z-1.5
(Line Move)
X13.0359 Y-.6821 Z-1.5
(Line Move)
X13.138 Y-.6124 Z-1.5
(Line Move)
X13.2199 Y-.5198 Z-1.5
(Line Move)
X13.2766 Y-.41 Z-1.5
(Line Move)
X13.3046 Y-.2896 Z-1.5
(Line Move)
X13.3022 Y-.166 Z-1.5
(Line Move)
X13.2696 Y-.0467 Z-1.5
(Line Move)
X13.2087 Y.0608 Z-1.5
(Line Move)
X13.1233 Y.1502 Z-1.5
(Line Move)
X13.0185 Y.2159 Z-1.5
(Line Move)
X9.6433 Y1.7885 Z-1.5
(Line Move)
X3.7278 Y3.2876 Z-1.5
(Line Move)
X1.5943 Y3.5161 Z-1.5
(Line Move)
X-.9457 Y3.5815 Z-1.5
(Line Move)
X-4.4286 Y3.2769 Z-1.5
(Line Move)
X-6.8963 Y2.8098 Z-1.5
(Line Move)
X-10.1117 Y1.8647 Z-1.5
(Line Move)
X-13.5254 Y.3252 Z-1.5
(Line Move)
X-13.5917 Y.285 Z-1.5
(Line Move)
X-13.6463 Y.2299 Z-1.5
(Line Move)
X-13.686 Y.1632 Z-1.5
(Line Move)
X-13.7084 Y.0889 Z-1.5
(Line Move)
X-13.7122 Y.0114 Z-1.5
(Line Move)
X-13.6971 Y-.0647 Z-1.5
(Line Move)
X-13.6641 Y-.1349 Z-1.5
(Line Move)
X-13.6151 Y-.195 Z-1.5
(Line Move)
X-13.553 Y-.2416 Z-1.5
(Line Move)
X-13.0122 Y-.552 Z-1.5
(Line Move)
X-6.3332 Y-2.8369 Z-1.5
(Line Move)
X-5.7538 Y-2.9145 Z-1.5
(Line Move)
X-5.64 Y-2.9852 Z-1.5
(Line Move)
X-5.644 Y-3.1308 Z-1.5
(Line Move)
X-5.8487 Y-3.5474 Z-1.5
(Line Move)
X-6.0536 Y-3.9654 Z-1.5
(Line Move)
X-6.0579 Y-4.1129 Z-1.5
(Line Move)
X-5.9445 Y-4.1861 Z-1.5
(Line Move)
X-2.2176 Y-4.745 Z-1.5
(Line Move)
X1.0203 Y-4.8985 Z-1.5
(Line Move)
X3.9404 Y-4.6775 Z-1.5
(Line Move)
X9.5171 Y-3.5584 Z-1.5
(Line Move)
X13.0364 Y-2.1988 Z-1.5
(Line Move)
X14.6753 Y-1.2682 Z-1.5
(Line Move)
X15.7216 Y-.432 Z-1.5
(Line Move)
X15.8097 Y-.3411 Z-1.5
(Line Move)
X15.8722 Y-.2309 Z-1.5
(Line Move)
X15.9049 Y-.1086 Z-1.5
(Line Move)
X15.9059 Y.018 Z-1.5
(Line Move)
X15.8751 Y.1408 Z-1.5
(Line Move)
X15.8144 Y.2519 Z-1.5
(Line Move)
X15.7277 Y.3442 Z-1.5
(Line Move)
X15.6206 Y.4118 Z-1.5
(Line Move)
X10.0813 Y2.9928 Z-1.5
(Line Move)
X4.5966 Y4.4614 Z-1.5
(Line Move)
X2.1766 Y4.7782 Z-1.5
(Line Move)
X-.985 Y4.8595 Z-1.5
(Line Move)
X-4.7883 Y4.5269 Z-1.5
(Line Move)
X-7.6146 Y3.9697 Z-1.5
(Line Move)
X-10.5465 Y3.0665 Z-1.5
(Line Move)
X-13.8707 Y1.6783 Z-1.5
(Line Move)
X-15.4561 Y.751 Z-1.5
(Line Move)
X-15.96 Y.3343 Z-1.5
(Line Move)
X-16.0234 Y.2669 Z-1.5
(Line Move)
X-16.0682 Y.1859 Z-1.5
(Line Move)
X-16.0917 Y.0964 Z-1.5
(Line Move)
X-16.0924 Y.0039 Z-1.5
(Line Move)
X-16.0702 Y-.086 Z-1.5
(Line Move)
X-16.0265 Y-.1675 Z-1.5
(Line Move)
X-15.964 Y-.2358 Z-1.5
(Line Move)
X-15.6264 Y-.5233 Z-1.5
(Line Move)
X-13.5414 Y-1.7202 Z-1.5
(Line Move)
X-6.6369 Y-4.0822 Z-1.5
(Line Move)
X-5.9445 Y-4.1861 Z-1.5
(Line Move)
X-5.8324 Y-4.26 Z-1.5
(Line Move)
X-5.8404 Y-4.4096 Z-1.5
(Line Move)
X-6.0565 Y-4.8356 Z-1.5
(Line Move)
X-6.273 Y-5.2635 Z-1.5
(Line Move)
X-6.2814 Y-5.4156 Z-1.5
(Line Move)
X-6.1699 Y-5.4932 Z-1.5
(Line Move)
X-3.1561 Y-6.013 Z-1.5
(Line Move)
X1.0317 Y-6.2116 Z-1.5
(Line Move)
X3.7384 Y-6.0361 Z-1.5
(Line Move)
X6.1745 Y-5.6546 Z-1.5
(Line Move)
X10.054 Y-4.7814 Z-1.5
(Line Move)
X12.2765 Y-3.9968 Z-1.5
(Line Move)
X13.9987 Y-3.1976 Z-1.5
(Line Move)
X15.8077 Y-2.1195 Z-1.5
(Line Move)
X17.891 Y-.3366 Z-1.5
(Line Move)
X17.972 Y-.2484 Z-1.5
(Line Move)
X18.0297 Y-.1436 Z-1.5
(Line Move)
X18.0608 Y-.028 Z-1.5
(Line Move)
X18.0636 Y.0917 Z-1.5
(Line Move)
X18.0378 Y.2086 Z-1.5
(Line Move)
X17.985 Y.316 Z-1.5
(Line Move)
X17.9082 Y.4078 Z-1.5
(Line Move)
X16.9631 Y1.2954 Z-1.5
(Line Move)
X10.5333 Y4.2276 Z-1.5
(Line Move)
X5.4754 Y5.6487 Z-1.5
(Line Move)
X2.8165 Y6.0731 Z-1.5
(Line Move)
X-1.0254 Y6.172 Z-1.5
(Line Move)
X-4.9728 Y5.8268 Z-1.5
(Line Move)
X-8.1631 Y5.1978 Z-1.5
(Line Move)
X-10.954 Y4.3127 Z-1.5
(Line Move)
X-14.8608 Y2.6856 Z-1.5
(Line Move)
X-16.6026 Y1.5747 Z-1.5
(Line Move)
X-17.8186 Y.4181 Z-1.5
(Line Move)
X-17.8923 Y.3298 Z-1.5
(Line Move)
X-17.9438 Y.227 Z-1.5
(Line Move)
X-17.9705 Y.1151 Z-1.5
(Line Move)
X-17.9709 Y0 Z-1.5
(Line Move)
X-17.9451 Y-.112 Z-1.5
(Line Move)
X-17.8943 Y-.2151 Z-1.5
(Line Move)
X-17.8212 Y-.304 Z-1.5
(Line Move)
X-16.6728 Y-1.412 Z-1.5
(Line Move)
X-14.6013 Y-2.7265 Z-1.5
(Line Move)
X-11.5656 Y-3.8468 Z-1.5
(Line Move)
X-6.9541 Y-5.3579 Z-1.5
(Line Move)
X-6.1699 Y-5.4932 Z-1.5
(Line Move)
X-6.063 Y-5.5621 Z-1.5
(Line Move)
X-6.0836 Y-5.6922 Z-1.5
(Line Move)
X-6.3382 Y-6.0577 Z-1.5
(Line Move)
X-6.5952 Y-6.434 Z-1.5
(Line Move)
X-6.619 Y-6.5773 Z-1.5
(Line Move)
X-6.5164 Y-6.6649 Z-1.5
(Line Move)
X-6.3992 Y-6.6996 Z-1.5
(Line Move)
X-3.9823 Y-7.1043 Z-1.5
(Line Move)
X1.0415 Y-7.3425 Z-1.5
(Line Move)
X3.8586 Y-7.1599 Z-1.5
(Line Move)
X6.1529 Y-6.8169 Z-1.5
(Line Move)
X10.4001 Y-5.861 Z-1.5
(Line Move)
X12.8312 Y-4.9982 Z-1.5
(Line Move)
X14.7068 Y-4.1119 Z-1.5
(Line Move)
X16.3896 Y-3.0876 Z-1.5
(Line Move)
X19.1119 Y-.867 Z-1.5
(Line Move)
X19.5932 Y-.089 Z-1.5
(Line Move)
X19.4156 Y.4655 Z-1.5
(Line Move)
X18.7794 Y1.2383 Z-1.5
(Line Move)
X17.5733 Y2.2582 Z-1.5
(Line Move)
X10.928 Y5.2887 Z-1.5
(Line Move)
X6.4014 Y6.6116 Z-1.5
(Line Move)
X3.6167 Y7.1822 Z-1.5
(Line Move)
X-1.0601 Y7.3025 Z-1.5
(Line Move)
X-5.1316 Y6.9465 Z-1.5
(Line Move)
X-8.4439 Y6.2934 Z-1.5
(Line Move)
X-11.3872 Y5.3599 Z-1.5
(Line Move)
X-15.6624 Y3.5746 Z-1.5
(Line Move)
X-17.257 Y2.5108 Z-1.5
(Line Move)
X-19.451 Y.424 Z-1.5
(Line Move)
X-19.5247 Y.3357 Z-1.5
(Line Move)
X-19.5762 Y.2328 Z-1.5
(Line Move)
X-19.6029 Y.121 Z-1.5
(Line Move)
X-19.6033 Y.0059 Z-1.5
(Line Move)
X-19.5774 Y-.1062 Z-1.5
(Line Move)
X-19.5265 Y-.2093 Z-1.5
(Line Move)
X-19.4535 Y-.2982 Z-1.5
(Line Move)
X-17.3445 Y-2.332 Z-1.5
(Line Move)
X-15.1049 Y-3.7443 Z-1.5
(Line Move)
X-9.9118 Y-5.6609 Z-1.5
(Line Move)
X-6.5164 Y-6.6649 Z-1.5
(Line Move)
X-6.4109 Y-6.7633 Z-1.5
(Line Move)
X-6.4268 Y-6.9354 Z-1.5
(Line Move)
X-6.6605 Y-7.3993 Z-1.5
(Line Move)
X-6.8921 Y-7.8546 Z-1.5
(Line Move)
X-6.9054 Y-8.0158 Z-1.5
(Line Move)
X-6.7962 Y-8.0991 Z-1.5
(Line Move)
X-5.0204 Y-8.4456 Z-1.5
(Line Move)
X-2.6458 Y-8.7148 Z-1.5
(Line Move)
X.4021 Y-8.8258 Z-1.5
(Line Move)
X3.4825 Y-8.6726 Z-1.5
(Line Move)
X6.004 Y-8.3364 Z-1.5
(Line Move)
X10.8031 Y-7.2562 Z-1.5
(Line Move)
X13.3847 Y-6.3401 Z-1.5
(Line Move)
X15.4515 Y-5.3634 Z-1.5
(Line Move)
X17.2485 Y-4.2734 Z-1.5
(Line Move)
X20.218 Y-1.8344 Z-1.5
(Line Move)
X21.1777 Y-.2833 Z-1.5
(Line Move)
X20.7114 Y1.1723 Z-1.5
(Line Move)
X19.8154 Y2.2608 Z-1.5
(Line Move)
X18.3672 Y3.4854 Z-1.5
(Line Move)
X13.7723 Y5.6851 Z-1.5
(Line Move)
X11.378 Y6.6712 Z-1.5
(Line Move)
X7.5902 Y7.8479 Z-1.5
(Line Move)
X3.7821 Y8.6281 Z-1.5
(Line Move)
X-1.1048 Y8.7538 Z-1.5
(Line Move)
X-5.3286 Y8.3845 Z-1.5
(Line Move)
X-8.5328 Y7.7848 Z-1.5
(Line Move)
X-11.7874 Y6.7639 Z-1.5
(Line Move)
X-16.5211 Y4.787 Z-1.5
(Line Move)
X-18.1202 Y3.6904 Z-1.5
(Line Move)
X-20.7458 Y1.1932 Z-1.5
(Line Move)
X-21.2029 Y.2858 Z-1.5
(Line Move)
X-21.1779 Y-.4066 Z-1.5
(Line Move)
X-20.8078 Y-1.0928 Z-1.5
(Line Move)
X-18.2322 Y-3.4861 Z-1.5
(Line Move)
X-15.7495 Y-5.0517 Z-1.5
(Line Move)
X-10.3882 Y-7.0304 Z-1.5
(Line Move)
X-7.5952 Y-7.9432 Z-1.5
(Line Move)
X-6.7962 Y-8.0991 Z-1.5
(Line Move)
X-6.6892 Y-8.1855 Z-1.5
(Line Move)
X-6.7084 Y-8.3544 Z-1.5
(Line Move)
X-6.957 Y-8.8306 Z-1.5
(Line Move)
X-7.2061 Y-9.309 Z-1.5
(Line Move)
X-7.2258 Y-9.4807 Z-1.5
(Line Move)
X-7.1197 Y-9.5708 Z-1.5
(Line Move)
X-6.0856 Y-9.7981 Z-1.5
(Line Move)
X-3.5689 Y-10.1515 Z-1.5
(Line Move)
X-.3074 Y-10.3397 Z-1.5
(Line Move)
X3.0189 Y-10.2205 Z-1.5
(Line Move)
X5.7497 Y-9.9183 Z-1.5
(Line Move)
X11.2167 Y-8.6879 Z-1.5
(Line Move)
X13.9526 Y-7.7169 Z-1.5
(Line Move)
X16.1569 Y-6.6753 Z-1.5
(Line Move)
X18.1107 Y-5.4902 Z-1.5
(Line Move)
X21.353 Y-2.8271 Z-1.5
(Line Move)
X22.7768 Y-.5259 Z-1.5
(Line Move)
X22.2835 Y1.3828 Z-1.5
(Line Move)
X21.9553 Y2.0018 Z-1.5
(Line Move)
X20.8784 Y3.3099 Z-1.5
(Line Move)
X19.1852 Y4.7417 Z-1.5
(Line Move)
X14.8309 Y6.8578 Z-1.5
(Line Move)
X9.9258 Y8.8319 Z-1.5
(Line Move)
X3.9519 Y10.1117 Z-1.5
(Line Move)
X-1.1406 Y10.2427 Z-1.5
(Line Move)
X-5.018 Y9.9559 Z-1.5
(Line Move)
X-8.8883 Y9.2316 Z-1.5
(Line Move)
X-12.0668 Y8.2592 Z-1.5
(Line Move)
X-17.2358 Y6.1006 Z-1.5
(Line Move)
X-19.0594 Y4.8501 Z-1.5
(Line Move)
X-21.958 Y2.0931 Z-1.5
(Line Move)
X-22.7033 Y.6139 Z-1.5
(Line Move)
X-22.6519 Y-.8072 Z-1.5
(Line Move)
X-22.0003 Y-2.0152 Z-1.5
(Line Move)
X-19.0433 Y-4.763 Z-1.5
(Line Move)
X-16.4049 Y-6.3953 Z-1.5
(Line Move)
X-8.8042 Y-9.2005 Z-1.5
(Line Move)
X-7.1197 Y-9.5708 Z-1.5
(Line Move)
X-7.0147 Y-9.6604 Z-1.5
(Line Move)
X-7.0377 Y-9.8308 Z-1.5
(Line Move)
X-7.2969 Y-10.3069 Z-1.5
(Line Move)
X-7.5566 Y-10.7849 Z-1.5
(Line Move)
X-7.5801 Y-10.9576 Z-1.5
(Line Move)
X-7.4759 Y-11.0503 Z-1.5
(Line Move)
X-7.1484 Y-11.1292 Z-1.5
(Line Move)
X-4.5072 Y-11.5686 Z-1.5
(Line Move)
X-1.0582 Y-11.845 Z-1.5
(Line Move)
X2.4942 Y-11.7626 Z-1.5
(Line Move)
X5.4176 Y-11.4934 Z-1.5
(Line Move)
X8.6038 Y-10.8991 Z-1.5
(Line Move)
X11.6523 Y-10.1117 Z-1.5
(Line Move)
X14.5205 Y-9.0938 Z-1.5
(Line Move)
X16.8623 Y-7.9872 Z-1.5
(Line Move)
X18.9441 Y-6.7244 Z-1.5
(Line Move)
X20.8024 Y-5.3332 Z-1.5
(Line Move)
X22.4754 Y-3.8174 Z-1.5
(Line Move)
X23.5647 Y-2.2629 Z-1.5
(Line Move)
X24.2214 Y-.9657 Z-1.5
(Line Move)
X24.3258 Y-.1176 Z-1.5
(Line Move)
X23.4977 Y2.4686 Z-1.5
(Line Move)
X21.9415 Y4.359 Z-1.5
(Line Move)
X20.0032 Y5.998 Z-1.5
(Line Move)
X14.4875 Y8.6785 Z-1.5
(Line Move)
X10.0299 Y10.3848 Z-1.5
(Line Move)
X4.1329 Y11.593 Z-1.5
(Line Move)
X-.481 Y11.7831 Z-1.5
(Line Move)
X-5.2008 Y11.4339 Z-1.5
(Line Move)
X-8.7994 Y10.8078 Z-1.5
(Line Move)
X-12.2372 Y9.8 Z-1.5
(Line Move)
X-17.9434 Y7.4171 Z-1.5
(Line Move)
X-19.8305 Y6.1517 Z-1.5
(Line Move)
X-21.7143 Y4.505 Z-1.5
(Line Move)
X-23.1148 Y3.0354 Z-1.5
(Line Move)
X-23.6597 Y2.2487 Z-1.5
(Line Move)
X-24.201 Y.8693 Z-1.5
(Line Move)
X-24.1259 Y-1.2079 Z-1.5
(Line Move)
X-23.2116 Y-2.9028 Z-1.5
(Line Move)
X-21.7956 Y-4.3631 Z-1.5
(Line Move)
X-19.9238 Y-5.9673 Z-1.5
(Line Move)
X-17.0682 Y-7.7342 Z-1.5
(Line Move)
X-9.9989 Y-10.4429 Z-1.5
(Line Move)
X-7.4759 Y-11.0503 Z-1.5
(Line Move)
X-7.3686 Y-11.1436 Z-1.5
(Line Move)
X-7.3839 Y-11.3173 Z-1.5
(Line Move)
X-7.6186 Y-11.7976 Z-1.5
(Line Move)
X-7.8524 Y-12.2735 Z-1.5
(Line Move)
X-7.8665 Y-12.4418 Z-1.5
(Line Move)
X-7.7575 Y-12.5274 Z-1.5
(Line Move)
X-5.4552 Y-12.9664 Z-1.5
(Line Move)
X-1.8397 Y-13.3386 Z-1.5
(Line Move)
X1.9169 Y-13.3095 Z-1.5
(Line Move)
X5.6226 Y-12.9683 Z-1.5
(Line Move)
X8.9266 Y-12.3521 Z-1.5
(Line Move)
X12.0799 Y-11.5375 Z-1.5
(Line Move)
X14.7633 Y-10.6184 Z-1.5
(Line Move)
X17.2871 Y-9.4641 Z-1.5
(Line Move)
X19.5371 Y-8.1335 Z-1.5
(Line Move)
X21.5525 Y-6.6608 Z-1.5
(Line Move)
X23.5978 Y-4.8078 Z-1.5
(Line Move)
X24.8439 Y-3.0296 Z-1.5
(Line Move)
X25.666 Y-1.4056 Z-1.5
(Line Move)
X25.8354 Y-.0292 Z-1.5
(Line Move)
X25.4093 Y1.716 Z-1.5
(Line Move)
X24.7903 Y3.2389 Z-1.5
(Line Move)
X23.0045 Y5.4081 Z-1.5
(Line Move)
X20.833 Y7.2444 Z-1.5
(Line Move)
X16.4914 Y9.4648 Z-1.5
(Line Move)
X11.2219 Y11.6244 Z-1.5
(Line Move)
X8.2463 Y12.353 Z-1.5
(Line Move)
X4.2981 Y13.075 Z-1.5
(Line Move)
X-.4967 Y13.2725 Z-1.5
(Line Move)
X-4.7943 Y13.0042 Z-1.5
(Line Move)
X-8.6308 Y12.3976 Z-1.5
(Line Move)
X-12.3148 Y11.3796 Z-1.5
(Line Move)
X-18.6509 Y8.7336 Z-1.5
(Line Move)
X-20.7309 Y7.3389 Z-1.5
(Line Move)
X-22.5482 Y5.7861 Z-1.5
(Line Move)
X-24.2716 Y3.9777 Z-1.5
(Line Move)
X-24.9811 Y2.9533 Z-1.5
(Line Move)
X-25.6987 Y1.1247 Z-1.5
(Line Move)
X-25.5999 Y-1.6085 Z-1.5
(Line Move)
X-24.423 Y-3.7904 Z-1.5
(Line Move)
X-22.8158 Y-5.4479 Z-1.5
(Line Move)
X-20.8044 Y-7.1717 Z-1.5
(Line Move)
X-17.7394 Y-9.0681 Z-1.5
(Line Move)
X-11.1825 Y-11.6736 Z-1.5
(Line Move)
X-8.2079 Y-12.4415 Z-1.5
(Line Move)
X-7.7575 Y-12.5274 Z-1.5
(Line Move)
X-7.65 Y-12.6129 Z-1.5
(Line Move)
X-7.6678 Y-12.781 Z-1.5
(Line Move)
X-7.9126 Y-13.2557 Z-1.5
(Line Move)
X-8.1578 Y-13.7323 Z-1.5
(Line Move)
X-8.1761 Y-13.9028 Z-1.5
(Line Move)
X-8.0692 Y-13.9918 Z-1.5
(Line Move)
X-6.4089 Y-14.3452 Z-1.5
(Line Move)
X-2.6455 Y-14.8205 Z-1.5
(Line Move)
X1.3003 Y-14.8482 Z-1.5
(Line Move)
X5.2071 Y-14.5511 Z-1.5
(Line Move)
X8.7079 Y-13.9386 Z-1.5
(Line Move)
X12.0593 Y-13.1091 Z-1.5
(Line Move)
X14.9199 Y-12.1747 Z-1.5
(Line Move)
X17.6203 Y-10.9861 Z-1.5
(Line Move)
X20.039 Y-9.6091 Z-1.5
(Line Move)
X22.4932 Y-7.8157 Z-1.5
(Line Move)
X24.6933 Y-5.8225 Z-1.5
(Line Move)
X25.8567 Y-4.3222 Z-1.5
(Line Move)
X27.1105 Y-1.8454 Z-1.5
(Line Move)
X27.3451 Y.0592 Z-1.5
(Line Move)
X26.6811 Y2.7786 Z-1.5
(Line Move)
X26.0464 Y4.0535 Z-1.5
(Line Move)
X24.0676 Y6.4572 Z-1.5
(Line Move)
X21.6627 Y8.4908 Z-1.5
(Line Move)
X17.1255 Y10.8113 Z-1.5
(Line Move)
X12.4008 Y12.8503 Z-1.5
(Line Move)
X9.3201 Y13.6688 Z-1.5
(Line Move)
X4.474 Y14.555 Z-1.5
(Line Move)
X.1927 Y14.7937 Z-1.5
(Line Move)
X-4.3333 Y14.583 Z-1.5
(Line Move)
X-8.9461 Y13.8538 Z-1.5
(Line Move)
X-12.781 Y12.794 Z-1.5
(Line Move)
X-16.1419 Y11.5011 Z-1.5
(Line Move)
X-19.3766 Y10.0379 Z-1.5
(Line Move)
X-21.6313 Y8.5261 Z-1.5
(Line Move)
X-23.5725 Y6.8675 Z-1.5
(Line Move)
X-25.4284 Y4.92 Z-1.5
(Line Move)
X-26.3026 Y3.6579 Z-1.5
(Line Move)
X-27.1792 Y1.4238 Z-1.5
(Line Move)
X-27.2218 Y-.298 Z-1.5
(Line Move)
X-27.0568 Y-1.9957 Z-1.5
(Line Move)
X-26.4381 Y-3.3717 Z-1.5
(Line Move)
X-25.601 Y-4.7123 Z-1.5
(Line Move)
X-23.8359 Y-6.5326 Z-1.5
(Line Move)
X-21.4636 Y-8.5659 Z-1.5
(Line Move)
X-18.4096 Y-10.4007 Z-1.5
(Line Move)
X-12.3574 Y-12.8954 Z-1.5
(Line Move)
X-9.264 Y-13.7375 Z-1.5
(Line Move)
X-8.0692 Y-13.9918 Z-1.5
(Line Move)
X-7.9622 Y-14.08 Z-1.5
(Line Move)
X-7.9801 Y-14.2484 Z-1.5
(Line Move)
X-8.4681 Y-15.1901 Z-1.5
(Line Move)
X-8.486 Y-15.3586 Z-1.5
(Line Move)
X-8.3789 Y-15.4467 Z-1.5
(Line Move)
X-6.6738 Y-15.8097 Z-1.5
(Line Move)
X-3.4692 Y-16.2881 Z-1.5
(Line Move)
X.6463 Y-16.3898 Z-1.5
(Line Move)
X5.3921 Y-16.0289 Z-1.5
(Line Move)
X9.0151 Y-15.3949 Z-1.5
(Line Move)
X12.4694 Y-14.54 Z-1.5
(Line Move)
X15.4411 Y-13.5693 Z-1.5
(Line Move)
X17.8724 Y-12.5429 Z-1.5
(Line Move)
X20.4561 Y-11.1342 Z-1.5
(Line Move)
X23.0913 Y-9.281 Z-1.5
(Line Move)
X25.7887 Y-6.8372 Z-1.5
(Line Move)
X27.0961 Y-5.1514 Z-1.5
(Line Move)
X28.1658 Y-3.2816 Z-1.5
(Line Move)
X28.5658 Y-2.1987 Z-1.5
(Line Move)
X28.8506 Y.1141 Z-1.5
(Line Move)
X28.4874 Y1.949 Z-1.5
(Line Move)
X28.0682 Y3.3299 Z-1.5
(Line Move)
X27.3025 Y4.8681 Z-1.5
(Line Move)
X25.1306 Y7.5063 Z-1.5
(Line Move)
X22.4925 Y9.7372 Z-1.5
(Line Move)
X18.8652 Y11.6385 Z-1.5
(Line Move)
X13.5643 Y14.0603 Z-1.5
(Line Move)
X10.4011 Y14.9833 Z-1.5
(Line Move)
X4.6499 Y16.035 Z-1.5
(Line Move)
X.1996 Y16.2831 Z-1.5
(Line Move)
X-4.4742 Y16.0656 Z-1.5
(Line Move)
X-8.6833 Y15.4591 Z-1.5
(Line Move)
X-12.7366 Y14.4049 Z-1.5
(Line Move)
X-16.716 Y12.8741 Z-1.5
(Line Move)
X-20.1023 Y11.3423 Z-1.5
(Line Move)
X-22.5317 Y9.7133 Z-1.5
(Line Move)
X-24.5967 Y7.9489 Z-1.5
(Line Move)
X-26.5852 Y5.8623 Z-1.5
(Line Move)
X-27.624 Y4.3625 Z-1.5
(Line Move)
X-28.6598 Y1.7229 Z-1.5
(Line Move)
X-28.7314 Y-1.1751 Z-1.5
(Line Move)
X-28.4841 Y-2.4485 Z-1.5
(Line Move)
X-27.7533 Y-4.0738 Z-1.5
(Line Move)
X-26.8 Y-5.6006 Z-1.5
(Line Move)
X-25.5902 Y-6.9881 Z-1.5
(Line Move)
X-22.3367 Y-9.7766 Z-1.5
(Line Move)
X-19.0881 Y-11.7284 Z-1.5
(Line Move)
X-13.5222 Y-14.1067 Z-1.5
(Line Move)
X-10.3271 Y-15.0321 Z-1.5
(Line Move)
X-8.3789 Y-15.4467 Z-1.5
(Line Move)
X-8.2729 Y-15.5355 Z-1.5
(Line Move)
X-8.2935 Y-15.7058 Z-1.5
(Line Move)
X-8.546 Y-16.1826 Z-1.5
(Line Move)
X-8.7987 Y-16.6607 Z-1.5
(Line Move)
X-8.8196 Y-16.8325 Z-1.5
(Line Move)
X-8.7141 Y-16.9235 Z-1.5
(Line Move)
X-7.6128 Y-17.1735 Z-1.5
(Line Move)
X-3.5979 Y-17.7729 Z-1.5
(Line Move)
X.6747 Y-17.8784 Z-1.5
(Line Move)
X4.9205 Y-17.6112 Z-1.5
(Line Move)
X8.7164 Y-17.0013 Z-1.5
(Line Move)
X12.8796 Y-15.9708 Z-1.5
(Line Move)
X15.9622 Y-14.9639 Z-1.5
(Line Move)
X18.5193 Y-13.8844 Z-1.5
(Line Move)
X21.2425 Y-12.3996 Z-1.5
(Line Move)
X24.022 Y-10.445 Z-1.5
(Line Move)
X26.8842 Y-7.8519 Z-1.5
(Line Move)
X28.3355 Y-5.9805 Z-1.5
(Line Move)
X29.5183 Y-3.913 Z-1.5
(Line Move)
X30.021 Y-2.552 Z-1.5
(Line Move)
X30.3532 Y.1457 Z-1.5
(Line Move)
X30.0675 Y1.8644 Z-1.5
(Line Move)
X29.4554 Y3.8812 Z-1.5
(Line Move)
X28.5586 Y5.6827 Z-1.5
(Line Move)
X26.1937 Y8.5554 Z-1.5
(Line Move)
X23.328 Y10.9787 Z-1.5
(Line Move)
X19.0053 Y13.2445 Z-1.5
(Line Move)
X14.7164 Y15.2583 Z-1.5
(Line Move)
X11.4702 Y16.2746 Z-1.5
(Line Move)
X7.9506 Y17.0328 Z-1.5
(Line Move)
X4.8046 Y17.5162 Z-1.5
(Line Move)
X.2155 Y17.7721 Z-1.5
(Line Move)
X-3.9661 Y17.6282 Z-1.5
(Line Move)
X-8.3679 Y17.0781 Z-1.5
(Line Move)
X-13.1923 Y15.8233 Z-1.5
(Line Move)
X-17.29 Y14.247 Z-1.5
(Line Move)
X-20.8281 Y12.6466 Z-1.5
(Line Move)
X-23.4321 Y10.9005 Z-1.5
(Line Move)
X-25.6209 Y9.0303 Z-1.5
(Line Move)
X-27.742 Y6.8045 Z-1.5
(Line Move)
X-28.9177 Y5.1072 Z-1.5
(Line Move)
X-29.643 Y3.5621 Z-1.5
(Line Move)
X-30.1303 Y2.0045 Z-1.5
(Line Move)
X-30.2583 Y.3063 Z-1.5
(Line Move)
X-30.2152 Y-1.3375 Z-1.5
(Line Move)
X-29.9115 Y-2.9013 Z-1.5
(Line Move)
X-29.0685 Y-4.776 Z-1.5
(Line Move)
X-27.999 Y-6.4889 Z-1.5
(Line Move)
X-26.6404 Y-8.0472 Z-1.5
(Line Move)
X-22.8289 Y-11.3138 Z-1.5
(Line Move)
X-19.7583 Y-13.0585 Z-1.5
(Line Move)
X-14.6777 Y-15.3083 Z-1.5
(Line Move)
X-11.3889 Y-16.3164 Z-1.5
(Line Move)
X-8.7141 Y-16.9235 Z-1.5
(Line Move)
X-8.6096 Y-17.0143 Z-1.5
(Line Move)
X-8.6333 Y-17.1859 Z-1.5
(Line Move)
X-8.8945 Y-17.6642 Z-1.5
(Line Move)
X-9.1561 Y-18.1439 Z-1.5
(Line Move)
X-9.1802 Y-18.3173 Z-1.5
(Line Move)
X-9.0763 Y-18.4106 Z-1.5
(Line Move)
X-8.5636 Y-18.5355 Z-1.5
(Line Move)
X-3.7362 Y-19.2562 Z-1.5
(Line Move)
X.0027 Y-19.3976 Z-1.5
(Line Move)
X4.4104 Y-19.1998 Z-1.5
(Line Move)
X9.0136 Y-18.4601 Z-1.5
(Line Move)
X13.2898 Y-17.4017 Z-1.5
(Line Move)
X16.4833 Y-16.3586 Z-1.5
(Line Move)
X19.1662 Y-15.2259 Z-1.5
(Line Move)
X22.029 Y-13.6651 Z-1.5
(Line Move)
X24.9527 Y-11.609 Z-1.5
(Line Move)
X27.9797 Y-8.8666 Z-1.5
(Line Move)
X29.5748 Y-6.8097 Z-1.5
(Line Move)
X30.8708 Y-4.5444 Z-1.5
(Line Move)
X31.4762 Y-2.9053 Z-1.5
(Line Move)
X31.8558 Y.1774 Z-1.5
(Line Move)
X31.519 Y2.2038 Z-1.5
(Line Move)
X30.8426 Y4.4325 Z-1.5
(Line Move)
X29.8147 Y6.4973 Z-1.5
(Line Move)
X27.2567 Y9.6045 Z-1.5
(Line Move)
X24.1635 Y12.2202 Z-1.5
(Line Move)
X19.2238 Y14.8094 Z-1.5
(Line Move)
X15.8577 Y16.4451 Z-1.5
(Line Move)
X12.5369 Y17.5555 Z-1.5
(Line Move)
X8.9128 Y18.3899 Z-1.5
(Line Move)
X4.969 Y18.9958 Z-1.5
(Line Move)
X.9189 Y19.2752 Z-1.5
(Line Move)
X-3.4266 Y19.1808 Z-1.5
(Line Move)
X-8.0083 Y18.6974 Z-1.5
(Line Move)
X-13.0588 Y17.4623 Z-1.5
(Line Move)
X-17.3661 Y15.8452 Z-1.5
(Line Move)
X-21.5538 Y13.9509 Z-1.5
(Line Move)
X-24.3325 Y12.0877 Z-1.5
(Line Move)
X-26.6452 Y10.1117 Z-1.5
(Line Move)
X-28.8988 Y7.7468 Z-1.5
(Line Move)
X-30.2113 Y5.852 Z-1.5
(Line Move)
X-31.0325 Y4.1028 Z-1.5
(Line Move)
X-31.5948 Y2.3053 Z-1.5
(Line Move)
X-31.7571 Y.7199 Z-1.5
(Line Move)
X-31.6855 Y-2.0122 Z-1.5
(Line Move)
X-31.3183 Y-3.3999 Z-1.5
(Line Move)
X-30.3838 Y-5.4781 Z-1.5
(Line Move)
X-29.198 Y-7.3772 Z-1.5
(Line Move)
X-27.6905 Y-9.1062 Z-1.5
(Line Move)
X-23.6882 Y-12.5364 Z-1.5
(Line Move)
X-20.4374 Y-14.3835 Z-1.5
(Line Move)
X-15.8251 Y-16.5014 Z-1.5
(Line Move)
X-12.4477 Y-17.5895 Z-1.5
(Line Move)
X-9.0763 Y-18.4106 Z-1.5
(Line Move)
X-8.9719 Y-18.5018 Z-1.5
(Line Move)
X-8.9947 Y-18.6697 Z-1.5
(Line Move)
X-9.5099 Y-19.5968 Z-1.5
(Line Move)
X-9.5327 Y-19.7647 Z-1.5
(Line Move)
X-9.4283 Y-19.8559 Z-1.5
(Line Move)
X-8.85 Y-19.9967 Z-1.5
(Line Move)
X-3.8746 Y-20.7395 Z-1.5
(Line Move)
X.008 Y-20.8863 Z-1.5
(Line Move)
X4.5622 Y-20.682 Z-1.5
(Line Move)
X9.3108 Y-19.9189 Z-1.5
(Line Move)
X13.6999 Y-18.8326 Z-1.5
(Line Move)
X17.0044 Y-17.7532 Z-1.5
(Line Move)
X19.8131 Y-16.5674 Z-1.5
(Line Move)
X22.8154 Y-14.9306 Z-1.5
(Line Move)
X25.8835 Y-12.7729 Z-1.5
(Line Move)
X29.0751 Y-9.8814 Z-1.5
(Line Move)
X30.8142 Y-7.6389 Z-1.5
(Line Move)
X32.2233 Y-5.1757 Z-1.5
(Line Move)
X32.916 Y-3.3005 Z-1.5
(Line Move)
X33.2425 Y-1.5255 Z-1.5
(Line Move)
X33.3503 Y.2468 Z-1.5
(Line Move)
X33.0268 Y2.3379 Z-1.5
(Line Move)
X32.3458 Y4.7507 Z-1.5
(Line Move)
X31.0708 Y7.3119 Z-1.5
(Line Move)
X28.3198 Y10.6536 Z-1.5
(Line Move)
X24.9991 Y13.4617 Z-1.5
(Line Move)
X17.1205 Y17.5913 Z-1.5
(Line Move)
X12.9405 Y18.989 Z-1.5
(Line Move)
X9.193 Y19.8518 Z-1.5
(Line Move)
X5.1334 Y20.4755 Z-1.5
(Line Move)
X.954 Y20.7638 Z-1.5
(Line Move)
X-3.5025 Y20.667 Z-1.5
(Line Move)
X-7.4335 Y20.3501 Z-1.5
(Line Move)
X-12.6983 Y19.1734 Z-1.5
(Line Move)
X-17.2181 Y17.5448 Z-1.5
(Line Move)
X-22.2539 Y15.2668 Z-1.5
(Line Move)
X-24.5882 Y13.8257 Z-1.5
(Line Move)
X-27.6694 Y11.1931 Z-1.5
(Line Move)
X-30.0556 Y8.6891 Z-1.5
(Line Move)
X-31.5049 Y6.5967 Z-1.5
(Line Move)
X-32.4219 Y4.6434 Z-1.5
(Line Move)
X-33.0551 Y2.6196 Z-1.5
(Line Move)
X-33.2538 Y1.0511 Z-1.5
(Line Move)
X-33.1679 Y-2.2249 Z-1.5
(Line Move)
X-32.725 Y-3.8985 Z-1.5
(Line Move)
X-31.699 Y-6.1803 Z-1.5
(Line Move)
X-30.397 Y-8.2655 Z-1.5
(Line Move)
X-28.7406 Y-10.1653 Z-1.5
(Line Move)
X-26.2245 Y-12.4484 Z-1.5
(Line Move)
X-23.4541 Y-14.4426 Z-1.5
(Line Move)
X-20.1627 Y-16.2504 Z-1.5
(Line Move)
X-16.9674 Y-17.6835 Z-1.5
(Line Move)
X-13.5158 Y-18.8603 Z-1.5
(Line Move)
X-9.4283 Y-19.8559 Z-1.5
(Line Move)
X-9.3239 Y-19.9471 Z-1.5
(Line Move)
X-9.3467 Y-20.115 Z-1.5
(Line Move)
X-9.8619 Y-21.042 Z-1.5
(Line Move)
X-9.8847 Y-21.2099 Z-1.5
(Line Move)
X-9.7803 Y-21.3011 Z-1.5
(Line Move)
X-9.1365 Y-21.4579 Z-1.5
(Line Move)
X-4.0129 Y-22.2229 Z-1.5
(Line Move)
X.0132 Y-22.3751 Z-1.5
(Line Move)
X4.7141 Y-22.1642 Z-1.5
(Line Move)
X9.6016 Y-21.3788 Z-1.5
(Line Move)
X13.4989 Y-20.4502 Z-1.5
(Line Move)
X16.943 Y-19.3937 Z-1.5
(Line Move)
X20.46 Y-17.9089 Z-1.5
(Line Move)
X23.6018 Y-16.196 Z-1.5
(Line Move)
X26.8142 Y-13.9369 Z-1.5
(Line Move)
X30.1706 Y-10.8961 Z-1.5
(Line Move)
X32.0535 Y-8.468 Z-1.5
(Line Move)
X33.5759 Y-5.8071 Z-1.5
(Line Move)
X34.3558 Y-3.6956 Z-1.5
(Line Move)
X34.7218 Y-1.7059 Z-1.5
(Line Move)
X34.8442 Y.3062 Z-1.5
(Line Move)
X34.5421 Y2.4454 Z-1.5
(Line Move)
X33.7395 Y5.2888 Z-1.5
(Line Move)
X32.3529 Y8.0742 Z-1.5
(Line Move)
X31.5107 Y9.2766 Z-1.5
(Line Move)
X29.3643 Y11.7184 Z-1.5
(Line Move)
X25.8412 Y14.6976 Z-1.5
(Line Move)
X18.369 Y18.7246 Z-1.5
(Line Move)
X14.1244 Y20.2428 Z-1.5
(Line Move)
X9.4733 Y21.3137 Z-1.5
(Line Move)
X5.2979 Y21.9552 Z-1.5
(Line Move)
X.9892 Y22.2524 Z-1.5
(Line Move)
X-3.5785 Y22.1532 Z-1.5
(Line Move)
X-7.6416 Y21.8256 Z-1.5
(Line Move)
X-12.2925 Y20.8841 Z-1.5
(Line Move)
X-17.0133 Y19.27 Z-1.5
(Line Move)
X-22.954 Y16.5828 Z-1.5
(Line Move)
X-25.4673 Y15.0311 Z-1.5
(Line Move)
X-28.6937 Y12.2744 Z-1.5
(Line Move)
X-31.2124 Y9.6314 Z-1.5
(Line Move)
X-32.7986 Y7.3414 Z-1.5
(Line Move)
X-33.8114 Y5.184 Z-1.5
(Line Move)
X-34.5141 Y2.9376 Z-1.5
(Line Move)
X-34.7438 Y1.1256 Z-1.5
(Line Move)
X-34.6504 Y-2.4375 Z-1.5
(Line Move)
X-34.1318 Y-4.3971 Z-1.5
(Line Move)
X-33.0142 Y-6.8824 Z-1.5
(Line Move)
X-31.596 Y-9.1538 Z-1.5
(Line Move)
X-29.8046 Y-11.2084 Z-1.5
(Line Move)
X-27.1836 Y-13.5867 Z-1.5
(Line Move)
X-25.07 Y-15.2386 Z-1.5
(Line Move)
X-21.357 Y-17.3345 Z-1.5
(Line Move)
X-18.103 Y-18.8536 Z-1.5
(Line Move)
X-14.5922 Y-20.1292 Z-1.5
(Line Move)
X-9.7803 Y-21.3011 Z-1.5
(Line Move)
X-9.6772 Y-21.3944 Z-1.5
(Line Move)
X-9.7035 Y-21.5678 Z-1.5
(Line Move)
X-9.9719 Y-22.0483 Z-1.5
(Line Move)
X-10.2405 Y-22.5299 Z-1.5
(Line Move)
X-10.2671 Y-22.7047 Z-1.5
(Line Move)
X-10.1645 Y-22.7999 Z-1.5
(Line Move)
X-10.0845 Y-22.8204 Z-1.5
(Line Move)
X-4.1513 Y-23.7062 Z-1.5
(Line Move)
X.0185 Y-23.8638 Z-1.5
(Line Move)
X4.858 Y-23.6467 Z-1.5
(Line Move)
X9.2095 Y-22.9945 Z-1.5
(Line Move)
X13.2536 Y-22.0687 Z-1.5
(Line Move)
X16.8315 Y-21.0385 Z-1.5
(Line Move)
X20.498 Y-19.5825 Z-1.5
(Line Move)
X24.3882 Y-17.4615 Z-1.5
(Line Move)
X27.7449 Y-15.1009 Z-1.5
(Line Move)
X31.2661 Y-11.9108 Z-1.5
(Line Move)
X33.2929 Y-9.2972 Z-1.5
(Line Move)
X34.9284 Y-6.4384 Z-1.5
(Line Move)
X35.7955 Y-4.0908 Z-1.5
(Line Move)
X36.2011 Y-1.8862 Z-1.5
(Line Move)
X36.3373 Y.3543 Z-1.5
(Line Move)
X36.0639 Y2.5299 Z-1.5
(Line Move)
X35.1333 Y5.827 Z-1.5
(Line Move)
X33.635 Y8.8366 Z-1.5
(Line Move)
X32.6821 Y10.1971 Z-1.5
(Line Move)
X30.4089 Y12.7831 Z-1.5
(Line Move)
X26.6895 Y15.9283 Z-1.5
(Line Move)
X19.6041 Y19.8457 Z-1.5
(Line Move)
X15.3027 Y21.4849 Z-1.5
(Line Move)
X10.5525 Y22.6528 Z-1.5
(Line Move)
X5.4623 Y23.4349 Z-1.5
(Line Move)
X1.0243 Y23.741 Z-1.5
(Line Move)
X-3.6545 Y23.6394 Z-1.5
(Line Move)
X-7.8497 Y23.3012 Z-1.5
(Line Move)
X-12.6677 Y22.3259 Z-1.5
(Line Move)
X-16.7566 Y21.0187 Z-1.5
(Line Move)
X-23.6541 Y17.8987 Z-1.5
(Line Move)
X-26.3277 Y16.2481 Z-1.5
(Line Move)
X-29.0506 Y14.056 Z-1.5
(Line Move)
X-32.3692 Y10.5737 Z-1.5
(Line Move)
X-34.0922 Y8.0862 Z-1.5
(Line Move)
X-35.2009 Y5.7246 Z-1.5
(Line Move)
X-35.9732 Y3.2557 Z-1.5
(Line Move)
X-36.2338 Y1.2 Z-1.5
(Line Move)
X-36.1328 Y-2.6501 Z-1.5
(Line Move)
X-35.5385 Y-4.8958 Z-1.5
(Line Move)
X-34.3295 Y-7.5846 Z-1.5
(Line Move)
X-32.795 Y-10.042 Z-1.5
(Line Move)
X-30.8686 Y-12.2515 Z-1.5
(Line Move)
X-28.1426 Y-14.7251 Z-1.5
(Line Move)
X-25.9037 Y-16.4749 Z-1.5
(Line Move)
X-22.5449 Y-18.4128 Z-1.5
(Line Move)
X-19.2318 Y-20.0121 Z-1.5
(Line Move)
X-15.6696 Y-21.3886 Z-1.5
(Line Move)
X-10.1645 Y-22.7999 Z-1.5
(Line Move)
X-10.0552 Y-22.8961 Z-1.5
(Line Move)
X-10.0643 Y-23.0731 Z-1.5
(Line Move)
X-10.2788 Y-23.5585 Z-1.5
(Line Move)
X-10.4914 Y-24.0346 Z-1.5
(Line Move)
X-10.498 Y-24.1998 Z-1.5
(Line Move)
X-10.3854 Y-24.2794 Z-1.5
(Line Move)
X-4.2896 Y-25.1895 Z-1.5
(Line Move)
X.0237 Y-25.3526 Z-1.5
(Line Move)
X5.002 Y-25.1292 Z-1.5
(Line Move)
X9.4862 Y-24.4572 Z-1.5
(Line Move)
X13.6257 Y-23.5095 Z-1.5
(Line Move)
X17.3129 Y-22.4478 Z-1.5
(Line Move)
X21.1308 Y-20.9317 Z-1.5
(Line Move)
X25.1746 Y-18.7269 Z-1.5
(Line Move)
X28.6756 Y-16.2648 Z-1.5
(Line Move)
X32.3615 Y-12.9255 Z-1.5
(Line Move)
X34.5323 Y-10.1264 Z-1.5
(Line Move)
X36.2809 Y-7.0698 Z-1.5
(Line Move)
X37.2353 Y-4.486 Z-1.5
(Line Move)
X37.6804 Y-2.0666 Z-1.5
(Line Move)
X37.83 Y.3942 Z-1.5
(Line Move)
X37.5683 Y2.6758 Z-1.5
(Line Move)
X36.527 Y6.3651 Z-1.5
(Line Move)
X34.9171 Y9.599 Z-1.5
(Line Move)
X33.8534 Y11.1177 Z-1.5
(Line Move)
X31.4534 Y13.8479 Z-1.5
(Line Move)
X27.5435 Y17.1542 Z-1.5
(Line Move)
X20.8269 Y20.9556 Z-1.5
(Line Move)
X16.4758 Y22.7164 Z-1.5
(Line Move)
X11.6313 Y23.9788 Z-1.5
(Line Move)
X6.4309 Y24.8592 Z-1.5
(Line Move)
X1.0594 Y25.2296 Z-1.5
(Line Move)
X-3.7305 Y25.1257 Z-1.5
(Line Move)
X-8.0578 Y24.7767 Z-1.5
(Line Move)
X-13.0429 Y23.7676 Z-1.5
(Line Move)
X-17.2752 Y22.4146 Z-1.5
(Line Move)
X-21.2941 Y20.7063 Z-1.5
(Line Move)
X-24.3729 Y19.2031 Z-1.5
(Line Move)
X-27.1882 Y17.465 Z-1.5
(Line Move)
X-30.0598 Y15.1532 Z-1.5
(Line Move)
X-33.526 Y11.5159 Z-1.5
(Line Move)
X-35.3859 Y8.8309 Z-1.5
(Line Move)
X-36.5904 Y6.2652 Z-1.5
(Line Move)
X-37.4296 Y3.5825 Z-1.5
(Line Move)
X-37.7203 Y1.4939 Z-1.5
(Line Move)
X-37.607 Y-2.894 Z-1.5
(Line Move)
X-36.9453 Y-5.3944 Z-1.5
(Line Move)
X-35.6447 Y-8.2867 Z-1.5
(Line Move)
X-33.994 Y-10.9303 Z-1.5
(Line Move)
X-31.9326 Y-13.2946 Z-1.5
(Line Move)
X-29.1017 Y-15.8634 Z-1.5
(Line Move)
X-26.7444 Y-17.7057 Z-1.5
(Line Move)
X-23.7328 Y-19.491 Z-1.5
(Line Move)
X-19.8242 Y-21.3779 Z-1.5
(Line Move)
X-16.1332 Y-22.8041 Z-1.5
(Line Move)
X-11.0452 Y-24.1809 Z-1.5
(Line Move)
X-10.3854 Y-24.2794 Z-1.5
(Line Move)
X-10.2732 Y-24.3608 Z-1.5
(Line Move)
X-10.2807 Y-24.5301 Z-1.5
(Line Move)
X-10.7098 Y-25.5 Z-1.5
(Line Move)
X-10.7173 Y-25.6693 Z-1.5
(Line Move)
X-10.6051 Y-25.7506 Z-1.5
(Line Move)
X-4.4279 Y-26.6729 Z-1.5
(Line Move)
X.029 Y-26.8414 Z-1.5
(Line Move)
X5.146 Y-26.6118 Z-1.5
(Line Move)
X9.7628 Y-25.9198 Z-1.5
(Line Move)
X13.9977 Y-24.9503 Z-1.5
(Line Move)
X17.7944 Y-23.8572 Z-1.5
(Line Move)
X21.7637 Y-22.2808 Z-1.5
(Line Move)
X25.961 Y-19.9924 Z-1.5
(Line Move)
X29.6064 Y-17.4288 Z-1.5
(Line Move)
X33.457 Y-13.9403 Z-1.5
(Line Move)
X35.7716 Y-10.9555 Z-1.5
(Line Move)
X37.6334 Y-7.7012 Z-1.5
(Line Move)
X38.6751 Y-4.8811 Z-1.5
(Line Move)
X39.1596 Y-2.2469 Z-1.5
(Line Move)
X39.3227 Y.4341 Z-1.5
(Line Move)
X39.0324 Y2.9645 Z-1.5
(Line Move)
X37.8633 Y7.1067 Z-1.5
(Line Move)
X36.1945 Y10.3681 Z-1.5
(Line Move)
X35.0247 Y12.0382 Z-1.5
(Line Move)
X32.498 Y14.9127 Z-1.5
(Line Move)
X28.4027 Y18.3757 Z-1.5
(Line Move)
X22.0379 Y22.0549 Z-1.5
(Line Move)
X17.6443 Y23.9382 Z-1.5
(Line Move)
X12.7092 Y25.2926 Z-1.5
(Line Move)
X7.4053 Y26.2712 Z-1.5
(Line Move)
X1.908 Y26.7258 Z-1.5
(Line Move)
X-3.0117 Y26.6759 Z-1.5
(Line Move)
X-8.2659 Y26.2523 Z-1.5
(Line Move)
X-13.418 Y25.2093 Z-1.5
(Line Move)
X-17.7848 Y23.8133 Z-1.5
(Line Move)
X-21.1424 Y22.4357 Z-1.5
(Line Move)
X-25.0917 Y20.5074 Z-1.5
(Line Move)
X-28.0486 Y18.6819 Z-1.5
(Line Move)
X-31.069 Y16.2504 Z-1.5
(Line Move)
X-34.6829 Y12.4582 Z-1.5
(Line Move)
X-36.6795 Y9.5756 Z-1.5
(Line Move)
X-37.9798 Y6.8058 Z-1.5
(Line Move)
X-38.8859 Y3.9093 Z-1.5
(Line Move)
X-39.2056 Y1.6122 Z-1.5
(Line Move)
X-39.2526 Y-.6638 Z-1.5
(Line Move)
X-39.0811 Y-3.1379 Z-1.5
(Line Move)
X-38.352 Y-5.893 Z-1.5
(Line Move)
X-36.819 Y-9.3024 Z-1.5
(Line Move)
X-35.1851 Y-11.8277 Z-1.5
(Line Move)
X-32.7442 Y-14.6273 Z-1.5
(Line Move)
X-29.4943 Y-17.5021 Z-1.5
(Line Move)
X-27.5801 Y-18.9384 Z-1.5
(Line Move)
X-24.9152 Y-20.5642 Z-1.5
(Line Move)
X-20.9441 Y-22.5398 Z-1.5
(Line Move)
X-16.6083 Y-24.2152 Z-1.5
(Line Move)
X-12.0175 Y-25.5398 Z-1.5
(Line Move)
X-10.6051 Y-25.7506 Z-1.5
(Line Move)
X-10.4944 Y-25.8327 Z-1.5
(Line Move)
X-10.5062 Y-26.0039 Z-1.5
(Line Move)
X-10.7338 Y-26.4954 Z-1.5
(Line Move)
X-10.9618 Y-26.989 Z-1.5
(Line Move)
X-10.9739 Y-27.1628 Z-1.5
(Line Move)
X-10.8639 Y-27.2486 Z-1.5
(Line Move)
X-8.581 Y-27.643 Z-1.5
(Line Move)
X-4.5503 Y-28.1568 Z-1.5
(Line Move)
X.0342 Y-28.3301 Z-1.5
(Line Move)
X5.2899 Y-28.0943 Z-1.5
(Line Move)
X10.0394 Y-27.3825 Z-1.5
(Line Move)
X14.3697 Y-26.3911 Z-1.5
(Line Move)
X18.2758 Y-25.2665 Z-1.5
(Line Move)
X22.3965 Y-23.63 Z-1.5
(Line Move)
X26.7474 Y-21.2579 Z-1.5
(Line Move)
X30.5371 Y-18.5928 Z-1.5
(Line Move)
X34.5524 Y-14.955 Z-1.5
(Line Move)
X37.011 Y-11.7847 Z-1.5
(Line Move)
X38.986 Y-8.3325 Z-1.5
(Line Move)
X40.1148 Y-5.2763 Z-1.5
(Line Move)
X40.6355 Y-2.4461 Z-1.5
(Line Move)
X40.8568 Y.1127 Z-1.5
(Line Move)
X40.4966 Y3.2531 Z-1.5
(Line Move)
X39.2548 Y7.6528 Z-1.5
(Line Move)
X37.4744 Y11.1324 Z-1.5
(Line Move)
X36.2836 Y12.8591 Z-1.5
(Line Move)
X33.5585 Y15.9592 Z-1.5
(Line Move)
X31.3286 Y17.9724 Z-1.5
(Line Move)
X29.2439 Y19.6063 Z-1.5
(Line Move)
X23.249 Y23.1542 Z-1.5
(Line Move)
X18.1448 Y25.3421 Z-1.5
(Line Move)
X13.7862 Y26.595 Z-1.5
(Line Move)
X8.3831 Y27.6695 Z-1.5
(Line Move)
X2.7744 Y28.2222 Z-1.5
(Line Move)
X-3.0791 Y28.1628 Z-1.5
(Line Move)
X-8.4739 Y27.7278 Z-1.5
(Line Move)
X-13.7932 Y26.6511 Z-1.5
(Line Move)
X-18.2944 Y25.2121 Z-1.5
(Line Move)
X-21.7517 Y23.7935 Z-1.5
(Line Move)
X-25.8105 Y21.8118 Z-1.5
(Line Move)
X-28.909 Y19.8989 Z-1.5
(Line Move)
X-32.0782 Y17.3476 Z-1.5
(Line Move)
X-35.8397 Y13.4005 Z-1.5
(Line Move)
X-37.9732 Y10.3203 Z-1.5
(Line Move)
X-39.3693 Y7.3464 Z-1.5
(Line Move)
X-40.3423 Y4.2361 Z-1.5
(Line Move)
X-40.691 Y1.7305 Z-1.5
(Line Move)
X-40.7412 Y-.6999 Z-1.5
(Line Move)
X-40.5553 Y-3.3818 Z-1.5
(Line Move)
X-39.7588 Y-6.3916 Z-1.5
(Line Move)
X-38.1293 Y-10.0155 Z-1.5
(Line Move)
X-36.3762 Y-12.725 Z-1.5
(Line Move)
X-33.5582 Y-15.9571 Z-1.5
(Line Move)
X-30.4279 Y-18.6612 Z-1.5
(Line Move)
X-28.4239 Y-20.1649 Z-1.5
(Line Move)
X-26.0916 Y-21.6321 Z-1.5
(Line Move)
X-22.0669 Y-23.7007 Z-1.5
(Line Move)
X-17.0835 Y-25.6263 Z-1.5
(Line Move)
X-12.3513 Y-26.9916 Z-1.5
(Line Move)
X-10.8639 Y-27.2486 Z-1.5
(Line Move)
X-10.7542 Y-27.3328 Z-1.5
(Line Move)
X-10.7673 Y-27.5027 Z-1.5
(Line Move)
X-10.9982 Y-27.9855 Z-1.5
(Line Move)
X-11.2293 Y-28.4691 Z-1.5
(Line Move)
X-11.2426 Y-28.64 Z-1.5
(Line Move)
X-11.1332 Y-28.7257 Z-1.5
(Line Move)
X-9.464 Y-29.03 Z-1.5
(Line Move)
X-4.6837 Y-29.6393 Z-1.5
(Line Move)
X-.6722 Y-29.8508 Z-1.5
(Line Move)
X5.4339 Y-29.5769 Z-1.5
(Line Move)
X10.3081 Y-28.8463 Z-1.5
(Line Move)
X14.0426 Y-28.0333 Z-1.5
(Line Move)
X18.7573 Y-26.6758 Z-1.5
(Line Move)
X23.0294 Y-24.9792 Z-1.5
(Line Move)
X27.5338 Y-22.5233 Z-1.5
(Line Move)
X31.4678 Y-19.7568 Z-1.5
(Line Move)
X35.6479 Y-15.9697 Z-1.5
(Line Move)
X38.2503 Y-12.6139 Z-1.5
(Line Move)
X40.3385 Y-8.9639 Z-1.5
(Line Move)
X41.5546 Y-5.6715 Z-1.5
(Line Move)
X42.1113 Y-2.6452 Z-1.5
(Line Move)
X42.3506 Y.1208 Z-1.5
(Line Move)
X42.0542 Y3.1588 Z-1.5
(Line Move)
X41.1345 Y6.8128 Z-1.5
(Line Move)
X40.623 Y8.2443 Z-1.5
(Line Move)
X38.7542 Y11.8967 Z-1.5
(Line Move)
X37.4585 Y13.7755 Z-1.5
(Line Move)
X34.6331 Y16.9898 Z-1.5
(Line Move)
X32.9938 Y18.5571 Z-1.5
(Line Move)
X30.0919 Y20.8316 Z-1.5
(Line Move)
X24.4601 Y24.2534 Z-1.5
(Line Move)
X18.6544 Y26.742 Z-1.5
(Line Move)
X14.8623 Y27.8872 Z-1.5
(Line Move)
X9.3633 Y29.0544 Z-1.5
(Line Move)
X3.6514 Y29.7088 Z-1.5
(Line Move)
X-2.3412 Y29.7147 Z-1.5
(Line Move)
X-8.682 Y29.2034 Z-1.5
(Line Move)
X-14.1683 Y28.0928 Z-1.5
(Line Move)
X-18.804 Y26.6108 Z-1.5
(Line Move)
X-22.361 Y25.1514 Z-1.5
(Line Move)
X-26.5292 Y23.1162 Z-1.5
(Line Move)
X-29.7695 Y21.1158 Z-1.5
(Line Move)
X-33.0874 Y18.4448 Z-1.5
(Line Move)
X-36.9965 Y14.3428 Z-1.5
(Line Move)
X-39.2668 Y11.0651 Z-1.5
(Line Move)
X-40.7588 Y7.887 Z-1.5
(Line Move)
X-41.7987 Y4.5629 Z-1.5
(Line Move)
X-42.1764 Y1.8487 Z-1.5
(Line Move)
X-42.2297 Y-.7361 Z-1.5
(Line Move)
X-42.0294 Y-3.6256 Z-1.5
(Line Move)
X-41.1655 Y-6.8902 Z-1.5
(Line Move)
X-39.4396 Y-10.7286 Z-1.5
(Line Move)
X-37.5674 Y-13.6224 Z-1.5
(Line Move)
X-34.3821 Y-17.2757 Z-1.5
(Line Move)
X-30.2725 Y-20.7369 Z-1.5
(Line Move)
X-27.2625 Y-22.6949 Z-1.5
(Line Move)
X-23.1872 Y-24.8553 Z-1.5
(Line Move)
X-18.1231 Y-26.8745 Z-1.5
(Line Move)
X-12.6917 Y-28.4416 Z-1.5
(Line Move)
X-11.1332 Y-28.7257 Z-1.5
(Line Move)
X-11.0252 Y-28.8103 Z-1.5
(Line Move)
X-11.0424 Y-28.9782 Z-1.5
(Line Move)
X-11.2856 Y-29.4539 Z-1.5
(Line Move)
X-11.5293 Y-29.9319 Z-1.5
(Line Move)
X-11.547 Y-30.1029 Z-1.5
(Line Move)
X-11.4399 Y-30.1916 Z-1.5
(Line Move)
X-9.8335 Y-30.5277 Z-1.5
(Line Move)
X-4.8217 Y-31.1213 Z-1.5
(Line Move)
X-2.8077 Y-31.272 Z-1.5
(Line Move)
X-.6573 Y-31.3391 Z-1.5
(Line Move)
X5.5779 Y-31.0594 Z-1.5
(Line Move)
X12.1457 Y-30.075 Z-1.5
(Line Move)
X17.9771 Y-28.5291 Z-1.5
(Line Move)
X23.6623 Y-26.3284 Z-1.5
(Line Move)
X28.3202 Y-23.7888 Z-1.5
(Line Move)
X32.9153 Y-20.5573 Z-1.5
(Line Move)
X36.7434 Y-16.9844 Z-1.5
(Line Move)
X39.4897 Y-13.443 Z-1.5
(Line Move)
X41.5866 Y-9.7777 Z-1.5
(Line Move)
X42.9944 Y-6.0666 Z-1.5
(Line Move)
X43.708 Y-2.187 Z-1.5
(Line Move)
X43.8434 Y.1181 Z-1.5
(Line Move)
X43.5934 Y3.1378 Z-1.5
(Line Move)
X42.6376 Y7.0767 Z-1.5
(Line Move)
X41.8109 Y9.3235 Z-1.5
(Line Move)
X40.0341 Y12.6609 Z-1.5
(Line Move)
X38.6335 Y14.6919 Z-1.5
(Line Move)
X35.7688 Y17.9508 Z-1.5
(Line Move)
X33.4806 Y20.1252 Z-1.5
(Line Move)
X31.9892 Y21.3016 Z-1.5
(Line Move)
X28.7985 Y23.4587 Z-1.5
(Line Move)
X27.3589 Y24.3569 Z-1.5
(Line Move)
X25.1892 Y25.5501 Z-1.5
(Line Move)
X19.6923 Y27.919 Z-1.5
(Line Move)
X15.9447 Y29.1618 Z-1.5
(Line Move)
X10.3631 Y30.4322 Z-1.5
(Line Move)
X4.5212 Y31.1362 Z-1.5
(Line Move)
X-2.2251 Y31.2784 Z-1.5
(Line Move)
X-8.8901 Y30.6789 Z-1.5
(Line Move)
X-14.5435 Y29.5345 Z-1.5
(Line Move)
X-20.8834 Y27.4958 Z-1.5
(Line Move)
X-25.8713 Y25.19 Z-1.5
(Line Move)
X-28.6248 Y23.6512 Z-1.5
(Line Move)
X-31.0024 Y22.0878 Z-1.5
(Line Move)
X-34.0965 Y19.542 Z-1.5
(Line Move)
X-35.1959 Y18.4829 Z-1.5
(Line Move)
X-38.0523 Y15.4308 Z-1.5
(Line Move)
X-40.5604 Y11.8098 Z-1.5
(Line Move)
X-41.9186 Y8.9167 Z-1.5
(Line Move)
X-42.9442 Y6.1626 Z-1.5
(Line Move)
X-43.4307 Y4.1699 Z-1.5
(Line Move)
X-43.775 Y.8869 Z-1.5
(Line Move)
X-43.7401 Y-1.8321 Z-1.5
(Line Move)
X-43.4724 Y-4.0186 Z-1.5
(Line Move)
X-42.5715 Y-7.3905 Z-1.5
(Line Move)
X-40.7499 Y-11.4418 Z-1.5
(Line Move)
X-38.5258 Y-14.8794 Z-1.5
(Line Move)
X-35.4279 Y-18.3396 Z-1.5
(Line Move)
X-31.5553 Y-21.6328 Z-1.5
(Line Move)
X-29.4696 Y-23.0337 Z-1.5
(Line Move)
X-26.9473 Y-24.5822 Z-1.5
(Line Move)
X-24.3852 Y-25.9688 Z-1.5
(Line Move)
X-19.1845 Y-28.126 Z-1.5
(Line Move)
X-13.4587 Y-29.7691 Z-1.5
(Line Move)
X-11.4399 Y-30.1916 Z-1.5
(Line Move)
X-1.5001 Y-.4977 Z-1.5
(Line Move)
X2.7913 Y-.4857 Z-1.6499 F300.
(Line Move)
X5.3392 Y-.1219 Z-1.7397
(Line Move)
X5.4688 Y-.049 Z-1.745
(Line Move)
X5.515 Y.0923 Z-1.7503
(Line Move)
X5.367 Y.2782 Z-1.7592
(Line Move)
X4.3897 Y.5596 Z-1.7947
(Line Move)
X-1.4721 Y.7925 Z-1.9995
(Line Move)
X-4.3806 Y.5219 Z-2.1015
(Line Move)
X-5.4281 Y.2521 Z-2.1397
(Line Move)
X-5.4358 Y.0012 Z-2.1491
(Line Move)
X-5.3088 Y-.0908 Z-2.1546
(Line Move)
X-3.7645 Y-.504 Z-2.2105
(Line Move)
X2.7913 Y-.4857 Z-2.4394
(Line Move)
X5.3392 Y-.1219 Z-2.5293
(Line Move)
X5.4688 Y-.049 Z-2.5346
(Line Move)
X5.515 Y.0923 Z-2.5399
(Line Move)
X5.367 Y.2782 Z-2.5487
(Line Move)
X4.3897 Y.5596 Z-2.5842
(Line Move)
X-1.4721 Y.7925 Z-2.7891
(Line Move)
X-4.3806 Y.5219 Z-2.8911
(Line Move)
X-5.4281 Y.2521 Z-2.9293
(Line Move)
X-5.4358 Y.0012 Z-2.9386
(Line Move)
X-5.3088 Y-.0908 Z-2.9442
(Line Move)
X-3.7645 Y-.504 Z-3.
(Line Move)
X2.7913 Y-.4857 Z-3. F750.
(Line Move)
X5.3392 Y-.1219 Z-3.
(Line Move)
X5.3881 Y-.1087 Z-3.
(Line Move)
X5.4321 Y-.0838 Z-3.
(Line Move)
X5.4688 Y-.049 Z-3.
(Line Move)
X5.4958 Y-.0063 Z-3.
(Line Move)
X5.5115 Y.0418 Z-3.
(Line Move)
X5.515 Y.0923 Z-3.
(Line Move)
X5.5061 Y.142 Z-3.
(Line Move)
X5.4852 Y.1881 Z-3.
(Line Move)
X5.4537 Y.2277 Z-3.
(Line Move)
X5.4135 Y.2583 Z-3.
(Line Move)
X5.3903 Y.2683 Z-3.
(Line Move)
X5.367 Y.2782 Z-3.
(Line Move)
X4.3897 Y.5596 Z-3.
(Line Move)
X-1.4721 Y.7925 Z-3.
(Line Move)
X-4.3806 Y.5219 Z-3.
(Line Move)
X-5.2957 Y.3362 Z-3.
(Line Move)
X-5.3463 Y.3193 Z-3.
(Line Move)
X-5.3913 Y.2907 Z-3.
(Line Move)
X-5.4281 Y.2521 Z-3.
(Line Move)
X-5.4545 Y.2058 Z-3.
(Line Move)
X-5.4689 Y.1545 Z-3.
(Line Move)
X-5.4706 Y.1012 Z-3.
(Line Move)
X-5.4593 Y.049 Z-3.
(Line Move)
X-5.4358 Y.0012 Z-3.
(Line Move)
X-5.4014 Y-.0396 Z-3.
(Line Move)
X-5.3582 Y-.0709 Z-3.
(Line Move)
X-5.3088 Y-.0908 Z-3.
(Line Move)
X-3.7645 Y-.504 Z-3.
(Line Move)
X-3.6329 Y-.6826 Z-3.
(Line Move)
X-3.7768 Y-.9501 Z-3.
(Line Move)
X-3.9174 Y-1.1947 Z-3.
(Line Move)
X-3.7763 Y-1.3047 Z-3.
(Line Move)
X1.839 Y-1.387 Z-3.
(Line Move)
X4.163 Y-1.1518 Z-3.
(Line Move)
X7.0536 Y-.6805 Z-3.
(Line Move)
X7.9526 Y-.4076 Z-3.
(Line Move)
X8.0277 Y-.3743 Z-3.
(Line Move)
X8.0924 Y-.3238 Z-3.
(Line Move)
X8.1428 Y-.259 Z-3.
(Line Move)
X8.1761 Y-.1839 Z-3.
(Line Move)
X8.19 Y-.103 Z-3.
(Line Move)
X8.1839 Y-.0211 Z-3.
(Line Move)
X8.158 Y.0568 Z-3.
(Line Move)
X8.114 Y.1261 Z-3.
(Line Move)
X8.0544 Y.1827 Z-3.
(Line Move)
X7.9829 Y.223 Z-3.
(Line Move)
X6.891 Y.6727 Z-3.
(Line Move)
X4.5182 Y1.3559 Z-3.
(Line Move)
X-1.4934 Y1.5948 Z-3.
(Line Move)
X-4.4977 Y1.3153 Z-3.
(Line Move)
X-7.8492 Y.6351 Z-3.
(Line Move)
X-8.5928 Y.3964 Z-3.
(Line Move)
X-8.6461 Y.3714 Z-3.
(Line Move)
X-8.6912 Y.3337 Z-3.
(Line Move)
X-8.7253 Y.2857 Z-3.
(Line Move)
X-8.7461 Y.2307 Z-3.
(Line Move)
X-8.7522 Y.1721 Z-3.
(Line Move)
X-8.7432 Y.114 Z-3.
(Line Move)
X-8.7198 Y.06 Z-3.
(Line Move)
X-8.6834 Y.0138 Z-3.
(Line Move)
X-8.6364 Y-.0217 Z-3.
(Line Move)
X-8.582 Y-.044 Z-3.
(Line Move)
X-3.8756 Y-1.3032 Z-3.
(Line Move)
X-3.7763 Y-1.3047 Z-3.
(Line Move)
X-3.6381 Y-1.4711 Z-3.
(Line Move)
X-3.9299 Y-2.1899 Z-3.
(Line Move)
X-3.7917 Y-2.3563 Z-3.
(Line Move)
X1.8844 Y-2.4395 Z-3.
(Line Move)
X5.2496 Y-2.0989 Z-3.
(Line Move)
X7.3065 Y-1.7029 Z-3.
(Line Move)
X10.4253 Y-.7562 Z-3.
(Line Move)
X11.0862 Y-.4731 Z-3.
(Line Move)
X11.1538 Y-.433 Z-3.
(Line Move)
X11.2087 Y-.3769 Z-3.
(Line Move)
X11.2474 Y-.3086 Z-3.
(Line Move)
X11.2671 Y-.2326 Z-3.
(Line Move)
X11.2665 Y-.1541 Z-3.
(Line Move)
X11.2457 Y-.0783 Z-3.
(Line Move)
X11.2062 Y-.0105 Z-3.
(Line Move)
X11.1504 Y.0448 Z-3.
(Line Move)
X11.0823 Y.0839 Z-3.
(Line Move)
X6.6767 Y1.8984 Z-3.
(Line Move)
X4.6781 Y2.4002 Z-3.
(Line Move)
X-.2392 Y2.6851 Z-3.
(Line Move)
X-2.3525 Y2.6209 Z-3.
(Line Move)
X-4.6627 Y2.355 Z-3.
(Line Move)
X-8.9423 Y1.4864 Z-3.
(Line Move)
X-11.1919 Y.4884 Z-3.
(Line Move)
X-11.2828 Y.4342 Z-3.
(Line Move)
X-11.3583 Y.36 Z-3.
(Line Move)
X-11.414 Y.27 Z-3.
(Line Move)
X-11.4467 Y.1694 Z-3.
(Line Move)
X-11.4546 Y.0639 Z-3.
(Line Move)
X-11.4372 Y-.0405 Z-3.
(Line Move)
X-11.3956 Y-.1378 Z-3.
(Line Move)
X-11.332 Y-.2224 Z-3.
(Line Move)
X-11.2502 Y-.2895 Z-3.
(Line Move)
X-11.1547 Y-.3353 Z-3.
(Line Move)
X-8.567 Y-1.2138 Z-3.
(Line Move)
X-4.0127 Y-2.3531 Z-3.
(Line Move)
X-3.7917 Y-2.3563 Z-3.
(Line Move)
X-3.6716 Y-2.4155 Z-3.
(Line Move)
X-3.6616 Y-2.5672 Z-3.
(Line Move)
X-3.8255 Y-3.0259 Z-3.
(Line Move)
X-3.9894 Y-3.4879 Z-3.
(Line Move)
X-3.9796 Y-3.6438 Z-3.
(Line Move)
X-3.8597 Y-3.7088 Z-3.
(Line Move)
X-2.0974 Y-3.7974 Z-3.
(Line Move)
X1.9398 Y-3.7857 Z-3.
(Line Move)
X4.5671 Y-3.5766 Z-3.
(Line Move)
X7.2123 Y-3.1385 Z-3.
(Line Move)
X11.2779 Y-1.9044 Z-3.
(Line Move)
X13.9184 Y-.5487 Z-3.
(Line Move)
X14.0219 Y-.4779 Z-3.
(Line Move)
X14.1046 Y-.3834 Z-3.
(Line Move)
X14.1611 Y-.2714 Z-3.
(Line Move)
X14.188 Y-.1488 Z-3.
(Line Move)
X14.1835 Y-.0234 Z-3.
(Line Move)
X14.1479 Y.0969 Z-3.
(Line Move)
X14.0835 Y.2046 Z-3.
(Line Move)
X13.9943 Y.2928 Z-3.
(Line Move)
X13.8859 Y.3561 Z-3.
(Line Move)
X7.6167 Y3.0264 Z-3.
(Line Move)
X5.2601 Y3.715 Z-3.
(Line Move)
X-.7024 Y4.0606 Z-3.
(Line Move)
X-3.2236 Y3.9211 Z-3.
(Line Move)
X-5.93 Y3.5336 Z-3.
(Line Move)
X-9.3652 Y2.7717 Z-3.
(Line Move)
X-13.4361 Y.9657 Z-3.
(Line Move)
X-14.2581 Y.4444 Z-3.
(Line Move)
X-14.3569 Y.3622 Z-3.
(Line Move)
X-14.4315 Y.2575 Z-3.
(Line Move)
X-14.4769 Y.1372 Z-3.
(Line Move)
X-14.4902 Y.0094 Z-3.
(Line Move)
X-14.4704 Y-.1176 Z-3.
(Line Move)
X-14.4189 Y-.2354 Z-3.
(Line Move)
X-14.3391 Y-.3361 Z-3.
(Line Move)
X-14.2362 Y-.4132 Z-3.
(Line Move)
X-13.0118 Y-1.1048 Z-3.
(Line Move)
X-11.2939 Y-1.808 Z-3.
(Line Move)
X-8.9223 Y-2.5127 Z-3.
(Line Move)
X-4.2118 Y-3.6911 Z-3.
(Line Move)
X-3.8597 Y-3.7088 Z-3.
(Line Move)
X-3.7247 Y-3.8241 Z-3.
(Line Move)
X-4.0295 Y-4.2864 Z-3.
(Line Move)
X-3.8945 Y-4.4017 Z-3.
(Line Move)
X-1.3389 Y-4.5301 Z-3.
(Line Move)
X1.3187 Y-4.5311 Z-3.
(Line Move)
X4.6515 Y-4.2658 Z-3.
(Line Move)
X7.3552 Y-3.818 Z-3.
(Line Move)
X9.5787 Y-3.249 Z-3.
(Line Move)
X11.5444 Y-2.5458 Z-3.
(Line Move)
X14.5973 Y-1.0928 Z-3.
(Line Move)
X15.5861 Y-.4073 Z-3.
(Line Move)
X15.6547 Y-.3469 Z-3.
(Line Move)
X15.7077 Y-.2724 Z-3.
(Line Move)
X15.7421 Y-.1878 Z-3.
(Line Move)
X15.7563 Y-.0975 Z-3.
(Line Move)
X15.7494 Y-.0064 Z-3.
(Line Move)
X15.7219 Y.0807 Z-3.
(Line Move)
X15.6751 Y.1592 Z-3.
(Line Move)
X15.6116 Y.2249 Z-3.
(Line Move)
X15.2054 Y.5578 Z-3.
(Line Move)
X8.0978 Y3.6037 Z-3.
(Line Move)
X5.5794 Y4.3831 Z-3.
(Line Move)
X2.1103 Y4.6925 Z-3.
(Line Move)
X-.8664 Y4.7581 Z-3.
(Line Move)
X-3.5854 Y4.5943 Z-3.
(Line Move)
X-6.0577 Y4.2159 Z-3.
(Line Move)
X-9.5831 Y3.434 Z-3.
(Line Move)
X-14.1735 Y1.3975 Z-3.
(Line Move)
X-15.6769 Y.398 Z-3.
(Line Move)
X-15.7532 Y.3319 Z-3.
(Line Move)
X-15.8105 Y.2487 Z-3.
(Line Move)
X-15.845 Y.1537 Z-3.
(Line Move)
X-15.8544 Y.0532 Z-3.
(Line Move)
X-15.8383 Y-.0465 Z-3.
(Line Move)
X-15.7976 Y-.139 Z-3.
(Line Move)
X-15.7349 Y-.2182 Z-3.
(Line Move)
X-15.3833 Y-.5621 Z-3.
(Line Move)
X-13.3149 Y-1.7303 Z-3.
(Line Move)
X-11.5247 Y-2.4632 Z-3.
(Line Move)
X-7.3049 Y-3.7171 Z-3.
(Line Move)
X-4.3048 Y-4.3811 Z-3.
(Line Move)
X-3.8945 Y-4.4017 Z-3.
(Line Move)
X-3.7747 Y-4.4694 Z-3.
(Line Move)
X-3.7653 Y-4.6327 Z-3.
(Line Move)
X-4.0957 Y-5.6037 Z-3.
(Line Move)
X-4.0863 Y-5.7669 Z-3.
(Line Move)
X-3.9665 Y-5.8347 Z-3.
(Line Move)
X.0636 Y-6.0372 Z-3.
(Line Move)
X3.8866 Y-5.8267 Z-3.
(Line Move)
X7.0425 Y-5.3685 Z-3.
(Line Move)
X9.6687 Y-4.7384 Z-3.
(Line Move)
X12.0022 Y-3.917 Z-3.
(Line Move)
X15.6918 Y-2.1609 Z-3.
(Line Move)
X17.1288 Y-1.068 Z-3.
(Line Move)
X17.7841 Y-.4094 Z-3.
(Line Move)
X17.8573 Y-.3158 Z-3.
(Line Move)
X17.9064 Y-.2076 Z-3.
(Line Move)
X17.9285 Y-.0909 Z-3.
(Line Move)
X17.9225 Y.0277 Z-3.
(Line Move)
X17.8887 Y.1416 Z-3.
(Line Move)
X17.8289 Y.2443 Z-3.
(Line Move)
X17.7466 Y.33 Z-3.
(Line Move)
X15.9619 Y1.793 Z-3.
(Line Move)
X9.0928 Y4.7977 Z-3.
(Line Move)
X5.8584 Y5.7987 Z-3.
(Line Move)
X2.1899 Y6.1259 Z-3.
(Line Move)
X-.9903 Y6.196 Z-3.
(Line Move)
X-4.0684 Y6.0015 Z-3.
(Line Move)
X-6.8476 Y5.5389 Z-3.
(Line Move)
X-10.0256 Y4.8043 Z-3.
(Line Move)
X-13.7485 Y3.2415 Z-3.
(Line Move)
X-15.4497 Y2.3478 Z-3.
(Line Move)
X-17.1154 Y1.1535 Z-3.
(Line Move)
X-17.7625 Y.4231 Z-3.
(Line Move)
X-17.8338 Y.3186 Z-3.
(Line Move)
X-17.8765 Y.1996 Z-3.
(Line Move)
X-17.888 Y.0737 Z-3.
(Line Move)
X-17.8676 Y-.0511 Z-3.
(Line Move)
X-17.8164 Y-.1667 Z-3.
(Line Move)
X-17.738 Y-.2659 Z-3.
(Line Move)
X-16.2524 Y-1.7191 Z-3.
(Line Move)
X-13.942 Y-3.024 Z-3.
(Line Move)
X-12.002 Y-3.8181 Z-3.
(Line Move)
X-7.6499 Y-5.1114 Z-3.
(Line Move)
X-4.4969 Y-5.808 Z-3.
(Line Move)
X-3.9665 Y-5.8347 Z-3.
(Line Move)
X-3.8483 Y-5.9005 Z-3.
(Line Move)
X-3.8432 Y-6.0587 Z-3.
(Line Move)
X-4.0214 Y-6.5301 Z-3.
(Line Move)
X-4.1998 Y-7.0041 Z-3.
(Line Move)
X-4.1948 Y-7.1657 Z-3.
(Line Move)
X-4.077 Y-7.2362 Z-3.
(Line Move)
X-1.1292 Y-7.4685 Z-3.
(Line Move)
X3.1007 Y-7.3273 Z-3.
(Line Move)
X6.6396 Y-6.8819 Z-3.
(Line Move)
X9.6147 Y-6.2244 Z-3.
(Line Move)
X12.2796 Y-5.3252 Z-3.
(Line Move)
X16.4192 Y-3.3549 Z-3.
(Line Move)
X18.047 Y-2.1169 Z-3.
(Line Move)
X19.3293 Y-.8282 Z-3.
(Line Move)
X19.7146 Y-.2101 Z-3.
(Line Move)
X19.7649 Y-.1032 Z-3.
(Line Move)
X19.7886 Y.0126 Z-3.
(Line Move)
X19.7845 Y.1306 Z-3.
(Line Move)
X19.7528 Y.2445 Z-3.
(Line Move)
X19.6953 Y.3477 Z-3.
(Line Move)
X19.3687 Y.7986 Z-3.
(Line Move)
X16.6994 Y2.9867 Z-3.
(Line Move)
X10.0572 Y5.955 Z-3.
(Line Move)
X6.1287 Y7.1708 Z-3.
(Line Move)
X2.2671 Y7.5153 Z-3.
(Line Move)
X-1.0189 Y7.5877 Z-3.
(Line Move)
X-4.3683 Y7.376 Z-3.
(Line Move)
X-7.4244 Y6.8509 Z-3.
(Line Move)
X-10.4582 Y6.131 Z-3.
(Line Move)
X-14.7091 Y4.3466 Z-3.
(Line Move)
X-16.5544 Y3.3261 Z-3.
(Line Move)
X-18.0656 Y2.1781 Z-3.
(Line Move)
X-19.675 Y.3618 Z-3.
(Line Move)
X-19.7458 Y.2582 Z-3.
(Line Move)
X-19.7886 Y.1402 Z-3.
(Line Move)
X-19.8006 Y.0152 Z-3.
(Line Move)
X-19.7811 Y-.1088 Z-3.
(Line Move)
X-19.7313 Y-.224 Z-3.
(Line Move)
X-19.6545 Y-.3232 Z-3.
(Line Move)
X-17.7706 Y-2.2082 Z-3.
(Line Move)
X-17.0782 Y-2.8499 Z-3.
(Line Move)
X-14.5498 Y-4.2779 Z-3.
(Line Move)
X-12.4647 Y-5.1315 Z-3.
(Line Move)
X-7.0719 Y-6.734 Z-3.
(Line Move)
X-4.682 Y-7.1885 Z-3.
(Line Move)
X-4.077 Y-7.2362 Z-3.
(Line Move)
X-3.9645 Y-7.2988 Z-3.
(Line Move)
X-3.9739 Y-7.4403 Z-3.
(Line Move)
X-4.1964 Y-7.858 Z-3.
(Line Move)
X-4.4202 Y-8.2859 Z-3.
(Line Move)
X-4.4313 Y-8.4401 Z-3.
(Line Move)
X-4.3212 Y-8.5205 Z-3.
(Line Move)
X-4.0978 Y-8.563 Z-3.
(Line Move)
X-2.1772 Y-8.726 Z-3.
(Line Move)
X2.3754 Y-8.6555 Z-3.
(Line Move)
X6.2227 Y-8.2334 Z-3.
(Line Move)
X9.482 Y-7.5695 Z-3.
(Line Move)
X12.424 Y-6.631 Z-3.
(Line Move)
X17.0684 Y-4.4204 Z-3.
(Line Move)
X18.8664 Y-3.053 Z-3.
(Line Move)
X20.3081 Y-1.604 Z-3.
(Line Move)
X21.2198 Y-.1418 Z-3.
(Line Move)
X21.1969 Y.3903 Z-3.
(Line Move)
X20.2881 Y1.6451 Z-3.
(Line Move)
X17.63 Y3.9263 Z-3.
(Line Move)
X10.918 Y6.9879 Z-3.
(Line Move)
X6.373 Y8.3944 Z-3.
(Line Move)
X2.6048 Y8.7493 Z-3.
(Line Move)
X-1.0444 Y8.8296 Z-3.
(Line Move)
X-4.5361 Y8.609 Z-3.
(Line Move)
X-7.8254 Y8.0412 Z-3.
(Line Move)
X-10.8461 Y7.3142 Z-3.
(Line Move)
X-15.5317 Y5.3473 Z-3.
(Line Move)
X-17.4703 Y4.2315 Z-3.
(Line Move)
X-18.9198 Y3.0853 Z-3.
(Line Move)
X-21.0225 Y.7125 Z-3.
(Line Move)
X-21.2346 Y-.267 Z-3.
(Line Move)
X-20.645 Y-1.2367 Z-3.
(Line Move)
X-17.8152 Y-3.8591 Z-3.
(Line Move)
X-15.0922 Y-5.397 Z-3.
(Line Move)
X-12.7265 Y-6.3654 Z-3.
(Line Move)
X-7.3635 Y-7.9419 Z-3.
(Line Move)
X-4.3212 Y-8.5205 Z-3.
(Line Move)
X-4.2123 Y-8.6062 Z-3.
(Line Move)
X-4.2265 Y-8.7751 Z-3.
(Line Move)
X-4.6938 Y-9.7272 Z-3.
(Line Move)
X-4.7081 Y-9.896 Z-3.
(Line Move)
X-4.5991 Y-9.9818 Z-3.
(Line Move)
X-3.4118 Y-10.2076 Z-3.
(Line Move)
X1.4817 Y-10.2312 Z-3.
(Line Move)
X5.6611 Y-9.8476 Z-3.
(Line Move)
X9.2276 Y-9.1981 Z-3.
(Line Move)
X12.475 Y-8.2275 Z-3.
(Line Move)
X15.2435 Y-7.0409 Z-3.
(Line Move)
X17.8667 Y-5.6822 Z-3.
(Line Move)
X19.8485 Y-4.1749 Z-3.
(Line Move)
X21.4813 Y-2.5339 Z-3.
(Line Move)
X22.7258 Y-.5379 Z-3.
(Line Move)
X22.6696 Y.7658 Z-3.
(Line Move)
X22.2687 Y1.5828 Z-3.
(Line Move)
X21.3537 Y2.6907 Z-3.
(Line Move)
X18.4444 Y5.1876 Z-3.
(Line Move)
X11.9495 Y8.2257 Z-3.
(Line Move)
X6.6657 Y9.861 Z-3.
(Line Move)
X2.6949 Y10.2348 Z-3.
(Line Move)
X-.8576 Y10.3319 Z-3.
(Line Move)
X-4.71 Y10.0885 Z-3.
(Line Move)
X-8.1758 Y9.4902 Z-3.
(Line Move)
X-11.2302 Y8.7633 Z-3.
(Line Move)
X-16.4789 Y6.5629 Z-3.
(Line Move)
X-18.3571 Y5.4339 Z-3.
(Line Move)
X-19.9189 Y4.1914 Z-3.
(Line Move)
X-21.4013 Y2.6697 Z-3.
(Line Move)
X-22.4063 Y1.3509 Z-3.
(Line Move)
X-22.7658 Y-.3095 Z-3.
(Line Move)
X-22.6009 Y-.9083 Z-3.
(Line Move)
X-21.8026 Y-2.192 Z-3.
(Line Move)
X-18.6984 Y-5.0686 Z-3.
(Line Move)
X-15.7467 Y-6.7357 Z-3.
(Line Move)
X-13.3759 Y-7.7249 Z-3.
(Line Move)
X-7.7131 Y-9.3895 Z-3.
(Line Move)
X-4.5991 Y-9.9818 Z-3.
(Line Move)
X-4.4886 Y-10.0701 Z-3.
(Line Move)
X-4.4987 Y-10.2454 Z-3.
(Line Move)
X-4.7197 Y-10.7401 Z-3.
(Line Move)
X-4.9401 Y-11.2319 Z-3.
(Line Move)
X-4.9496 Y-11.4037 Z-3.
(Line Move)
X-4.8383 Y-11.4871 Z-3.
(Line Move)
X-3.5328 Y-11.6945 Z-3.
(Line Move)
X1.5342 Y-11.719 Z-3.
(Line Move)
X5.0426 Y-11.4538 Z-3.
(Line Move)
X8.8887 Y-10.8349 Z-3.
(Line Move)
X12.4186 Y-9.8599 Z-3.
(Line Move)
X15.449 Y-8.6097 Z-3.
(Line Move)
X18.6649 Y-6.9439 Z-3.
(Line Move)
X20.801 Y-5.3194 Z-3.
(Line Move)
X22.4095 Y-3.8567 Z-3.
(Line Move)
X24.1518 Y-1.0623 Z-3.
(Line Move)
X24.2725 Y-.2485 Z-3.
(Line Move)
X24.1211 Y1.1843 Z-3.
(Line Move)
X23.527 Y2.395 Z-3.
(Line Move)
X22.4194 Y3.7364 Z-3.
(Line Move)
X19.2663 Y6.4424 Z-3.
(Line Move)
X13.0852 Y9.4314 Z-3.
(Line Move)
X6.9656 Y11.3252 Z-3.
(Line Move)
X3.317 Y11.7059 Z-3.
(Line Move)
X-.8842 Y11.8207 Z-3.
(Line Move)
X-4.884 Y11.568 Z-3.
(Line Move)
X-8.4748 Y10.9481 Z-3.
(Line Move)
X-11.6707 Y10.1875 Z-3.
(Line Move)
X-14.6758 Y9.0352 Z-3.
(Line Move)
X-17.2149 Y7.8614 Z-3.
(Line Move)
X-19.2082 Y6.6576 Z-3.
(Line Move)
X-20.9187 Y5.2968 Z-3.
(Line Move)
X-22.5297 Y3.643 Z-3.
(Line Move)
X-23.7622 Y2.0257 Z-3.
(Line Move)
X-24.1172 Y.7552 Z-3.
(Line Move)
X-24.282 Y-.4065 Z-3.
(Line Move)
X-23.9778 Y-1.5109 Z-3.
(Line Move)
X-22.9602 Y-3.1472 Z-3.
(Line Move)
X-19.6034 Y-6.2579 Z-3.
(Line Move)
X-17.6101 Y-7.4898 Z-3.
(Line Move)
X-14.8725 Y-8.8071 Z-3.
(Line Move)
X-10.0435 Y-10.3558 Z-3.
(Line Move)
X-6.3868 Y-11.2411 Z-3.
(Line Move)
X-4.8383 Y-11.4871 Z-3.
(Line Move)
X-4.7268 Y-11.5695 Z-3.
(Line Move)
X-4.7358 Y-11.7387 Z-3.
(Line Move)
X-5.1741 Y-12.7046 Z-3.
(Line Move)
X-5.1831 Y-12.8738 Z-3.
(Line Move)
X-5.0716 Y-12.9562 Z-3.
(Line Move)
X-3.6635 Y-13.1799 Z-3.
(Line Move)
X.661 Y-13.2578 Z-3.
(Line Move)
X4.3797 Y-13.0493 Z-3.
(Line Move)
X8.4822 Y-12.4718 Z-3.
(Line Move)
X12.2732 Y-11.514 Z-3.
(Line Move)
X15.5525 Y-10.2313 Z-3.
(Line Move)
X19.4631 Y-8.2057 Z-3.
(Line Move)
X21.7534 Y-6.4638 Z-3.
(Line Move)
X23.5368 Y-4.8422 Z-3.
(Line Move)
X24.8177 Y-2.9857 Z-3.
(Line Move)
X25.5393 Y-1.6204 Z-3.
(Line Move)
X25.7728 Y-.8417 Z-3.
(Line Move)
X25.7405 Y.5548 Z-3.
(Line Move)
X25.5501 Y1.6488 Z-3.
(Line Move)
X24.7853 Y3.2073 Z-3.
(Line Move)
X23.4851 Y4.782 Z-3.
(Line Move)
X20.0964 Y7.6902 Z-3.
(Line Move)
X14.2208 Y10.637 Z-3.
(Line Move)
X7.2655 Y12.7895 Z-3.
(Line Move)
X3.4146 Y13.1913 Z-3.
(Line Move)
X-.9108 Y13.3095 Z-3.
(Line Move)
X-5.0579 Y13.0475 Z-3.
(Line Move)
X-8.7739 Y12.406 Z-3.
(Line Move)
X-12.1111 Y11.6117 Z-3.
(Line Move)
X-15.2548 Y10.4063 Z-3.
(Line Move)
X-17.9136 Y9.1772 Z-3.
(Line Move)
X-20.0592 Y7.8814 Z-3.
(Line Move)
X-21.9185 Y6.4023 Z-3.
(Line Move)
X-23.6582 Y4.6163 Z-3.
(Line Move)
X-25.0415 Y2.8011 Z-3.
(Line Move)
X-25.4541 Y1.9213 Z-3.
(Line Move)
X-25.7992 Y-.5292 Z-3.
(Line Move)
X-25.3548 Y-2.1135 Z-3.
(Line Move)
X-24.1179 Y-4.1025 Z-3.
(Line Move)
X-20.5084 Y-7.4472 Z-3.
(Line Move)
X-18.3256 Y-8.7963 Z-3.
(Line Move)
X-15.4247 Y-10.1921 Z-3.
(Line Move)
X-9.3207 Y-12.1498 Z-3.
(Line Move)
X-7.6208 Y-12.5512 Z-3.
(Line Move)
X-5.0716 Y-12.9562 Z-3.
(Line Move)
X-4.9602 Y-13.0386 Z-3.
(Line Move)
X-4.9692 Y-13.2078 Z-3.
(Line Move)
X-5.4074 Y-14.1737 Z-3.
(Line Move)
X-5.4165 Y-14.3428 Z-3.
(Line Move)
X-5.305 Y-14.4253 Z-3.
(Line Move)
X-3.8049 Y-14.6636 Z-3.
(Line Move)
X-.2296 Y-14.7798 Z-3.
(Line Move)
X3.6822 Y-14.6328 Z-3.
(Line Move)
X8.0218 Y-14.1041 Z-3.
(Line Move)
X12.0552 Y-13.1762 Z-3.
(Line Move)
X15.5691 Y-11.8979 Z-3.
(Line Move)
X20.2613 Y-9.4674 Z-3.
(Line Move)
X22.7058 Y-7.6083 Z-3.
(Line Move)
X24.664 Y-5.8276 Z-3.
(Line Move)
X26.0918 Y-3.7583 Z-3.
(Line Move)
X26.9224 Y-2.1869 Z-3.
(Line Move)
X27.2535 Y-1.0826 Z-3.
(Line Move)
X27.2965 Y.29 Z-3.
(Line Move)
X26.9791 Y2.1133 Z-3.
(Line Move)
X26.0437 Y4.0196 Z-3.
(Line Move)
X24.5508 Y5.8276 Z-3.
(Line Move)
X20.9328 Y8.9325 Z-3.
(Line Move)
X15.3336 Y11.8184 Z-3.
(Line Move)
X12.8389 Y12.7123 Z-3.
(Line Move)
X7.5534 Y14.2551 Z-3.
(Line Move)
X3.5122 Y14.6767 Z-3.
(Line Move)
X-.9375 Y14.7983 Z-3.
(Line Move)
X-5.2318 Y14.527 Z-3.
(Line Move)
X-9.0729 Y13.8638 Z-3.
(Line Move)
X-12.5515 Y13.0359 Z-3.
(Line Move)
X-15.8338 Y11.7774 Z-3.
(Line Move)
X-18.6123 Y10.4929 Z-3.
(Line Move)
X-20.9103 Y9.1051 Z-3.
(Line Move)
X-22.9183 Y7.5077 Z-3.
(Line Move)
X-24.7866 Y5.5897 Z-3.
(Line Move)
X-26.3208 Y3.5765 Z-3.
(Line Move)
X-26.8753 Y2.3942 Z-3.
(Line Move)
X-27.2396 Y.6329 Z-3.
(Line Move)
X-27.2952 Y-.7034 Z-3.
(Line Move)
X-26.7298 Y-2.7192 Z-3.
(Line Move)
X-25.2755 Y-5.0577 Z-3.
(Line Move)
X-21.4134 Y-8.6366 Z-3.
(Line Move)
X-19.041 Y-10.1028 Z-3.
(Line Move)
X-15.977 Y-11.5771 Z-3.
(Line Move)
X-8.8548 Y-13.8613 Z-3.
(Line Move)
X-5.305 Y-14.4253 Z-3.
(Line Move)
X-5.1919 Y-14.5107 Z-3.
(Line Move)
X-5.1966 Y-14.6876 Z-3.
(Line Move)
X-5.4022 Y-15.193 Z-3.
(Line Move)
X-5.6074 Y-15.6954 Z-3.
(Line Move)
X-5.6116 Y-15.8686 Z-3.
(Line Move)
X-5.4977 Y-15.9489 Z-3.
(Line Move)
X-3.9401 Y-16.1458 Z-3.
(Line Move)
X-1.1436 Y-16.3027 Z-3.
(Line Move)
X3.8003 Y-16.1169 Z-3.
(Line Move)
X8.2792 Y-15.5712 Z-3.
(Line Move)
X12.4556 Y-14.6104 Z-3.
(Line Move)
X15.5095 Y-13.604 Z-3.
(Line Move)
X21.0595 Y-10.7291 Z-3.
(Line Move)
X23.6582 Y-8.7528 Z-3.
(Line Move)
X25.7606 Y-6.8411 Z-3.
(Line Move)
X26.9694 Y-5.2811 Z-3.
(Line Move)
X28.3054 Y-2.7535 Z-3.
(Line Move)
X28.7191 Y-1.374 Z-3.
(Line Move)
X28.8666 Y.0794 Z-3.
(Line Move)
X28.4082 Y2.5778 Z-3.
(Line Move)
X27.302 Y4.8319 Z-3.
(Line Move)
X25.6164 Y6.8732 Z-3.
(Line Move)
X21.7753 Y10.1697 Z-3.
(Line Move)
X16.4384 Y12.9914 Z-3.
(Line Move)
X13.8662 Y13.962 Z-3.
(Line Move)
X7.8413 Y15.7206 Z-3.
(Line Move)
X3.6099 Y16.1621 Z-3.
(Line Move)
X-.9641 Y16.287 Z-3.
(Line Move)
X-5.4057 Y16.0064 Z-3.
(Line Move)
X-9.3719 Y15.3217 Z-3.
(Line Move)
X-12.9919 Y14.4602 Z-3.
(Line Move)
X-16.4128 Y13.1485 Z-3.
(Line Move)
X-19.311 Y11.8087 Z-3.
(Line Move)
X-21.7519 Y10.3345 Z-3.
(Line Move)
X-23.6796 Y8.8469 Z-3.
(Line Move)
X-25.6895 Y6.859 Z-3.
(Line Move)
X-27.6001 Y4.3518 Z-3.
(Line Move)
X-28.2965 Y2.8672 Z-3.
(Line Move)
X-28.8425 Y.2273 Z-3.
(Line Move)
X-28.7703 Y-.9525 Z-3.
(Line Move)
X-28.1048 Y-3.3249 Z-3.
(Line Move)
X-26.4331 Y-6.0129 Z-3.
(Line Move)
X-22.2718 Y-9.8692 Z-3.
(Line Move)
X-19.7536 Y-11.4106 Z-3.
(Line Move)
X-16.5377 Y-12.958 Z-3.
(Line Move)
X-10.0493 Y-15.1295 Z-3.
(Line Move)
X-7.1668 Y-15.7378 Z-3.
(Line Move)
X-5.4977 Y-15.9489 Z-3.
(Line Move)
X-5.3854 Y-16.0288 Z-3.
(Line Move)
X-5.3939 Y-16.2011 Z-3.
(Line Move)
X-5.612 Y-16.7004 Z-3.
(Line Move)
X-5.8305 Y-17.2021 Z-3.
(Line Move)
X-5.8394 Y-17.3773 Z-3.
(Line Move)
X-5.7277 Y-17.4613 Z-3.
(Line Move)
X-4.9555 Y-17.5787 Z-3.
(Line Move)
X-1.1573 Y-17.7918 Z-3.
(Line Move)
X3.9184 Y-17.601 Z-3.
(Line Move)
X8.5366 Y-17.0384 Z-3.
(Line Move)
X12.856 Y-16.0447 Z-3.
(Line Move)
X16.0714 Y-14.985 Z-3.
(Line Move)
X19.3794 Y-13.3686 Z-3.
(Line Move)
X21.876 Y-11.977 Z-3.
(Line Move)
X24.6107 Y-9.8972 Z-3.
(Line Move)
X26.8571 Y-7.8545 Z-3.
(Line Move)
X28.2242 Y-6.0902 Z-3.
(Line Move)
X29.6885 Y-3.32 Z-3.
(Line Move)
X30.1846 Y-1.6654 Z-3.
(Line Move)
X30.3628 Y.089 Z-3.
(Line Move)
X30.1906 Y1.5918 Z-3.
(Line Move)
X29.8124 Y3.0928 Z-3.
(Line Move)
X28.5604 Y5.6442 Z-3.
(Line Move)
X26.3065 Y8.3737 Z-3.
(Line Move)
X22.6087 Y11.4101 Z-3.
(Line Move)
X17.5343 Y14.1549 Z-3.
(Line Move)
X14.8986 Y15.2103 Z-3.
(Line Move)
X8.1292 Y17.1861 Z-3.
(Line Move)
X3.7075 Y17.6475 Z-3.
(Line Move)
X-.9908 Y17.7758 Z-3.
(Line Move)
X-5.5797 Y17.4859 Z-3.
(Line Move)
X-9.6709 Y16.7796 Z-3.
(Line Move)
X-13.4323 Y15.8844 Z-3.
(Line Move)
X-16.9919 Y14.5195 Z-3.
(Line Move)
X-20.0097 Y13.1244 Z-3.
(Line Move)
X-22.5935 Y11.564 Z-3.
(Line Move)
X-24.6455 Y9.9804 Z-3.
(Line Move)
X-26.5302 Y8.21 Z-3.
(Line Move)
X-28.8795 Y5.1272 Z-3.
(Line Move)
X-29.7176 Y3.3401 Z-3.
(Line Move)
X-30.3393 Y.3344 Z-3.
(Line Move)
X-30.2485 Y-1.1493 Z-3.
(Line Move)
X-29.9204 Y-2.7392 Z-3.
(Line Move)
X-29.4448 Y-3.9868 Z-3.
(Line Move)
X-27.5907 Y-6.9682 Z-3.
(Line Move)
X-23.1744 Y-11.0607 Z-3.
(Line Move)
X-20.4662 Y-12.7185 Z-3.
(Line Move)
X-17.1065 Y-14.3351 Z-3.
(Line Move)
X-11.228 Y-16.3809 Z-3.
(Line Move)
X-8.2713 Y-17.0745 Z-3.
(Line Move)
X-5.7277 Y-17.4613 Z-3.
(Line Move)
X-5.61 Y-17.5487 Z-3.
(Line Move)
X-5.603 Y-17.7327 Z-3.
(Line Move)
X-5.7733 Y-18.2585 Z-3.
(Line Move)
X-5.9426 Y-18.7755 Z-3.
(Line Move)
X-5.9345 Y-18.9484 Z-3.
(Line Move)
X-5.8152 Y-19.0203 Z-3.
(Line Move)
X-1.1711 Y-19.2809 Z-3.
(Line Move)
X4.0365 Y-19.0851 Z-3.
(Line Move)
X8.7805 Y-18.5071 Z-3.
(Line Move)
X12.5492 Y-17.712 Z-3.
(Line Move)
X16.6239 Y-16.3691 Z-3.
(Line Move)
X19.4236 Y-15.0469 Z-3.
(Line Move)
X22.6924 Y-13.2249 Z-3.
(Line Move)
X25.5631 Y-11.0417 Z-3.
(Line Move)
X27.9536 Y-8.868 Z-3.
(Line Move)
X29.479 Y-6.8994 Z-3.
(Line Move)
X31.0716 Y-3.8866 Z-3.
(Line Move)
X31.6502 Y-1.9567 Z-3.
(Line Move)
X31.8589 Y.0986 Z-3.
(Line Move)
X31.6572 Y1.8594 Z-3.
(Line Move)
X31.2166 Y3.6078 Z-3.
(Line Move)
X29.8187 Y6.4565 Z-3.
(Line Move)
X27.3618 Y9.4318 Z-3.
(Line Move)
X23.4475 Y12.646 Z-3.
(Line Move)
X18.6245 Y15.3123 Z-3.
(Line Move)
X15.9194 Y16.4382 Z-3.
(Line Move)
X12.938 Y17.4303 Z-3.
(Line Move)
X8.4017 Y18.6533 Z-3.
(Line Move)
X3.8051 Y19.1328 Z-3.
(Line Move)
X-1.0174 Y19.2646 Z-3.
(Line Move)
X-5.7536 Y18.9654 Z-3.
(Line Move)
X-9.9699 Y18.2375 Z-3.
(Line Move)
X-13.8672 Y17.31 Z-3.
(Line Move)
X-17.2117 Y16.0567 Z-3.
(Line Move)
X-20.7084 Y14.4402 Z-3.
(Line Move)
X-23.4352 Y12.7934 Z-3.
(Line Move)
X-25.6114 Y11.1139 Z-3.
(Line Move)
X-27.6067 Y9.2396 Z-3.
(Line Move)
X-28.7342 Y7.9268 Z-3.
(Line Move)
X-30.1716 Y5.8753 Z-3.
(Line Move)
X-31.1201 Y3.8529 Z-3.
(Line Move)
X-31.5768 Y2.1534 Z-3.
(Line Move)
X-31.8334 Y.3971 Z-3.
(Line Move)
X-31.7268 Y-1.3461 Z-3.
(Line Move)
X-31.3529 Y-3.1571 Z-3.
(Line Move)
X-30.796 Y-4.6184 Z-3.
(Line Move)
X-29.7209 Y-6.5383 Z-3.
(Line Move)
X-28.7144 Y-7.9549 Z-3.
(Line Move)
X-24.0771 Y-12.2522 Z-3.
(Line Move)
X-21.1788 Y-14.0264 Z-3.
(Line Move)
X-17.6834 Y-15.7082 Z-3.
(Line Move)
X-12.3958 Y-17.6206 Z-3.
(Line Move)
X-9.3602 Y-18.3857 Z-3.
(Line Move)
X-5.9823 Y-19.0109 Z-3.
(Line Move)
X-5.8152 Y-19.0203 Z-3.
(Line Move)
X-5.6959 Y-19.091 Z-3.
(Line Move)
X-5.6878 Y-19.2603 Z-3.
(Line Move)
X-6.0259 Y-20.2655 Z-3.
(Line Move)
X-6.0178 Y-20.4348 Z-3.
(Line Move)
X-5.8985 Y-20.5055 Z-3.
(Line Move)
X-1.1849 Y-20.7699 Z-3.
(Line Move)
X4.1546 Y-20.5692 Z-3.
(Line Move)
X9.0245 Y-19.9759 Z-3.
(Line Move)
X12.9368 Y-19.1505 Z-3.
(Line Move)
X17.1764 Y-17.7532 Z-3.
(Line Move)
X20.1041 Y-16.3706 Z-3.
(Line Move)
X23.5088 Y-14.4728 Z-3.
(Line Move)
X26.5155 Y-12.1862 Z-3.
(Line Move)
X29.0501 Y-9.8814 Z-3.
(Line Move)
X30.7338 Y-7.7085 Z-3.
(Line Move)
X32.4546 Y-4.4531 Z-3.
(Line Move)
X33.1157 Y-2.2481 Z-3.
(Line Move)
X33.355 Y.1083 Z-3.
(Line Move)
X33.1238 Y2.1269 Z-3.
(Line Move)
X32.6208 Y4.1228 Z-3.
(Line Move)
X31.1001 Y7.2218 Z-3.
(Line Move)
X30.2165 Y8.4579 Z-3.
(Line Move)
X28.3962 Y10.5072 Z-3.
(Line Move)
X24.2915 Y13.8778 Z-3.
(Line Move)
X19.7095 Y16.4642 Z-3.
(Line Move)
X16.9395 Y17.6595 Z-3.
(Line Move)
X13.878 Y18.7175 Z-3.
(Line Move)
X8.6742 Y20.1204 Z-3.
(Line Move)
X3.9028 Y20.6182 Z-3.
(Line Move)
X-1.044 Y20.7534 Z-3.
(Line Move)
X-5.9275 Y20.4449 Z-3.
(Line Move)
X-10.269 Y19.6954 Z-3.
(Line Move)
X-14.302 Y18.7355 Z-3.
(Line Move)
X-17.7855 Y17.4302 Z-3.
(Line Move)
X-21.4072 Y15.7559 Z-3.
(Line Move)
X-24.2633 Y14.031 Z-3.
(Line Move)
X-26.2069 Y12.5954 Z-3.
(Line Move)
X-28.6832 Y10.2692 Z-3.
(Line Move)
X-29.9104 Y8.8404 Z-3.
(Line Move)
X-31.4636 Y6.6235 Z-3.
(Line Move)
X-32.5173 Y4.3769 Z-3.
(Line Move)
X-33.0027 Y2.6832 Z-3.
(Line Move)
X-33.3275 Y.4599 Z-3.
(Line Move)
X-33.205 Y-1.5428 Z-3.
(Line Move)
X-32.7855 Y-3.575 Z-3.
(Line Move)
X-32.1471 Y-5.2501 Z-3.
(Line Move)
X-30.9798 Y-7.3348 Z-3.
(Line Move)
X-29.8381 Y-8.9416 Z-3.
(Line Move)
X-24.9797 Y-13.4437 Z-3.
(Line Move)
X-21.8914 Y-15.3342 Z-3.
(Line Move)
X-18.2705 Y-17.0765 Z-3.
(Line Move)
X-13.5635 Y-18.8604 Z-3.
(Line Move)
X-9.6777 Y-19.8397 Z-3.
(Line Move)
X-6.1601 Y-20.4908 Z-3.
(Line Move)
X-5.8985 Y-20.5055 Z-3.
(Line Move)
X-5.7792 Y-20.5762 Z-3.
(Line Move)
X-5.7711 Y-20.7454 Z-3.
(Line Move)
X-6.1092 Y-21.7507 Z-3.
(Line Move)
X-6.1011 Y-21.9199 Z-3.
(Line Move)
X-5.9818 Y-21.9906 Z-3.
(Line Move)
X-1.1986 Y-22.259 Z-3.
(Line Move)
X4.2609 Y-22.0538 Z-3.
(Line Move)
X8.515 Y-21.6037 Z-3.
(Line Move)
X13.3243 Y-20.589 Z-3.
(Line Move)
X17.7288 Y-19.1373 Z-3.
(Line Move)
X20.7846 Y-17.6943 Z-3.
(Line Move)
X24.3252 Y-15.7207 Z-3.
(Line Move)
X27.468 Y-13.3306 Z-3.
(Line Move)
X30.1466 Y-10.8949 Z-3.
(Line Move)
X31.9886 Y-8.5177 Z-3.
(Line Move)
X33.8377 Y-5.0197 Z-3.
(Line Move)
X34.5813 Y-2.5395 Z-3.
(Line Move)
X34.8512 Y.1179 Z-3.
(Line Move)
X34.5847 Y2.4442 Z-3.
(Line Move)
X34.0251 Y4.6378 Z-3.
(Line Move)
X32.3815 Y7.9871 Z-3.
(Line Move)
X31.3809 Y9.3869 Z-3.
(Line Move)
X29.4424 Y11.5693 Z-3.
(Line Move)
X26.6213 Y14.0001 Z-3.
(Line Move)
X25.109 Y15.1235 Z-3.
(Line Move)
X20.7899 Y17.6112 Z-3.
(Line Move)
X17.9579 Y18.8737 Z-3.
(Line Move)
X14.8252 Y20.0028 Z-3.
(Line Move)
X8.9467 Y21.5876 Z-3.
(Line Move)
X4.0004 Y22.1036 Z-3.
(Line Move)
X-1.0613 Y22.2419 Z-3.
(Line Move)
X-5.5873 Y22.0131 Z-3.
(Line Move)
X-10.568 Y21.1533 Z-3.
(Line Move)
X-14.7369 Y20.1611 Z-3.
(Line Move)
X-18.3594 Y18.8036 Z-3.
(Line Move)
X-22.1059 Y17.0717 Z-3.
(Line Move)
X-25.0915 Y15.2686 Z-3.
(Line Move)
X-27.1613 Y13.7398 Z-3.
(Line Move)
X-29.7597 Y11.2988 Z-3.
(Line Move)
X-31.0866 Y9.754 Z-3.
(Line Move)
X-32.7557 Y7.3716 Z-3.
(Line Move)
X-33.9145 Y4.901 Z-3.
(Line Move)
X-34.6053 Y2.4907 Z-3.
(Line Move)
X-34.8199 Y.4942 Z-3.
(Line Move)
X-34.6832 Y-1.7396 Z-3.
(Line Move)
X-34.2181 Y-3.993 Z-3.
(Line Move)
X-33.5361 Y-5.8141 Z-3.
(Line Move)
X-32.2386 Y-8.1312 Z-3.
(Line Move)
X-30.9617 Y-9.9283 Z-3.
(Line Move)
X-25.8824 Y-14.6352 Z-3.
(Line Move)
X-22.604 Y-16.6421 Z-3.
(Line Move)
X-18.8688 Y-18.4393 Z-3.
(Line Move)
X-14.7218 Y-20.0901 Z-3.
(Line Move)
X-10.7473 Y-21.1544 Z-3.
(Line Move)
X-6.3378 Y-21.9707 Z-3.
(Line Move)
X-5.9818 Y-21.9906 Z-3.
(Line Move)
X-5.8625 Y-22.0614 Z-3.
(Line Move)
X-5.8544 Y-22.2306 Z-3.
(Line Move)
X-6.1925 Y-23.2359 Z-3.
(Line Move)
X-6.1844 Y-23.4051 Z-3.
(Line Move)
X-6.0651 Y-23.4758 Z-3.
(Line Move)
X-1.2124 Y-23.7481 Z-3.
(Line Move)
X4.3672 Y-23.5383 Z-3.
(Line Move)
X8.7474 Y-23.0749 Z-3.
(Line Move)
X13.7118 Y-22.0274 Z-3.
(Line Move)
X18.2813 Y-20.5215 Z-3.
(Line Move)
X21.4651 Y-19.0179 Z-3.
(Line Move)
X25.1417 Y-16.9686 Z-3.
(Line Move)
X28.4204 Y-14.4751 Z-3.
(Line Move)
X31.2431 Y-11.9083 Z-3.
(Line Move)
X33.2434 Y-9.3269 Z-3.
(Line Move)
X35.2207 Y-5.5862 Z-3.
(Line Move)
X36.0469 Y-2.8308 Z-3.
(Line Move)
X36.3473 Y.1275 Z-3.
(Line Move)
X36.051 Y2.7139 Z-3.
(Line Move)
X35.4386 Y5.1143 Z-3.
(Line Move)
X34.694 Y6.8735 Z-3.
(Line Move)
X33.6422 Y8.7814 Z-3.
(Line Move)
X32.5453 Y10.316 Z-3.
(Line Move)
X30.4886 Y12.6313 Z-3.
(Line Move)
X26.639 Y15.9483 Z-3.
(Line Move)
X21.9388 Y18.7189 Z-3.
(Line Move)
X19.0553 Y20.0519 Z-3.
(Line Move)
X15.8543 Y21.2464 Z-3.
(Line Move)
X12.2471 Y22.3323 Z-3.
(Line Move)
X9.1969 Y23.057 Z-3.
(Line Move)
X4.098 Y23.589 Z-3.
(Line Move)
X-1.0786 Y23.7304 Z-3.
(Line Move)
X-5.7519 Y23.4942 Z-3.
(Line Move)
X-10.867 Y22.6111 Z-3.
(Line Move)
X-15.1718 Y21.5866 Z-3.
(Line Move)
X-18.9333 Y20.1771 Z-3.
(Line Move)
X-22.8046 Y18.3874 Z-3.
(Line Move)
X-25.9197 Y16.5061 Z-3.
(Line Move)
X-28.1157 Y14.8841 Z-3.
(Line Move)
X-30.8362 Y12.3284 Z-3.
(Line Move)
X-32.2627 Y10.6675 Z-3.
(Line Move)
X-34.0478 Y8.1198 Z-3.
(Line Move)
X-35.3117 Y5.425 Z-3.
(Line Move)
X-36.0705 Y2.7772 Z-3.
(Line Move)
X-36.3123 Y.5286 Z-3.
(Line Move)
X-36.1615 Y-1.9364 Z-3.
(Line Move)
X-35.6516 Y-4.4066 Z-3.
(Line Move)
X-34.8894 Y-6.4419 Z-3.
(Line Move)
X-33.4974 Y-8.9277 Z-3.
(Line Move)
X-32.0854 Y-10.915 Z-3.
(Line Move)
X-26.7851 Y-15.8267 Z-3.
(Line Move)
X-23.3166 Y-17.9499 Z-3.
(Line Move)
X-18.4999 Y-20.2676 Z-3.
(Line Move)
X-15.1753 Y-21.5086 Z-3.
(Line Move)
X-11.0755 Y-22.6064 Z-3.
(Line Move)
X-6.5156 Y-23.4505 Z-3.
(Line Move)
X-6.0651 Y-23.4758 Z-3.
(Line Move)
X-5.9459 Y-23.5465 Z-3.
(Line Move)
X-5.9378 Y-23.7157 Z-3.
(Line Move)
X-6.2758 Y-24.721 Z-3.
(Line Move)
X-6.2677 Y-24.8903 Z-3.
(Line Move)
X-6.1485 Y-24.961 Z-3.
(Line Move)
X-1.2343 Y-25.2367 Z-3.
(Line Move)
X3.6862 Y-25.1062 Z-3.
(Line Move)
X8.9798 Y-24.5461 Z-3.
(Line Move)
X14.0993 Y-23.4659 Z-3.
(Line Move)
X18.8338 Y-21.9056 Z-3.
(Line Move)
X22.1455 Y-20.3416 Z-3.
(Line Move)
X25.9581 Y-18.2165 Z-3.
(Line Move)
X29.3728 Y-15.6195 Z-3.
(Line Move)
X32.3397 Y-12.9217 Z-3.
(Line Move)
X34.4982 Y-10.136 Z-3.
(Line Move)
X36.6038 Y-6.1527 Z-3.
(Line Move)
X37.5124 Y-3.1222 Z-3.
(Line Move)
X37.8434 Y.1371 Z-3.
(Line Move)
X37.5173 Y2.9836 Z-3.
(Line Move)
X36.8522 Y5.5907 Z-3.
(Line Move)
X36.0338 Y7.5242 Z-3.
(Line Move)
X34.9029 Y9.5756 Z-3.
(Line Move)
X33.7096 Y11.245 Z-3.
(Line Move)
X31.5348 Y13.6934 Z-3.
(Line Move)
X27.5148 Y17.1572 Z-3.
(Line Move)
X23.1793 Y19.7721 Z-3.
(Line Move)
X20.2583 Y21.1807 Z-3.
(Line Move)
X17.0002 Y22.4445 Z-3.
(Line Move)
X13.324 Y23.6053 Z-3.
(Line Move)
X9.4471 Y24.5265 Z-3.
(Line Move)
X4.206 Y25.0733 Z-3.
(Line Move)
X-.296 Y25.2594 Z-3.
(Line Move)
X-5.9166 Y24.9752 Z-3.
(Line Move)
X-11.166 Y24.069 Z-3.
(Line Move)
X-15.6067 Y23.0121 Z-3.
(Line Move)
X-19.5071 Y21.5505 Z-3.
(Line Move)
X-23.5033 Y19.7032 Z-3.
(Line Move)
X-26.7478 Y17.7437 Z-3.
(Line Move)
X-29.0701 Y16.0284 Z-3.
(Line Move)
X-31.9128 Y13.3581 Z-3.
(Line Move)
X-33.4389 Y11.5811 Z-3.
(Line Move)
X-35.3399 Y8.8679 Z-3.
(Line Move)
X-36.7089 Y5.9491 Z-3.
(Line Move)
X-37.5358 Y3.0637 Z-3.
(Line Move)
X-37.8047 Y.5629 Z-3.
(Line Move)
X-37.6397 Y-2.1331 Z-3.
(Line Move)
X-37.0851 Y-4.8203 Z-3.
(Line Move)
X-36.2427 Y-7.0698 Z-3.
(Line Move)
X-34.7563 Y-9.7241 Z-3.
(Line Move)
X-33.2091 Y-11.9017 Z-3.
(Line Move)
X-27.6877 Y-17.0182 Z-3.
(Line Move)
X-23.383 Y-19.6623 Z-3.
(Line Move)
X-19.6902 Y-21.411 Z-3.
(Line Move)
X-15.6288 Y-22.927 Z-3.
(Line Move)
X-11.4038 Y-24.0584 Z-3.
(Line Move)
X-6.6933 Y-24.9304 Z-3.
(Line Move)
X-6.1485 Y-24.961 Z-3.
(Line Move)
X-6.03 Y-25.0317 Z-3.
(Line Move)
X-6.0239 Y-25.2009 Z-3.
(Line Move)
X-6.1992 Y-25.704 Z-3.
(Line Move)
X-6.3745 Y-26.2083 Z-3.
(Line Move)
X-6.3686 Y-26.3789 Z-3.
(Line Move)
X-6.2502 Y-26.4516 Z-3.
(Line Move)
X-2.0697 Y-26.7369 Z-3.
(Line Move)
X2.9845 Y-26.6609 Z-3.
(Line Move)
X8.4226 Y-26.1839 Z-3.
(Line Move)
X14.4869 Y-24.9044 Z-3.
(Line Move)
X19.3863 Y-23.2897 Z-3.
(Line Move)
X22.826 Y-21.6653 Z-3.
(Line Move)
X26.7745 Y-19.4644 Z-3.
(Line Move)
X30.3252 Y-16.764 Z-3.
(Line Move)
X33.4362 Y-13.9352 Z-3.
(Line Move)
X35.753 Y-10.9452 Z-3.
(Line Move)
X37.9868 Y-6.7193 Z-3.
(Line Move)
X38.978 Y-3.4136 Z-3.
(Line Move)
X39.3395 Y.1467 Z-3.
(Line Move)
X38.9836 Y3.2534 Z-3.
(Line Move)
X38.2658 Y6.0672 Z-3.
(Line Move)
X37.3736 Y8.1749 Z-3.
(Line Move)
X36.1636 Y10.3699 Z-3.
(Line Move)
X34.874 Y12.174 Z-3.
(Line Move)
X32.5809 Y14.7555 Z-3.
(Line Move)
X28.3961 Y18.3614 Z-3.
(Line Move)
X24.4983 Y20.7721 Z-3.
(Line Move)
X21.4571 Y22.3026 Z-3.
(Line Move)
X18.1421 Y23.6317 Z-3.
(Line Move)
X14.4091 Y24.8763 Z-3.
(Line Move)
X9.7053 Y25.9941 Z-3.
(Line Move)
X5.1165 Y26.5244 Z-3.
(Line Move)
X-.2892 Y26.7479 Z-3.
(Line Move)
X-5.2597 Y26.5878 Z-3.
(Line Move)
X-10.6747 Y25.715 Z-3.
(Line Move)
X-16.0415 Y24.4377 Z-3.
(Line Move)
X-20.081 Y22.924 Z-3.
(Line Move)
X-24.202 Y21.019 Z-3.
(Line Move)
X-27.576 Y18.9813 Z-3.
(Line Move)
X-30.0246 Y17.1727 Z-3.
(Line Move)
X-32.9893 Y14.3877 Z-3.
(Line Move)
X-34.6151 Y12.4947 Z-3.
(Line Move)
X-36.632 Y9.6161 Z-3.
(Line Move)
X-38.1061 Y6.4731 Z-3.
(Line Move)
X-39.0011 Y3.3503 Z-3.
(Line Move)
X-39.2971 Y.5972 Z-3.
(Line Move)
X-39.118 Y-2.3299 Z-3.
(Line Move)
X-38.5186 Y-5.2339 Z-3.
(Line Move)
X-37.5959 Y-7.6976 Z-3.
(Line Move)
X-36.0151 Y-10.5206 Z-3.
(Line Move)
X-34.3446 Y-12.8717 Z-3.
(Line Move)
X-31.7152 Y-15.4456 Z-3.
(Line Move)
X-28.5815 Y-18.2135 Z-3.
(Line Move)
X-24.5436 Y-20.7485 Z-3.
(Line Move)
X-20.8833 Y-22.5534 Z-3.
(Line Move)
X-16.0824 Y-24.3455 Z-3.
(Line Move)
X-11.7321 Y-25.5104 Z-3.
(Line Move)
X-6.88 Y-26.4086 Z-3.
(Line Move)
X-6.2502 Y-26.4516 Z-3.
(Line Move)
X-6.1329 Y-26.5238 Z-3.
(Line Move)
X-6.1296 Y-26.6932 Z-3.
(Line Move)
X-6.3133 Y-27.1948 Z-3.
(Line Move)
X-6.4972 Y-27.6979 Z-3.
(Line Move)
X-6.4941 Y-27.8693 Z-3.
(Line Move)
X-6.377 Y-27.9442 Z-3.
(Line Move)
X-2.9252 Y-28.2374 Z-3.
(Line Move)
X3.0608 Y-28.1475 Z-3.
(Line Move)
X8.642 Y-27.6579 Z-3.
(Line Move)
X14.8744 Y-26.3429 Z-3.
(Line Move)
X19.9388 Y-24.6738 Z-3.
(Line Move)
X23.5065 Y-22.989 Z-3.
(Line Move)
X27.591 Y-20.7123 Z-3.
(Line Move)
X31.2777 Y-17.9085 Z-3.
(Line Move)
X34.5327 Y-14.9486 Z-3.
(Line Move)
X37.0078 Y-11.7544 Z-3.
(Line Move)
X39.3699 Y-7.2858 Z-3.
(Line Move)
X40.4436 Y-3.7049 Z-3.
(Line Move)
X40.8344 Y.1441 Z-3.
(Line Move)
X40.5366 Y3.1834 Z-3.
(Line Move)
X39.6794 Y6.5437 Z-3.
(Line Move)
X38.7135 Y8.8257 Z-3.
(Line Move)
X37.4243 Y11.1642 Z-3.
(Line Move)
X36.0384 Y13.103 Z-3.
(Line Move)
X33.2459 Y16.2468 Z-3.
(Line Move)
X29.2731 Y19.567 Z-3.
(Line Move)
X25.6344 Y21.8567 Z-3.
(Line Move)
X22.6505 Y23.4169 Z-3.
(Line Move)
X19.2885 Y24.8175 Z-3.
(Line Move)
X14.8171 Y26.3083 Z-3.
(Line Move)
X9.9727 Y27.4594 Z-3.
(Line Move)
X6.0372 Y27.9646 Z-3.
(Line Move)
X.5056 Y28.2618 Z-3.
(Line Move)
X-5.3928 Y28.0718 Z-3.
(Line Move)
X-10.1491 Y27.3692 Z-3.
(Line Move)
X-16.4764 Y25.8632 Z-3.
(Line Move)
X-20.6549 Y24.2975 Z-3.
(Line Move)
X-24.9007 Y22.3347 Z-3.
(Line Move)
X-28.4042 Y20.2188 Z-3.
(Line Move)
X-30.979 Y18.317 Z-3.
(Line Move)
X-34.0658 Y15.4173 Z-3.
(Line Move)
X-35.7913 Y13.4083 Z-3.
(Line Move)
X-37.9241 Y10.3642 Z-3.
(Line Move)
X-39.5033 Y6.9972 Z-3.
(Line Move)
X-40.4663 Y3.6368 Z-3.
(Line Move)
X-40.7895 Y.6315 Z-3.
(Line Move)
X-40.5547 Y-3.2051 Z-3.
(Line Move)
X-39.9416 Y-5.6754 Z-3.
(Line Move)
X-38.9492 Y-8.3255 Z-3.
(Line Move)
X-37.274 Y-11.317 Z-3.
(Line Move)
X-35.4927 Y-13.824 Z-3.
(Line Move)
X-33.7402 Y-15.6416 Z-3.
(Line Move)
X-29.4815 Y-19.4032 Z-3.
(Line Move)
X-25.7713 Y-21.7909 Z-3.
(Line Move)
X-22.0706 Y-23.687 Z-3.
(Line Move)
X-17.202 Y-25.5855 Z-3.
(Line Move)
X-12.0604 Y-26.9625 Z-3.
(Line Move)
X-7.0788 Y-27.8846 Z-3.
(Line Move)
X-6.377 Y-27.9442 Z-3.
(Line Move)
X-6.2611 Y-28.0184 Z-3.
(Line Move)
X-6.2614 Y-28.1881 Z-3.
(Line Move)
X-6.4557 Y-28.6872 Z-3.
(Line Move)
X-6.6502 Y-29.1883 Z-3.
(Line Move)
X-6.6507 Y-29.3604 Z-3.
(Line Move)
X-6.5352 Y-29.438 Z-3.
(Line Move)
X-3.7935 Y-29.7283 Z-3.
(Line Move)
X2.3351 Y-29.7043 Z-3.
(Line Move)
X8.8613 Y-29.1318 Z-3.
(Line Move)
X15.2619 Y-27.7814 Z-3.
(Line Move)
X20.4913 Y-26.0579 Z-3.
(Line Move)
X24.187 Y-24.3126 Z-3.
(Line Move)
X28.3916 Y-21.969 Z-3.
(Line Move)
X31.4762 Y-19.7384 Z-3.
(Line Move)
X35.6292 Y-15.9621 Z-3.
(Line Move)
X38.2627 Y-12.5635 Z-3.
(Line Move)
X40.753 Y-7.8524 Z-3.
(Line Move)
X41.9091 Y-3.9963 Z-3.
(Line Move)
X42.3293 Y.1415 Z-3.
(Line Move)
X42.006 Y3.4413 Z-3.
(Line Move)
X41.093 Y7.0201 Z-3.
(Line Move)
X40.0533 Y9.4764 Z-3.
(Line Move)
X38.685 Y11.9585 Z-3.
(Line Move)
X37.2028 Y14.0321 Z-3.
(Line Move)
X34.1223 Y17.4999 Z-3.
(Line Move)
X32.0742 Y19.2551 Z-3.
(Line Move)
X29.3192 Y21.3165 Z-3.
(Line Move)
X26.8737 Y22.8764 Z-3.
(Line Move)
X23.8374 Y24.5225 Z-3.
(Line Move)
X20.439 Y26.002 Z-3.
(Line Move)
X15.2251 Y27.7403 Z-3.
(Line Move)
X10.2534 Y28.9217 Z-3.
(Line Move)
X6.9732 Y29.404 Z-3.
(Line Move)
X.5216 Y29.7505 Z-3.
(Line Move)
X-5.5258 Y29.5558 Z-3.
(Line Move)
X-10.4153 Y28.8335 Z-3.
(Line Move)
X-14.1197 Y28.0322 Z-3.
(Line Move)
X-16.9304 Y27.2817 Z-3.
(Line Move)
X-21.2287 Y25.6709 Z-3.
(Line Move)
X-25.5994 Y23.6505 Z-3.
(Line Move)
X-29.2323 Y21.4564 Z-3.
(Line Move)
X-31.9334 Y19.4613 Z-3.
(Line Move)
X-35.1423 Y16.4469 Z-3.
(Line Move)
X-36.9675 Y14.3218 Z-3.
(Line Move)
X-39.2162 Y11.1124 Z-3.
(Line Move)
X-40.9005 Y7.5212 Z-3.
(Line Move)
X-41.9316 Y3.9233 Z-3.
(Line Move)
X-42.2818 Y.6659 Z-3.
(Line Move)
X-42.0311 Y-3.4316 Z-3.
(Line Move)
X-41.3647 Y-6.1169 Z-3.
(Line Move)
X-40.3024 Y-8.9533 Z-3.
(Line Move)
X-38.5328 Y-12.1135 Z-3.
(Line Move)
X-36.6408 Y-14.7763 Z-3.
(Line Move)
X-34.0756 Y-17.4368 Z-3.
(Line Move)
X-30.3773 Y-20.5942 Z-3.
(Line Move)
X-26.9917 Y-22.8271 Z-3.
(Line Move)
X-23.2526 Y-24.8123 Z-3.
(Line Move)
X-18.3207 Y-26.8165 Z-3.
(Line Move)
X-13.0921 Y-28.2842 Z-3.
(Line Move)
X-7.2928 Y-29.3578 Z-3.
(Line Move)
X-6.5352 Y-29.438 Z-3.
(Line Move)
X-6.419 Y-29.5144 Z-3.
(Line Move)
X-6.4178 Y-29.6836 Z-3.
(Line Move)
X-6.607 Y-30.1763 Z-3.
(Line Move)
X-6.7962 Y-30.6682 Z-3.
(Line Move)
X-6.7949 Y-30.8364 Z-3.
(Line Move)
X-6.6785 Y-30.9115 Z-3.
(Line Move)
X-3.5255 Y-31.2183 Z-3.
(Line Move)
X2.0535 Y-31.2675 Z-3.
(Line Move)
X9.0806 Y-30.6058 Z-3.
(Line Move)
X15.6494 Y-29.2199 Z-3.
(Line Move)
X20.886 Y-27.4941 Z-3.
(Line Move)
X24.0417 Y-26.0966 Z-3.
(Line Move)
X29.1923 Y-23.2257 Z-3.
(Line Move)
X33.3429 Y-20.2243 Z-3.
(Line Move)
X36.7394 Y-16.9579 Z-3.
(Line Move)
X39.3299 Y-13.661 Z-3.
(Line Move)
X40.7031 Y-11.4746 Z-3.
(Line Move)
X42.4293 Y-7.783 Z-3.
(Line Move)
X43.3768 Y-4.2667 Z-3.
(Line Move)
X43.8242 Y.1388 Z-3.
(Line Move)
X43.5195 Y3.2485 Z-3.
(Line Move)
X43.2296 Y4.6623 Z-3.
(Line Move)
X42.5406 Y7.3631 Z-3.
(Line Move)
X42.0657 Y8.6018 Z-3.
(Line Move)
X41.3931 Y10.1271 Z-3.
(Line Move)
X39.9457 Y12.7527 Z-3.
(Line Move)
X38.3671 Y14.9611 Z-3.
(Line Move)
X35.1672 Y18.5635 Z-3.
(Line Move)
X31.5098 Y21.6453 Z-3.
(Line Move)
X28.1131 Y23.8863 Z-3.
(Line Move)
X25.0763 Y25.5924 Z-3.
(Line Move)
X21.6517 Y27.1543 Z-3.
(Line Move)
X15.876 Y29.1696 Z-3.
(Line Move)
X10.5341 Y30.3839 Z-3.
(Line Move)
X6.974 Y30.8948 Z-3.
(Line Move)
X1.2895 Y31.2769 Z-3.
(Line Move)
X-5.6589 Y31.0398 Z-3.
(Line Move)
X-12.3028 Y30.0569 Z-3.
(Line Move)
X-17.3843 Y28.7001 Z-3.
(Line Move)
X-21.8026 Y27.0444 Z-3.
(Line Move)
X-26.2981 Y24.9662 Z-3.
(Line Move)
X-28.1793 Y23.8301 Z-3.
(Line Move)
X-30.6303 Y22.2731 Z-3.
(Line Move)
X-32.8878 Y20.6056 Z-3.
(Line Move)
X-36.2188 Y17.4765 Z-3.
(Line Move)
X-38.1437 Y15.2354 Z-3.
(Line Move)
X-40.5082 Y11.8606 Z-3.
(Line Move)
X-41.9059 Y8.8807 Z-3.
(Line Move)
X-42.4246 Y7.6025 Z-3.
(Line Move)
X-43.3969 Y4.2098 Z-3.
(Line Move)
X-43.7742 Y.7002 Z-3.
(Line Move)
X-43.6911 Y-2.2481 Z-3.
(Line Move)
X-43.4477 Y-4.1181 Z-3.
(Line Move)
X-42.7878 Y-6.5583 Z-3.
(Line Move)
X-41.6557 Y-9.5812 Z-3.
(Line Move)
X-39.7096 Y-13.1365 Z-3.
(Line Move)
X-38.5293 Y-14.8426 Z-3.
(Line Move)
X-37.0221 Y-16.6422 Z-3.
(Line Move)
X-34.5215 Y-19.1202 Z-3.
(Line Move)
X-32.7408 Y-20.5941 Z-3.
(Line Move)
X-30.4751 Y-22.3797 Z-3.
(Line Move)
X-28.2055 Y-23.8561 Z-3.
(Line Move)
X-24.438 Y-25.9362 Z-3.
(Line Move)
X-18.8033 Y-28.2261 Z-3.
(Line Move)
X-12.7205 Y-29.9335 Z-3.
(Line Move)
X-7.5068 Y-30.8309 Z-3.
(Line Move)
X-6.6785 Y-30.9115 Z-3.
(Line Move)
X-2.8397 Y.446 Z-3.
(Line Move)
X-4.7699 Y.0857 Z-3.0686 F300.
(Line Move)
X-4.8317 Y.0022 Z-3.0726
(Line Move)
X-4.3979 Y-.1432 Z-3.0892
(Line Move)
X.6851 Y-.3061 Z-3.2668
(Line Move)
X3.6609 Y-.234 Z-3.3708
(Line Move)
X4.9999 Y-.119 Z-3.4177
(Line Move)
X5.1037 Y.0189 Z-3.4245
(Line Move)
X5.0102 Y.1105 Z-3.4293
(Line Move)
X2.3711 Y.5787 Z-3.5229
(Line Move)
X-1.9873 Y.605 Z-3.6751
(Line Move)
X-4.7699 Y.0857 Z-3.774
(Line Move)
X-4.8317 Y.0022 Z-3.7779
(Line Move)
X-4.3979 Y-.1432 Z-3.7946
(Line Move)
X.6851 Y-.3061 Z-3.9722
(Line Move)
X3.6609 Y-.234 Z-4.0761
(Line Move)
X4.9999 Y-.119 Z-4.1231
(Line Move)
X5.1037 Y.0189 Z-4.1299
(Line Move)
X5.0102 Y.1105 Z-4.1347
(Line Move)
X2.3711 Y.5787 Z-4.2283
(Line Move)
X-1.9873 Y.605 Z-4.3805
(Line Move)
X-4.7699 Y.0857 Z-4.4794
(Line Move)
X-4.8317 Y.0022 Z-4.4833
(Line Move)
X-4.3979 Y-.1432 Z-4.5
(Line Move)
X.6851 Y-.3061 Z-4.5 F750.
(Line Move)
X3.6609 Y-.234 Z-4.5
(Line Move)
X4.9999 Y-.119 Z-4.5
(Line Move)
X5.0271 Y-.1133 Z-4.5
(Line Move)
X5.0521 Y-.1014 Z-4.5
(Line Move)
X5.0736 Y-.0838 Z-4.5
(Line Move)
X5.0902 Y-.0616 Z-4.5
(Line Move)
X5.1012 Y-.0361 Z-4.5
(Line Move)
X5.1057 Y-.0088 Z-4.5
(Line Move)
X5.1037 Y.0189 Z-4.5
(Line Move)
X5.0951 Y.0453 Z-4.5
(Line Move)
X5.0804 Y.0689 Z-4.5
(Line Move)
X5.0606 Y.0883 Z-4.5
(Line Move)
X5.0368 Y.1024 Z-4.5
(Line Move)
X5.0102 Y.1105 Z-4.5
(Line Move)
X2.3711 Y.5787 Z-4.5
(Line Move)
X-1.9873 Y.605 Z-4.5
(Line Move)
X-4.7699 Y.0857 Z-4.5
(Line Move)
X-4.788 Y.0799 Z-4.5
(Line Move)
X-4.8041 Y.0699 Z-4.5
(Line Move)
X-4.8172 Y.0561 Z-4.5
(Line Move)
X-4.8265 Y.0396 Z-4.5
(Line Move)
X-4.8315 Y.0212 Z-4.5
(Line Move)
X-4.8317 Y.0022 Z-4.5
(Line Move)
X-4.8272 Y-.0162 Z-4.5
(Line Move)
X-4.8183 Y-.033 Z-4.5
(Line Move)
X-4.8056 Y-.0471 Z-4.5
(Line Move)
X-4.7897 Y-.0576 Z-4.5
(Line Move)
X-4.7808 Y-.0607 Z-4.5
(Line Move)
X-4.7718 Y-.0638 Z-4.5
(Line Move)
X-4.3979 Y-.1432 Z-4.5
(Line Move)
X-4.2829 Y-.2784 Z-4.5
(Line Move)
X-4.6571 Y-.6866 Z-4.5
(Line Move)
X-4.542 Y-.8218 Z-4.5
(Line Move)
X-4.4817 Y-.8346 Z-4.5
(Line Move)
X1.9357 Y-1.0402 Z-4.5
(Line Move)
X5.6989 Y-.8058 Z-4.5
(Line Move)
X7.6045 Y-.3074 Z-4.5
(Line Move)
X7.6636 Y-.2841 Z-4.5
(Line Move)
X7.7156 Y-.2476 Z-4.5
(Line Move)
X7.7574 Y-.1997 Z-4.5
(Line Move)
X7.7868 Y-.1434 Z-4.5
(Line Move)
X7.802 Y-.0817 Z-4.5
(Line Move)
X7.8023 Y-.0181 Z-4.5
(Line Move)
X7.7875 Y.0437 Z-4.5
(Line Move)
X7.7586 Y.1003 Z-4.5
(Line Move)
X7.7171 Y.1484 Z-4.5
(Line Move)
X7.6654 Y.1854 Z-4.5
(Line Move)
X7.6064 Y.2091 Z-4.5
(Line Move)
X5.4539 Y.7895 Z-4.5
(Line Move)
X2.4282 Y1.2722 Z-4.5
(Line Move)
X-2.0494 Y1.2992 Z-4.5
(Line Move)
X-7.7648 Y.2325 Z-4.5
(Line Move)
X-7.8095 Y.2182 Z-4.5
(Line Move)
X-7.8492 Y.1934 Z-4.5
(Line Move)
X-7.8816 Y.1595 Z-4.5
(Line Move)
X-7.9046 Y.1186 Z-4.5
(Line Move)
X-7.9167 Y.0733 Z-4.5
(Line Move)
X-7.9173 Y.0264 Z-4.5
(Line Move)
X-7.9063 Y-.0191 Z-4.5
(Line Move)
X-7.8843 Y-.0605 Z-4.5
(Line Move)
X-7.8528 Y-.0953 Z-4.5
(Line Move)
X-7.8137 Y-.1211 Z-4.5
(Line Move)
X-7.7694 Y-.1365 Z-4.5
(Line Move)
X-4.542 Y-.8218 Z-4.5
(Line Move)
X-4.427 Y-.957 Z-4.5
(Line Move)
X-4.8012 Y-1.3652 Z-4.5
(Line Move)
X-4.6861 Y-1.5004 Z-4.5
(Line Move)
X-4.1798 Y-1.6079 Z-4.5
(Line Move)
X1.9502 Y-1.7344 Z-4.5
(Line Move)
X5.7957 Y-1.4949 Z-4.5
(Line Move)
X7.7975 Y-1.0536 Z-4.5
(Line Move)
X10.0392 Y-.2854 Z-4.5
(Line Move)
X10.0924 Y-.2592 Z-4.5
(Line Move)
X10.1371 Y-.2202 Z-4.5
(Line Move)
X10.1705 Y-.1712 Z-4.5
(Line Move)
X10.1902 Y-.1153 Z-4.5
(Line Move)
X10.1951 Y-.0561 Z-4.5
(Line Move)
X10.1848 Y.0023 Z-4.5
(Line Move)
X10.16 Y.0561 Z-4.5
(Line Move)
X10.1223 Y.1019 Z-4.5
(Line Move)
X10.0741 Y.1366 Z-4.5
(Line Move)
X9.6097 Y.3874 Z-4.5
(Line Move)
X5.5992 Y1.4689 Z-4.5
(Line Move)
X2.4852 Y1.9656 Z-4.5
(Line Move)
X-2.1086 Y1.9933 Z-4.5
(Line Move)
X-8.5339 Y.8499 Z-4.5
(Line Move)
X-10.1315 Y.2905 Z-4.5
(Line Move)
X-10.1902 Y.2616 Z-4.5
(Line Move)
X-10.2403 Y.2193 Z-4.5
(Line Move)
X-10.2788 Y.1663 Z-4.5
(Line Move)
X-10.3034 Y.1056 Z-4.5
(Line Move)
X-10.3127 Y.0407 Z-4.5
(Line Move)
X-10.3062 Y-.0245 Z-4.5
(Line Move)
X-10.2842 Y-.0862 Z-4.5
(Line Move)
X-10.248 Y-.1408 Z-4.5
(Line Move)
X-10.1997 Y-.1852 Z-4.5
(Line Move)
X-10.1423 Y-.2166 Z-4.5
(Line Move)
X-9.47 Y-.4846 Z-4.5
(Line Move)
X-4.6861 Y-1.5004 Z-4.5
(Line Move)
X-4.5869 Y-1.7104 Z-4.5
(Line Move)
X-5.0309 Y-2.4472 Z-4.5
(Line Move)
X-4.9317 Y-2.6571 Z-4.5
(Line Move)
X-4.316 Y-2.7878 Z-4.5
(Line Move)
X2.9664 Y-2.9381 Z-4.5
(Line Move)
X5.977 Y-2.6658 Z-4.5
(Line Move)
X8.0686 Y-2.2081 Z-4.5
(Line Move)
X10.5003 Y-1.4376 Z-4.5
(Line Move)
X12.2674 Y-.611 Z-4.5
(Line Move)
X12.3711 Y-.546 Z-4.5
(Line Move)
X12.4559 Y-.4577 Z-4.5
(Line Move)
X12.5167 Y-.3515 Z-4.5
(Line Move)
X12.5498 Y-.2336 Z-4.5
(Line Move)
X12.5533 Y-.1113 Z-4.5
(Line Move)
X12.527 Y.0083 Z-4.5
(Line Move)
X12.4725 Y.1178 Z-4.5
(Line Move)
X12.3929 Y.2109 Z-4.5
(Line Move)
X12.2932 Y.2818 Z-4.5
(Line Move)
X10.0565 Y1.49 Z-4.5
(Line Move)
X6.2523 Y2.5621 Z-4.5
(Line Move)
X2.6236 Y3.1409 Z-4.5
(Line Move)
X-1.7038 Y3.1733 Z-4.5
(Line Move)
X-6.4693 Y2.5168 Z-4.5
(Line Move)
X-8.858 Y1.9893 Z-4.5
(Line Move)
X-11.2802 Y1.1412 Z-4.5
(Line Move)
X-12.6341 Y.452 Z-4.5
(Line Move)
X-12.7345 Y.3844 Z-4.5
(Line Move)
X-12.8158 Y.2946 Z-4.5
(Line Move)
X-12.8731 Y.1879 Z-4.5
(Line Move)
X-12.9031 Y.0706 Z-4.5
(Line Move)
X-12.904 Y-.0505 Z-4.5
(Line Move)
X-12.8758 Y-.1682 Z-4.5
(Line Move)
X-12.8201 Y-.2757 Z-4.5
(Line Move)
X-12.7401 Y-.3667 Z-4.5
(Line Move)
X-12.6407 Y-.4358 Z-4.5
(Line Move)
X-11.6094 Y-.9802 Z-4.5
(Line Move)
X-9.7919 Y-1.625 Z-4.5
(Line Move)
X-4.9317 Y-2.6571 Z-4.5
(Line Move)
X-4.8267 Y-2.8396 Z-4.5
(Line Move)
X-5.2451 Y-3.4558 Z-4.5
(Line Move)
X-5.1401 Y-3.6383 Z-4.5
(Line Move)
X-4.4371 Y-3.7876 Z-4.5
(Line Move)
X2.3303 Y-4.0029 Z-4.5
(Line Move)
X6.13 Y-3.6592 Z-4.5
(Line Move)
X8.2576 Y-3.2005 Z-4.5
(Line Move)
X11.0307 Y-2.3219 Z-4.5
(Line Move)
X13.6934 Y-1.0498 Z-4.5
(Line Move)
X14.4362 Y-.5841 Z-4.5
(Line Move)
X14.5364 Y-.5013 Z-4.5
(Line Move)
X14.6119 Y-.3955 Z-4.5
(Line Move)
X14.6576 Y-.2737 Z-4.5
(Line Move)
X14.6703 Y-.1443 Z-4.5
(Line Move)
X14.6492 Y-.016 Z-4.5
(Line Move)
X14.5958 Y.1025 Z-4.5
(Line Move)
X14.5136 Y.2033 Z-4.5
(Line Move)
X14.4082 Y.2794 Z-4.5
(Line Move)
X10.4403 Y2.4228 Z-4.5
(Line Move)
X6.8064 Y3.4895 Z-4.5
(Line Move)
X2.665 Y4.1501 Z-4.5
(Line Move)
X-2.2697 Y4.1799 Z-4.5
(Line Move)
X-7.6031 Y3.3568 Z-4.5
(Line Move)
X-10.1566 Y2.6848 Z-4.5
(Line Move)
X-12.6571 Y1.6616 Z-4.5
(Line Move)
X-14.7823 Y.4253 Z-4.5
(Line Move)
X-14.8766 Y.3544 Z-4.5
(Line Move)
X-14.9516 Y.2633 Z-4.5
(Line Move)
X-15.0032 Y.1572 Z-4.5
(Line Move)
X-15.0285 Y.0419 Z-4.5
(Line Move)
X-15.0261 Y-.0761 Z-4.5
(Line Move)
X-14.9961 Y-.1902 Z-4.5
(Line Move)
X-14.9402 Y-.2941 Z-4.5
(Line Move)
X-14.8614 Y-.382 Z-4.5
(Line Move)
X-14.7643 Y-.4491 Z-4.5
(Line Move)
X-12.0134 Y-1.9012 Z-4.5
(Line Move)
X-10.065 Y-2.5926 Z-4.5
(Line Move)
X-5.1401 Y-3.6383 Z-4.5
(Line Move)
X-5.025 Y-3.7736 Z-4.5
(Line Move)
X-5.3992 Y-4.1817 Z-4.5
(Line Move)
X-5.2842 Y-4.317 Z-4.5
(Line Move)
X-4.5239 Y-4.4784 Z-4.5
(Line Move)
X1.8903 Y-4.7393 Z-4.5
(Line Move)
X6.2347 Y-4.3463 Z-4.5
(Line Move)
X8.4358 Y-3.8717 Z-4.5
(Line Move)
X11.3951 Y-2.9341 Z-4.5
(Line Move)
X14.2952 Y-1.5292 Z-4.5
(Line Move)
X15.7998 Y-.54 Z-4.5
(Line Move)
X15.8952 Y-.4585 Z-4.5
(Line Move)
X15.9673 Y-.3558 Z-4.5
(Line Move)
X16.0115 Y-.2384 Z-4.5
(Line Move)
X16.0251 Y-.1137 Z-4.5
(Line Move)
X16.0072 Y.0105 Z-4.5
(Line Move)
X15.959 Y.1263 Z-4.5
(Line Move)
X15.8835 Y.2265 Z-4.5
(Line Move)
X15.7854 Y.3047 Z-4.5
(Line Move)
X14.0499 Y1.3628 Z-4.5
(Line Move)
X10.7003 Y3.069 Z-4.5
(Line Move)
X7.1896 Y4.1309 Z-4.5
(Line Move)
X2.7765 Y4.8412 Z-4.5
(Line Move)
X-2.3208 Y4.874 Z-4.5
(Line Move)
X-8.3001 Y3.9512 Z-4.5
(Line Move)
X-10.3861 Y3.3405 Z-4.5
(Line Move)
X-12.9558 Y2.2889 Z-4.5
(Line Move)
X-15.578 Y.8549 Z-4.5
(Line Move)
X-15.9885 Y.4407 Z-4.5
(Line Move)
X-16.0672 Y.3372 Z-4.5
(Line Move)
X-16.1166 Y.2169 Z-4.5
(Line Move)
X-16.1333 Y.088 Z-4.5
(Line Move)
X-16.1162 Y-.0409 Z-4.5
(Line Move)
X-16.0664 Y-.161 Z-4.5
(Line Move)
X-15.9874 Y-.2642 Z-4.5
(Line Move)
X-15.3088 Y-.9449 Z-4.5
(Line Move)
X-12.5027 Y-2.4637 Z-4.5
(Line Move)
X-10.2539 Y-3.2617 Z-4.5
(Line Move)
X-5.2842 Y-4.317 Z-4.5
(Line Move)
X-5.1789 Y-4.4983 Z-4.5
(Line Move)
X-5.5961 Y-5.1091 Z-4.5
(Line Move)
X-5.4909 Y-5.2904 Z-4.5
(Line Move)
X-4.6555 Y-5.4677 Z-4.5
(Line Move)
X1.2593 Y-5.7955 Z-4.5
(Line Move)
X6.3809 Y-5.3322 Z-4.5
(Line Move)
X8.5165 Y-4.89 Z-4.5
(Line Move)
X11.7643 Y-3.861 Z-4.5
(Line Move)
X15.04 Y-2.274 Z-4.5
(Line Move)
X16.8775 Y-1.1066 Z-4.5
(Line Move)
X17.6094 Y-.3595 Z-4.5
(Line Move)
X17.6866 Y-.2572 Z-4.5
(Line Move)
X17.7352 Y-.1387 Z-4.5
(Line Move)
X17.7522 Y-.0118 Z-4.5
(Line Move)
X17.7363 Y.1154 Z-4.5
(Line Move)
X17.6887 Y.2343 Z-4.5
(Line Move)
X17.6124 Y.3372 Z-4.5
(Line Move)
X17.5125 Y.4173 Z-4.5
(Line Move)
X13.7859 Y2.6891 Z-4.5
(Line Move)
X11.0658 Y3.9974 Z-4.5
(Line Move)
X7.7304 Y5.0363 Z-4.5
(Line Move)
X5.3587 Y5.5192 Z-4.5
(Line Move)
X2.8618 Y5.8334 Z-4.5
(Line Move)
X.3172 Y5.9514 Z-4.5
(Line Move)
X-2.4022 Y5.867 Z-4.5
(Line Move)
X-6.8424 Y5.2752 Z-4.5
(Line Move)
X-9.1267 Y4.794 Z-4.5
(Line Move)
X-11.3299 Y4.081 Z-4.5
(Line Move)
X-14.0371 Y2.9039 Z-4.5
(Line Move)
X-16.1924 Y1.6487 Z-4.5
(Line Move)
X-17.3914 Y.4385 Z-4.5
(Line Move)
X-17.4701 Y.335 Z-4.5
(Line Move)
X-17.5195 Y.2147 Z-4.5
(Line Move)
X-17.5362 Y.0858 Z-4.5
(Line Move)
X-17.5191 Y-.0431 Z-4.5
(Line Move)
X-17.4693 Y-.1632 Z-4.5
(Line Move)
X-17.3903 Y-.2665 Z-4.5
(Line Move)
X-15.9107 Y-1.7506 Z-4.5
(Line Move)
X-12.9084 Y-3.3757 Z-4.5
(Line Move)
X-10.5248 Y-4.2214 Z-4.5
(Line Move)
X-5.4909 Y-5.2904 Z-4.5
(Line Move)
X-5.3838 Y-5.3784 Z-4.5
(Line Move)
X-5.4016 Y-5.5469 Z-4.5
(Line Move)
X-5.8891 Y-6.4889 Z-4.5
(Line Move)
X-5.9069 Y-6.6573 Z-4.5
(Line Move)
X-5.7999 Y-6.7454 Z-4.5
(Line Move)
X-4.6249 Y-6.9949 Z-4.5
(Line Move)
X.3486 Y-7.3199 Z-4.5
(Line Move)
X3.19 Y-7.2085 Z-4.5
(Line Move)
X6.0929 Y-6.898 Z-4.5
(Line Move)
X8.5138 Y-6.4513 Z-4.5
(Line Move)
X12.316 Y-5.2466 Z-4.5
(Line Move)
X15.7655 Y-3.5754 Z-4.5
(Line Move)
X17.8001 Y-2.2828 Z-4.5
(Line Move)
X18.9267 Y-1.2027 Z-4.5
(Line Move)
X19.5859 Y-.2826 Z-4.5
(Line Move)
X19.6462 Y-.1705 Z-4.5
(Line Move)
X19.6763 Y-.0469 Z-4.5
(Line Move)
X19.6743 Y.0804 Z-4.5
(Line Move)
X19.6401 Y.203 Z-4.5
(Line Move)
X19.5761 Y.313 Z-4.5
(Line Move)
X18.7435 Y1.3983 Z-4.5
(Line Move)
X16.332 Y2.9799 Z-4.5
(Line Move)
X13.8834 Y4.3353 Z-4.5
(Line Move)
X11.6095 Y5.3847 Z-4.5
(Line Move)
X8.5361 Y6.3849 Z-4.5
(Line Move)
X5.9156 Y6.9465 Z-4.5
(Line Move)
X3.1439 Y7.3094 Z-4.5
(Line Move)
X.3137 Y7.4407 Z-4.5
(Line Move)
X-2.4849 Y7.3527 Z-4.5
(Line Move)
X-7.6386 Y6.6697 Z-4.5
(Line Move)
X-10.1369 Y6.0855 Z-4.5
(Line Move)
X-12.5148 Y5.2378 Z-4.5
(Line Move)
X-14.7229 Y4.2258 Z-4.5
(Line Move)
X-17.1108 Y2.8352 Z-4.5
(Line Move)
X-19.4551 Y.469 Z-4.5
(Line Move)
X-19.5317 Y.3691 Z-4.5
(Line Move)
X-19.581 Y.2532 Z-4.5
(Line Move)
X-19.5998 Y.1287 Z-4.5
(Line Move)
X-19.5868 Y.0034 Z-4.5
(Line Move)
X-19.543 Y-.1146 Z-4.5
(Line Move)
X-19.4711 Y-.218 Z-4.5
(Line Move)
X-18.1963 Y-1.6304 Z-4.5
(Line Move)
X-16.8354 Y-2.9239 Z-4.5
(Line Move)
X-15.5776 Y-3.7389 Z-4.5
(Line Move)
X-13.4867 Y-4.7483 Z-4.5
(Line Move)
X-11.0567 Y-5.6292 Z-4.5
(Line Move)
X-5.7999 Y-6.7454 Z-4.5
(Line Move)
X-5.6889 Y-6.8248 Z-4.5
(Line Move)
X-5.6963 Y-6.9701 Z-4.5
(Line Move)
X-5.9085 Y-7.3697 Z-4.5
(Line Move)
X-6.12 Y-7.7658 Z-4.5
(Line Move)
X-6.1266 Y-7.9069 Z-4.5
(Line Move)
X-6.0145 Y-7.9803 Z-4.5
(Line Move)
X-3.3688 Y-8.4401 Z-4.5
(Line Move)
X-.6838 Y-8.6304 Z-4.5
(Line Move)
X2.3797 Y-8.5772 Z-4.5
(Line Move)
X5.5407 Y-8.2987 Z-4.5
(Line Move)
X8.1959 Y-7.8614 Z-4.5
(Line Move)
X10.3721 Y-7.3225 Z-4.5
(Line Move)
X12.4085 Y-6.6379 Z-4.5
(Line Move)
X16.3959 Y-4.7061 Z-4.5
(Line Move)
X18.6016 Y-3.3047 Z-4.5
(Line Move)
