(Start of Tape)

(Made in : UPC)
(G Code optimized for RS-CNC32 with GRBL V0.9j controller)

( PART NUMBER=1 )
( PART NAME=  )
( PROGRAMMER=  )
( OPERATION NUMBER=  )
( DATE=  )

G90 G17 G21 G80

(Init Tool Change)
(6MM CRB 4FL BM 9 LOC)
G53 G0 Z2 
G54
S0 M3
M9
G4 P1 
(Rapid From Tool Change)
G0 G90 X53.6252 Y-19.7513
(Rapid Z Down)
Z5.9832
(Feed Z Down)
G1 Z2.9832 F562.5
(Line Move)
X53.7078 Y-19.7541 Z2.2836
(Line Move)
X53.7905 Y-19.7569 Z2.0008
(Line Move)
X53.9558 Y-19.7624 Z1.6137
(Line Move)
X54.2864 Y-19.7736 Z1.1038
(Line Move)
X54.6171 Y-19.7847 Z.7539
(Line Move)
X54.9477 Y-19.7958 Z.4955
(Line Move)
X55.3311 Y-19.8206 Z.2759
(Line Move)
X55.7145 Y-19.8454 Z.124
(Line Move)
X56.0979 Y-19.8702 Z.0293
(Line Move)
X56.6206 Y-19.9084 Z-.0168
(Line Move)
X58.0089 Y-20.0416 Z-.0168 F750.
(Line Move)
X59.1885 Y-20.1879 Z-.0168
(Line Move)
X60.5987 Y-20.4016 Z-.0168
(Line Move)
X61.9877 Y-20.6545 Z-.0168
(Line Move)
X63.3547 Y-20.9456 Z-.0168
(Line Move)
X64.6987 Y-21.2744 Z-.0168
(Line Move)
X66.0187 Y-21.6403 Z-.0168
(Line Move)
X67.3138 Y-22.0426 Z-.0168
(Line Move)
X68.583 Y-22.481 Z-.0168
(Line Move)
X69.8252 Y-22.9551 Z-.0168
(Line Move)
X71.0393 Y-23.4644 Z-.0168
(Line Move)
X72.2241 Y-24.009 Z-.0168
(Line Move)
X73.1849 Y-24.4878 Z-.0168
(Line Move)
X74.1857 Y-25.0252 Z-.0168
(Line Move)
X75.152 Y-25.5849 Z-.0168
(Line Move)
X76.0831 Y-26.166 Z-.0168
(Line Move)
X76.9785 Y-26.7679 Z-.0168
(Line Move)
X77.8375 Y-27.3898 Z-.0168
(Line Move)
X78.6594 Y-28.0312 Z-.0168
(Line Move)
X79.4436 Y-28.6915 Z-.0168
(Line Move)
X79.9464 Y-29.1431 Z-.0168
(Line Move)
X80.5767 Y-29.7451 Z-.0168
(Line Move)
X81.1717 Y-30.3554 Z-.0168
(Line Move)
X81.7309 Y-30.9728 Z-.0168
(Line Move)
X82.2543 Y-31.5966 Z-.0168
(Line Move)
X82.742 Y-32.2261 Z-.0168
(Line Move)
X83.194 Y-32.8609 Z-.0168
(Line Move)
X83.6102 Y-33.5005 Z-.0168
(Line Move)
X83.8734 Y-33.9389 Z-.0168
(Line Move)
X84.1937 Y-34.5178 Z-.0168
(Line Move)
X84.4831 Y-35.0955 Z-.0168
(Line Move)
X84.7419 Y-35.6713 Z-.0168
(Line Move)
X84.9706 Y-36.2453 Z-.0168
(Line Move)
X85.1697 Y-36.8175 Z-.0168
(Line Move)
X85.3396 Y-37.3884 Z-.0168
(Line Move)
X85.5542 Y-38.3119 Z-.0168
(Line Move)
X85.6466 Y-38.8631 Z-.0168
(Line Move)
X85.7123 Y-39.4119 Z-.0168
(Line Move)
X85.7514 Y-39.9593 Z-.0168
(Line Move)
X85.7642 Y-40.5 Z-.0168
(Line Move)
X85.7502 Y-41.0644 Z-.0168
(Line Move)
X85.7084 Y-41.6274 Z-.0168
(Line Move)
X85.6387 Y-42.191 Z-.0168
(Line Move)
X85.5407 Y-42.7571 Z-.0168
(Line Move)
X85.4136 Y-43.3273 Z-.0168
(Line Move)
X85.2564 Y-43.9029 Z-.0168
(Line Move)
X85.0678 Y-44.4854 Z-.0168
(Line Move)
X84.8637 Y-45.0321 Z-.0168
(Line Move)
X84.5903 Y-45.674 Z-.0168
(Line Move)
X84.2785 Y-46.3191 Z-.0168
(Line Move)
X83.927 Y-46.9678 Z-.0168
(Line Move)
X83.5347 Y-47.6201 Z-.0168
(Line Move)
X83.1001 Y-48.2756 Z-.0168
(Line Move)
X82.6217 Y-48.9341 Z-.0168
(Line Move)
X82.2809 Y-49.3704 Z-.0168
(Line Move)
X81.6721 Y-50.0944 Z-.0168
(Line Move)
X81.0154 Y-50.8092 Z-.0168
(Line Move)
X80.3099 Y-51.5149 Z-.0168
(Line Move)
X79.5555 Y-52.2101 Z-.0168
(Line Move)
X78.7519 Y-52.8935 Z-.0168
(Line Move)
X77.8991 Y-53.5637 Z-.0168
(Line Move)
X76.9971 Y-54.2191 Z-.0168
(Line Move)
X76.1903 Y-54.7643 Z-.0168
(Line Move)
X75.1142 Y-55.4378 Z-.0168
(Line Move)
X73.9945 Y-56.0807 Z-.0168
(Line Move)
X72.8322 Y-56.692 Z-.0168
(Line Move)
X71.6288 Y-57.2707 Z-.0168
(Line Move)
X70.3857 Y-57.8156 Z-.0168
(Line Move)
X69.1044 Y-58.3256 Z-.0168
(Line Move)
X67.7864 Y-58.7994 Z-.0168
(Line Move)
X66.4331 Y-59.2358 Z-.0168
(Line Move)
X65.046 Y-59.6335 Z-.0168
(Line Move)
X64.0765 Y-59.8831 Z-.0168
(Line Move)
X62.5867 Y-60.2232 Z-.0168
(Line Move)
X61.0818 Y-60.5153 Z-.0168
(Line Move)
X59.564 Y-60.7593 Z-.0168
(Line Move)
X58.0354 Y-60.9554 Z-.0168
(Line Move)
X56.4984 Y-61.1036 Z-.0168
(Line Move)
X54.9554 Y-61.2038 Z-.0168
(Line Move)
X53.4095 Y-61.2559 Z-.0168
(Line Move)
X51.8621 Y-61.2602 Z-.0168
(Line Move)
X50.3146 Y-61.2164 Z-.0168
(Line Move)
X48.7682 Y-61.1244 Z-.0168
(Line Move)
X47.918 Y-61.0531 Z-.0168
(Line Move)
X46.4805 Y-60.8986 Z-.0168
(Line Move)
X45.0619 Y-60.7038 Z-.0168
(Line Move)
X43.663 Y-60.4693 Z-.0168
(Line Move)
X42.2848 Y-60.1959 Z-.0168
(Line Move)
X40.9283 Y-59.8843 Z-.0168
(Line Move)
X39.5943 Y-59.535 Z-.0168
(Line Move)
X38.2839 Y-59.1485 Z-.0168
(Line Move)
X36.998 Y-58.7253 Z-.0168
(Line Move)
X35.7379 Y-58.2655 Z-.0168
(Line Move)
X34.5046 Y-57.7696 Z-.0168
(Line Move)
X33.2993 Y-57.2376 Z-.0168
(Line Move)
X32.2813 Y-56.7489 Z-.0168
(Line Move)
X31.2571 Y-56.2176 Z-.0168
(Line Move)
X30.2673 Y-55.6631 Z-.0168
(Line Move)
X29.3123 Y-55.0861 Z-.0168
(Line Move)
X28.393 Y-54.4872 Z-.0168
(Line Move)
X27.5098 Y-53.8672 Z-.0168
(Line Move)
X26.6637 Y-53.2267 Z-.0168
(Line Move)
X25.8553 Y-52.5662 Z-.0168
(Line Move)
X25.1453 Y-51.941 Z-.0168
(Line Move)
X24.5063 Y-51.3366 Z-.0168
(Line Move)
X23.9032 Y-50.7238 Z-.0168
(Line Move)
X23.3359 Y-50.1035 Z-.0168
(Line Move)
X22.9272 Y-49.6237 Z-.0168
(Line Move)
X22.4235 Y-48.9918 Z-.0168
(Line Move)
X21.9559 Y-48.354 Z-.0168
(Line Move)
X21.5243 Y-47.7108 Z-.0168
(Line Move)
X21.1876 Y-47.1636 Z-.0168
(Line Move)
X20.8607 Y-46.5828 Z-.0168
(Line Move)
X20.5652 Y-46.0033 Z-.0168
(Line Move)
X20.3005 Y-45.4255 Z-.0168
(Line Move)
X20.066 Y-44.8493 Z-.0168
(Line Move)
X19.8613 Y-44.2745 Z-.0168
(Line Move)
X19.686 Y-43.701 Z-.0168
(Line Move)
X19.5602 Y-43.2192 Z-.0168
(Line Move)
X19.4568 Y-42.74 Z-.0168
(Line Move)
X19.3609 Y-42.183 Z-.0168
(Line Move)
X19.2927 Y-41.6306 Z-.0168
(Line Move)
X19.2515 Y-41.0823 Z-.0168
(Line Move)
X19.2367 Y-40.5468 Z-.0168
(Line Move)
X19.2417 Y-40.1322 Z-.0168
(Line Move)
X19.2725 Y-39.5855 Z-.0168
(Line Move)
X19.3298 Y-39.036 Z-.0168
(Line Move)
X19.3954 Y-38.5925 Z-.0168
(Line Move)
X19.5081 Y-38.0085 Z-.0168
(Line Move)
X19.6512 Y-37.4221 Z-.0168
(Line Move)
X19.8258 Y-36.8316 Z-.0168
(Line Move)
X20.033 Y-36.2357 Z-.0168
(Line Move)
X20.2741 Y-35.6336 Z-.0168
(Line Move)
X20.5507 Y-35.0246 Z-.0168
(Line Move)
X20.7783 Y-34.5712 Z-.0168
(Line Move)
X21.1498 Y-33.8991 Z-.0168
(Line Move)
X21.5639 Y-33.2257 Z-.0168
(Line Move)
X22.0215 Y-32.5514 Z-.0168
(Line Move)
X22.5237 Y-31.8768 Z-.0168
(Line Move)
X23.0716 Y-31.2025 Z-.0168
(Line Move)
X23.6663 Y-30.5296 Z-.0168
(Line Move)
X24.1723 Y-29.9972 Z-.0168
(Line Move)
X24.9194 Y-29.2678 Z-.0168
(Line Move)
X25.7155 Y-28.5534 Z-.0168
(Line Move)
X26.5606 Y-27.8547 Z-.0168
(Line Move)
X27.4546 Y-27.1731 Z-.0168
(Line Move)
X28.397 Y-26.5101 Z-.0168
(Line Move)
X29.3873 Y-25.867 Z-.0168
(Line Move)
X30.4251 Y-25.2456 Z-.0168
(Line Move)
X31.51 Y-24.6473 Z-.0168
(Line Move)
X32.3529 Y-24.2155 Z-.0168
(Line Move)
X33.5959 Y-23.627 Z-.0168
(Line Move)
X34.8756 Y-23.0762 Z-.0168
(Line Move)
X36.1904 Y-22.5641 Z-.0168
(Line Move)
X37.5382 Y-22.0914 Z-.0168
(Line Move)
X38.9173 Y-21.6591 Z-.0168
(Line Move)
X40.326 Y-21.268 Z-.0168
(Line Move)
X41.7623 Y-20.919 Z-.0168
(Line Move)
X43.2245 Y-20.6131 Z-.0168
(Line Move)
X44.7107 Y-20.3511 Z-.0168
(Line Move)
X45.6942 Y-20.2041 Z-.0168
(Line Move)
X47.2359 Y-20.0148 Z-.0168
(Line Move)
X48.7798 Y-19.8748 Z-.0168
(Line Move)
X50.3242 Y-19.7832 Z-.0168
(Line Move)
X51.8679 Y-19.7398 Z-.0168
(Line Move)
X53.4095 Y-19.7441 Z-.0168
(Line Move)
X54.9477 Y-19.7958 Z-.0168
(Line Move)
X56.4813 Y-19.895 Z-.0168
(Line Move)
X56.6206 Y-19.9084 Z-.0168
(Line Move)
X56.6694 Y-19.3002 Z-.0369
(Line Move)
X57.3046 Y-19.3512 Z-.0369
(Line Move)
X58.8478 Y-19.5236 Z-.0369
(Line Move)
X59.9881 Y-19.6828 Z-.0369
(Line Move)
X61.4059 Y-19.9192 Z-.0369
(Line Move)
X62.802 Y-20.1948 Z-.0369
(Line Move)
X64.1755 Y-20.509 Z-.0369
(Line Move)
X65.5257 Y-20.8611 Z-.0369
(Line Move)
X66.8516 Y-21.2506 Z-.0369
(Line Move)
X68.1521 Y-21.677 Z-.0369
(Line Move)
X69.4264 Y-22.14 Z-.0369
(Line Move)
X70.6734 Y-22.6392 Z-.0369
(Line Move)
X71.8918 Y-23.1745 Z-.0369
(Line Move)
X72.9451 Y-23.678 Z-.0369
(Line Move)
X73.9801 Y-24.2128 Z-.0369
(Line Move)
X74.9809 Y-24.771 Z-.0369
(Line Move)
X75.9471 Y-25.3519 Z-.0369
(Line Move)
X76.8778 Y-25.9548 Z-.0369
(Line Move)
X77.7726 Y-26.5791 Z-.0369
(Line Move)
X78.6309 Y-27.2241 Z-.0369
(Line Move)
X79.4517 Y-27.8894 Z-.0369
(Line Move)
X80.2345 Y-28.5744 Z-.0369
(Line Move)
X80.6898 Y-28.9989 Z-.0369
(Line Move)
X81.3183 Y-29.6207 Z-.0369
(Line Move)
X81.9108 Y-30.2511 Z-.0369
(Line Move)
X82.4674 Y-30.8893 Z-.0369
(Line Move)
X82.988 Y-31.5347 Z-.0369
(Line Move)
X83.4726 Y-32.1868 Z-.0369
(Line Move)
X83.9212 Y-32.8453 Z-.0369
(Line Move)
X84.3336 Y-33.5098 Z-.0369
(Line Move)
X84.8912 Y-34.5319 Z-.0369
(Line Move)
X85.1763 Y-35.132 Z-.0369
(Line Move)
X85.4303 Y-35.7313 Z-.0369
(Line Move)
X85.6537 Y-36.3299 Z-.0369
(Line Move)
X85.8467 Y-36.9279 Z-.0369
(Line Move)
X86.0979 Y-37.9059 Z-.0369
(Line Move)
X86.2093 Y-38.4863 Z-.0369
(Line Move)
X86.2924 Y-39.0649 Z-.0369
(Line Move)
X86.3475 Y-39.642 Z-.0369
(Line Move)
X86.3749 Y-40.2184 Z-.0369
(Line Move)
X86.3745 Y-40.7977 Z-.0369
(Line Move)
X86.3451 Y-41.3914 Z-.0369
(Line Move)
X86.2864 Y-41.9844 Z-.0369
(Line Move)
X86.1983 Y-42.5784 Z-.0369
(Line Move)
X86.0801 Y-43.1751 Z-.0369
(Line Move)
X85.9312 Y-43.776 Z-.0369
(Line Move)
X85.7503 Y-44.3824 Z-.0369
(Line Move)
X85.5624 Y-44.9245 Z-.0369
(Line Move)
X85.2966 Y-45.5933 Z-.0369
(Line Move)
X84.9921 Y-46.2633 Z-.0369
(Line Move)
X84.6477 Y-46.9354 Z-.0369
(Line Move)
X84.2622 Y-47.6099 Z-.0369
(Line Move)
X83.8345 Y-48.2867 Z-.0369
(Line Move)
X83.3632 Y-48.9654 Z-.0369
(Line Move)
X82.8469 Y-49.6454 Z-.0369
(Line Move)
X82.452 Y-50.129 Z-.0369
(Line Move)
X81.802 Y-50.8682 Z-.0369
(Line Move)
X81.103 Y-51.5973 Z-.0369
(Line Move)
X80.3549 Y-52.3153 Z-.0369
(Line Move)
X79.5576 Y-53.021 Z-.0369
(Line Move)
X78.7111 Y-53.7131 Z-.0369
(Line Move)
X77.8152 Y-54.3901 Z-.0369
(Line Move)
X76.8699 Y-55.0505 Z-.0369
(Line Move)
X75.9834 Y-55.6254 Z-.0369
(Line Move)
X74.8654 Y-56.2956 Z-.0369
(Line Move)
X73.7044 Y-56.9337 Z-.0369
(Line Move)
X72.5016 Y-57.5388 Z-.0369
(Line Move)
X71.2587 Y-58.1098 Z-.0369
(Line Move)
X69.9768 Y-58.6455 Z-.0369
(Line Move)
X68.6576 Y-59.1449 Z-.0369
(Line Move)
X67.3025 Y-59.6067 Z-.0369
(Line Move)
X65.9129 Y-60.0297 Z-.0369
(Line Move)
X64.972 Y-60.2886 Z-.0369
(Line Move)
X63.4703 Y-60.6578 Z-.0369
(Line Move)
X61.9529 Y-60.978 Z-.0369
(Line Move)
X60.4218 Y-61.2495 Z-.0369
(Line Move)
X58.879 Y-61.4724 Z-.0369
(Line Move)
X57.3268 Y-61.6467 Z-.0369
(Line Move)
X55.7672 Y-61.7724 Z-.0369
(Line Move)
X54.2034 Y-61.8495 Z-.0369
(Line Move)
X52.6376 Y-61.878 Z-.0369
(Line Move)
X51.0709 Y-61.858 Z-.0369
(Line Move)
X49.5047 Y-61.7893 Z-.0369
(Line Move)
X48.5958 Y-61.727 Z-.0369
(Line Move)
X47.1313 Y-61.5914 Z-.0369
(Line Move)
X45.6852 Y-61.4145 Z-.0369
(Line Move)
X44.2584 Y-61.197 Z-.0369
(Line Move)
X42.8518 Y-60.9397 Z-.0369
(Line Move)
X41.4663 Y-60.6433 Z-.0369
(Line Move)
X40.1029 Y-60.3083 Z-.0369
(Line Move)
X38.7624 Y-59.9353 Z-.0369
(Line Move)
X37.4458 Y-59.5247 Z-.0369
(Line Move)
X36.1543 Y-59.0767 Z-.0369
(Line Move)
X34.8888 Y-58.5917 Z-.0369
(Line Move)
X33.6504 Y-58.0698 Z-.0369
(Line Move)
X32.5406 Y-57.5591 Z-.0369
(Line Move)
X31.4823 Y-57.0312 Z-.0369
(Line Move)
X30.4578 Y-56.4789 Z-.0369
(Line Move)
X29.4678 Y-55.9029 Z-.0369
(Line Move)
X28.513 Y-55.3038 Z-.0369
(Line Move)
X27.594 Y-54.6823 Z-.0369
(Line Move)
X26.7115 Y-54.039 Z-.0369
(Line Move)
X25.8663 Y-53.3744 Z-.0369
(Line Move)
X25.0722 Y-52.7004 Z-.0369
(Line Move)
X24.3994 Y-52.0859 Z-.0369
(Line Move)
X23.7626 Y-51.4619 Z-.0369
(Line Move)
X23.1619 Y-50.8288 Z-.0369
(Line Move)
X22.3285 Y-49.8638 Z-.0369
(Line Move)
X21.8181 Y-49.211 Z-.0369
(Line Move)
X21.3439 Y-48.551 Z-.0369
(Line Move)
X20.9062 Y-47.8844 Z-.0369
(Line Move)
X20.5747 Y-47.333 Z-.0369
(Line Move)
X20.2431 Y-46.7303 Z-.0369
(Line Move)
X19.9433 Y-46.128 Z-.0369
(Line Move)
X19.6751 Y-45.5262 Z-.0369
(Line Move)
X19.4377 Y-44.925 Z-.0369
(Line Move)
X19.231 Y-44.3241 Z-.0369
(Line Move)
X19.0546 Y-43.7233 Z-.0369
(Line Move)
X18.8266 Y-42.7176 Z-.0369
(Line Move)
X18.7328 Y-42.1326 Z-.0369
(Line Move)
X18.6679 Y-41.5522 Z-.0369
(Line Move)
X18.6312 Y-40.9752 Z-.0369
(Line Move)
X18.6222 Y-40.3999 Z-.0369
(Line Move)
X18.6408 Y-39.8246 Z-.0369
(Line Move)
X18.6871 Y-39.2475 Z-.0369
(Line Move)
X18.7617 Y-38.6669 Z-.0369
(Line Move)
X18.8451 Y-38.1843 Z-.0369
(Line Move)
X18.9793 Y-37.5702 Z-.0369
(Line Move)
X19.1458 Y-36.9534 Z-.0369
(Line Move)
X19.3453 Y-36.3328 Z-.0369
(Line Move)
X19.5793 Y-35.7073 Z-.0369
(Line Move)
X19.8489 Y-35.0762 Z-.0369
(Line Move)
X20.0567 Y-34.6367 Z-.0369
(Line Move)
X20.4215 Y-33.9383 Z-.0369
(Line Move)
X20.8285 Y-33.2409 Z-.0369
(Line Move)
X21.2791 Y-32.5439 Z-.0369
(Line Move)
X21.7744 Y-31.8476 Z-.0369
(Line Move)
X22.3153 Y-31.1524 Z-.0369
(Line Move)
X22.9029 Y-30.4593 Z-.0369
(Line Move)
X23.5383 Y-29.7691 Z-.0369
(Line Move)
X24.111 Y-29.1912 Z-.0369
(Line Move)
X24.9012 Y-28.4517 Z-.0369
(Line Move)
X25.7407 Y-27.7288 Z-.0369
(Line Move)
X26.6293 Y-27.0234 Z-.0369
(Line Move)
X27.5664 Y-26.3371 Z-.0369
(Line Move)
X28.5518 Y-25.671 Z-.0369
(Line Move)
X29.5849 Y-25.0267 Z-.0369
(Line Move)
X30.6652 Y-24.4058 Z-.0369
(Line Move)
X31.462 Y-23.9793 Z-.0369
(Line Move)
X32.7069 Y-23.3617 Z-.0369
(Line Move)
X33.9886 Y-22.7828 Z-.0369
(Line Move)
X35.3059 Y-22.2432 Z-.0369
(Line Move)
X36.6571 Y-21.7434 Z-.0369
(Line Move)
X38.0403 Y-21.2843 Z-.0369
(Line Move)
X39.4538 Y-20.8668 Z-.0369
(Line Move)
X40.8958 Y-20.4916 Z-.0369
(Line Move)
X42.3645 Y-20.1597 Z-.0369
(Line Move)
X43.8581 Y-19.8719 Z-.0369
(Line Move)
X44.831 Y-19.7106 Z-.0369
(Line Move)
X46.3899 Y-19.4939 Z-.0369
(Line Move)
X47.9522 Y-19.3272 Z-.0369
(Line Move)
X49.5157 Y-19.2101 Z-.0369
(Line Move)
X51.0789 Y-19.1418 Z-.0369
(Line Move)
X52.6407 Y-19.122 Z-.0369
(Line Move)
X54.1998 Y-19.1504 Z-.0369
(Line Move)
X55.7548 Y-19.2268 Z-.0369
(Line Move)
X56.6694 Y-19.3002 Z-.0369
(Line Move)
X56.6947 Y-19.0113 Z-.0594
(Line Move)
X57.372 Y-19.0706 Z-.0594
(Line Move)
X58.8764 Y-19.2382 Z-.0594
(Line Move)
X60.0215 Y-19.3969 Z-.0594
(Line Move)
X61.4418 Y-19.6324 Z-.0594
(Line Move)
X62.8405 Y-19.9072 Z-.0594
(Line Move)
X64.2167 Y-20.2207 Z-.0594
(Line Move)
X65.5695 Y-20.5722 Z-.0594
(Line Move)
X66.898 Y-20.9611 Z-.0594
(Line Move)
X68.2013 Y-21.3871 Z-.0594
(Line Move)
X69.4784 Y-21.8496 Z-.0594
(Line Move)
X70.7281 Y-22.3486 Z-.0594
(Line Move)
X71.9494 Y-22.8836 Z-.0594
(Line Move)
X73.0136 Y-23.391 Z-.0594
(Line Move)
X74.0469 Y-23.9238 Z-.0594
(Line Move)
X75.6216 Y-24.8165 Z-.0594
(Line Move)
X76.573 Y-25.409 Z-.0594
(Line Move)
X77.4888 Y-26.0232 Z-.0594
(Line Move)
X78.3684 Y-26.6586 Z-.0594
(Line Move)
X79.211 Y-27.3146 Z-.0594
(Line Move)
X80.016 Y-27.9908 Z-.0594
(Line Move)
X80.5484 Y-28.468 Z-.0594
(Line Move)
X81.1842 Y-29.0746 Z-.0594
(Line Move)
X81.7975 Y-29.7022 Z-.0594
(Line Move)
X82.3747 Y-30.3381 Z-.0594
(Line Move)
X82.916 Y-30.9816 Z-.0594
(Line Move)
X83.7163 Y-32.036 Z-.0594
(Line Move)
X84.1675 Y-32.6965 Z-.0594
(Line Move)
X84.5825 Y-33.3631 Z-.0594
(Line Move)
X84.8263 Y-33.788 Z-.0594
(Line Move)
X85.1453 Y-34.3912 Z-.0594
(Line Move)
X85.4325 Y-34.9938 Z-.0594
(Line Move)
X85.6886 Y-35.5957 Z-.0594
(Line Move)
X85.9139 Y-36.197 Z-.0594
(Line Move)
X86.1088 Y-36.7979 Z-.0594
(Line Move)
X86.366 Y-37.7946 Z-.0594
(Line Move)
X86.5413 Y-38.7478 Z-.0594
(Line Move)
X86.6117 Y-39.3287 Z-.0594
(Line Move)
X86.654 Y-39.9085 Z-.0594
(Line Move)
X86.6685 Y-40.4819 Z-.0594
(Line Move)
X86.6546 Y-41.0789 Z-.0594
(Line Move)
X86.6113 Y-41.6753 Z-.0594
(Line Move)
X86.4742 Y-42.6642 Z-.0594
(Line Move)
X86.3587 Y-43.2496 Z-.0594
(Line Move)
X86.2099 Y-43.8534 Z-.0594
(Line Move)
X86.0292 Y-44.4626 Z-.0594
(Line Move)
X85.8398 Y-45.0116 Z-.0594
(Line Move)
X85.5761 Y-45.6772 Z-.0594
(Line Move)
X85.2715 Y-46.3501 Z-.0594
(Line Move)
X84.9269 Y-47.025 Z-.0594
(Line Move)
X84.5412 Y-47.7021 Z-.0594
(Line Move)
X83.832 Y-48.8008 Z-.0594
(Line Move)
X83.3381 Y-49.4825 Z-.0594
(Line Move)
X82.9755 Y-49.948 Z-.0594
(Line Move)
X82.3614 Y-50.679 Z-.0594
(Line Move)
X81.6865 Y-51.4157 Z-.0594
(Line Move)
X80.9625 Y-52.1418 Z-.0594
(Line Move)
X80.1893 Y-52.856 Z-.0594
(Line Move)
X79.3669 Y-53.5572 Z-.0594
(Line Move)
X78.4951 Y-54.2439 Z-.0594
(Line Move)
X77.574 Y-54.9148 Z-.0594
(Line Move)
X76.7422 Y-55.4782 Z-.0594
(Line Move)
X76.1314 Y-55.87 Z-.0594
(Line Move)
X75.0126 Y-56.5425 Z-.0594
(Line Move)
X73.8506 Y-57.1828 Z-.0594
(Line Move)
X72.647 Y-57.79 Z-.0594
(Line Move)
X71.403 Y-58.363 Z-.0594
(Line Move)
X70.1202 Y-58.9007 Z-.0594
(Line Move)
X68.8 Y-59.402 Z-.0594
(Line Move)
X67.4439 Y-59.8656 Z-.0594
(Line Move)
X66.0532 Y-60.2905 Z-.0594
(Line Move)
X65.0829 Y-60.5585 Z-.0594
(Line Move)
X63.6103 Y-60.9212 Z-.0594
(Line Move)
X62.0913 Y-61.2433 Z-.0594
(Line Move)
X60.5584 Y-61.5167 Z-.0594
(Line Move)
X59.6943 Y-61.6494 Z-.0594
(Line Move)
X58.1448 Y-61.8497 Z-.0594
(Line Move)
X56.5867 Y-62.0014 Z-.0594
(Line Move)
X55.0227 Y-62.1044 Z-.0594
(Line Move)
X53.4557 Y-62.1587 Z-.0594
(Line Move)
X51.8873 Y-62.1645 Z-.0594
(Line Move)
X50.3187 Y-62.1215 Z-.0594
(Line Move)
X48.7511 Y-62.0297 Z-.0594
(Line Move)
X47.8862 Y-61.9581 Z-.0594
(Line Move)
X46.4283 Y-61.8027 Z-.0594
(Line Move)
X44.9892 Y-61.6064 Z-.0594
(Line Move)
X43.5699 Y-61.3698 Z-.0594
(Line Move)
X42.1712 Y-61.0936 Z-.0594
(Line Move)
X40.7941 Y-60.7786 Z-.0594
(Line Move)
X39.4393 Y-60.4252 Z-.0594
(Line Move)
X38.6799 Y-60.2091 Z-.0594
(Line Move)
X37.3607 Y-59.799 Z-.0594
(Line Move)
X36.0664 Y-59.3515 Z-.0594
(Line Move)
X34.7981 Y-58.8669 Z-.0594
(Line Move)
X33.557 Y-58.3452 Z-.0594
(Line Move)
X32.4384 Y-57.8319 Z-.0594
(Line Move)
X31.3796 Y-57.305 Z-.0594
(Line Move)
X30.3523 Y-56.7524 Z-.0594
(Line Move)
X29.3594 Y-56.176 Z-.0594
(Line Move)
X28.4017 Y-55.5765 Z-.0594
(Line Move)
X27.4797 Y-54.9544 Z-.0594
(Line Move)
X26.5942 Y-54.3104 Z-.0594
(Line Move)
X25.746 Y-53.6449 Z-.0594
(Line Move)
X25.2636 Y-53.2441 Z-.0594
(Line Move)
X24.5311 Y-52.6006 Z-.0594
(Line Move)
X23.8736 Y-51.98 Z-.0594
(Line Move)
X23.2521 Y-51.35 Z-.0594
(Line Move)
X22.6667 Y-50.7112 Z-.0594
(Line Move)
X22.1174 Y-50.0642 Z-.0594
(Line Move)
X21.6043 Y-49.4096 Z-.0594
(Line Move)
X21.1274 Y-48.7477 Z-.0594
(Line Move)
X20.6871 Y-48.0789 Z-.0594
(Line Move)
X20.352 Y-47.5235 Z-.0594
(Line Move)
X19.8146 Y-46.5174 Z-.0594
(Line Move)
X19.5358 Y-45.9269 Z-.0594
(Line Move)
X19.281 Y-45.3228 Z-.0594
(Line Move)
X19.057 Y-44.719 Z-.0594
(Line Move)
X18.8636 Y-44.1154 Z-.0594
(Line Move)
X18.7004 Y-43.5116 Z-.0594
(Line Move)
X18.6061 Y-43.0977 Z-.0594
(Line Move)
X18.4962 Y-42.5078 Z-.0594
(Line Move)
X18.4156 Y-41.9218 Z-.0594
(Line Move)
X18.3445 Y-40.9431 Z-.0594
(Line Move)
X18.3354 Y-40.3776 Z-.0594
(Line Move)
X18.3532 Y-39.7991 Z-.0594
(Line Move)
X18.3989 Y-39.2189 Z-.0594
(Line Move)
X18.473 Y-38.6354 Z-.0594
(Line Move)
X18.5559 Y-38.1512 Z-.0594
(Line Move)
X18.6898 Y-37.5339 Z-.0594
(Line Move)
X18.856 Y-36.9141 Z-.0594
(Line Move)
X19.0555 Y-36.2906 Z-.0594
(Line Move)
X19.4557 Y-35.2591 Z-.0594
(Line Move)
X19.7438 Y-34.6224 Z-.0594
(Line Move)
X19.9795 Y-34.1511 Z-.0594
(Line Move)
X20.3652 Y-33.4508 Z-.0594
(Line Move)
X20.7942 Y-32.7509 Z-.0594
(Line Move)
X21.2673 Y-32.0517 Z-.0594
(Line Move)
X21.7857 Y-31.3534 Z-.0594
(Line Move)
X22.3502 Y-30.6569 Z-.0594
(Line Move)
X22.9619 Y-29.963 Z-.0594
(Line Move)
X23.4899 Y-29.4061 Z-.0594
(Line Move)
X24.246 Y-28.6667 Z-.0594
(Line Move)
X24.7162 Y-28.2332 Z-.0594
(Line Move)
X25.5563 Y-27.5079 Z-.0594
(Line Move)
X26.4454 Y-26.8003 Z-.0594
(Line Move)
X27.3832 Y-26.1118 Z-.0594
(Line Move)
X28.3692 Y-25.4437 Z-.0594
(Line Move)
X29.4029 Y-24.7975 Z-.0594
(Line Move)
X30.4839 Y-24.1746 Z-.0594
(Line Move)
X31.3008 Y-23.7362 Z-.0594
(Line Move)
X32.5244 Y-23.1283 Z-.0594
(Line Move)
X33.8071 Y-22.5474 Z-.0594
(Line Move)
X35.1256 Y-22.0056 Z-.0594
(Line Move)
X36.4779 Y-21.5038 Z-.0594
(Line Move)
X37.2552 Y-21.2374 Z-.0594
(Line Move)
X38.655 Y-20.7971 Z-.0594
(Line Move)
X40.0842 Y-20.3987 Z-.0594
(Line Move)
X41.5411 Y-20.0432 Z-.0594
(Line Move)
X43.0238 Y-19.7315 Z-.0594
(Line Move)
X44.5305 Y-19.4644 Z-.0594
(Line Move)
X45.5266 Y-19.3146 Z-.0594
(Line Move)
X47.0896 Y-19.1212 Z-.0594
(Line Move)
X48.6547 Y-18.9777 Z-.0594
(Line Move)
X50.2203 Y-18.8834 Z-.0594
(Line Move)
X51.7851 Y-18.8379 Z-.0594
(Line Move)
X53.3478 Y-18.8408 Z-.0594
(Line Move)
X54.9071 Y-18.8919 Z-.0594
(Line Move)
X56.4618 Y-18.991 Z-.0594
(Line Move)
X56.6947 Y-19.0113 Z-.0594
(Line Move)
X56.7446 Y-18.4051 Z-.1196
(Line Move)
X57.3793 Y-18.4574 Z-.1196
(Line Move)
X58.5248 Y-18.5804 Z-.1196
(Line Move)
X59.7142 Y-18.735 Z-.1196
(Line Move)
X61.158 Y-18.9623 Z-.1196
(Line Move)
X62.5805 Y-19.2298 Z-.1196
(Line Move)
X63.9808 Y-19.5366 Z-.1196
(Line Move)
X65.358 Y-19.8822 Z-.1196
(Line Move)
X66.7112 Y-20.266 Z-.1196
(Line Move)
X68.0396 Y-20.6876 Z-.1196
(Line Move)
X69.3422 Y-21.1466 Z-.1196
(Line Move)
X70.6179 Y-21.6427 Z-.1196
(Line Move)
X71.8657 Y-22.1758 Z-.1196
(Line Move)
X73.0307 Y-22.7189 Z-.1196
(Line Move)
X74.0482 Y-23.2335 Z-.1196
(Line Move)
X74.9141 Y-23.7014 Z-.1196
(Line Move)
X75.6627 Y-24.1309 Z-.1196
(Line Move)
X76.641 Y-24.7278 Z-.1196
(Line Move)
X77.5839 Y-25.3474 Z-.1196
(Line Move)
X78.4909 Y-25.9893 Z-.1196
(Line Move)
X79.3612 Y-26.653 Z-.1196
(Line Move)
X80.1941 Y-27.338 Z-.1196
(Line Move)
X80.8901 Y-27.9519 Z-.1196
(Line Move)
X81.433 Y-28.4639 Z-.1196
(Line Move)
X82.0716 Y-29.1045 Z-.1196
(Line Move)
X82.674 Y-29.7545 Z-.1196
(Line Move)
X83.2403 Y-30.4135 Z-.1196
(Line Move)
X83.7703 Y-31.0809 Z-.1196
(Line Move)
X84.0776 Y-31.4934 Z-.1196
(Line Move)
X84.5532 Y-32.1727 Z-.1196
(Line Move)
X84.9922 Y-32.8595 Z-.1196
(Line Move)
X85.2627 Y-33.318 Z-.1196
(Line Move)
X85.6021 Y-33.9427 Z-.1196
(Line Move)
X85.9093 Y-34.5682 Z-.1196
(Line Move)
X86.1845 Y-35.1942 Z-.1196
(Line Move)
X86.428 Y-35.8205 Z-.1196
(Line Move)
X86.6401 Y-36.4474 Z-.1196
(Line Move)
X86.8211 Y-37.0751 Z-.1196
(Line Move)
X87.008 Y-37.878 Z-.1196
(Line Move)
X87.1198 Y-38.4891 Z-.1196
(Line Move)
X87.2018 Y-39.099 Z-.1196
(Line Move)
X87.2545 Y-39.708 Z-.1196
(Line Move)
X87.2779 Y-40.3143 Z-.1196
(Line Move)
X87.2718 Y-40.9324 Z-.1196
(Line Move)
X87.235 Y-41.5592 Z-.1196
(Line Move)
X87.1672 Y-42.1853 Z-.1196
(Line Move)
X86.9926 Y-43.2057 Z-.1196
(Line Move)
X86.846 Y-43.8367 Z-.1196
(Line Move)
X86.6665 Y-44.4719 Z-.1196
(Line Move)
X86.4633 Y-45.0845 Z-.1196
(Line Move)
X86.2191 Y-45.7211 Z-.1196
(Line Move)
X85.9136 Y-46.4206 Z-.1196
(Line Move)
X85.5675 Y-47.1207 Z-.1196
(Line Move)
X85.1798 Y-47.8217 Z-.1196
(Line Move)
X84.8162 Y-48.4206 Z-.1196
(Line Move)
X84.4668 Y-48.954 Z-.1196
(Line Move)
X83.9701 Y-49.6569 Z-.1196
(Line Move)
X83.5022 Y-50.2681 Z-.1196
(Line Move)
X83.0029 Y-50.8707 Z-.1196
(Line Move)
X82.3236 Y-51.6302 Z-.1196
(Line Move)
X81.5951 Y-52.3778 Z-.1196
(Line Move)
X80.8172 Y-53.1127 Z-.1196
(Line Move)
X79.99 Y-53.8336 Z-.1196
(Line Move)
X79.1133 Y-54.5393 Z-.1196
(Line Move)
X78.1872 Y-55.2285 Z-.1196
(Line Move)
X77.2702 Y-55.8617 Z-.1196
(Line Move)
X76.7612 Y-56.1929 Z-.1196
(Line Move)
X75.6341 Y-56.8866 Z-.1196
(Line Move)
X74.4639 Y-57.5472 Z-.1196
(Line Move)
X73.2518 Y-58.1738 Z-.1196
(Line Move)
X71.9992 Y-58.7656 Z-.1196
(Line Move)
X70.7074 Y-59.3215 Z-.1196
(Line Move)
X69.3779 Y-59.8404 Z-.1196
(Line Move)
X68.0122 Y-60.3213 Z-.1196
(Line Move)
X66.6117 Y-60.763 Z-.1196
(Line Move)
X65.369 Y-61.115 Z-.1196
(Line Move)
X64.1659 Y-61.4178 Z-.1196
(Line Move)
X62.6314 Y-61.7577 Z-.1196
(Line Move)
X61.0827 Y-62.0481 Z-.1196
(Line Move)
X60.2105 Y-62.189 Z-.1196
(Line Move)
X58.6444 Y-62.4054 Z-.1196
(Line Move)
X57.0694 Y-62.5724 Z-.1196
(Line Move)
X55.4876 Y-62.6902 Z-.1196
(Line Move)
X53.9023 Y-62.7587 Z-.1196
(Line Move)
X52.3153 Y-62.778 Z-.1196
(Line Move)
X50.7276 Y-62.748 Z-.1196
(Line Move)
X49.1407 Y-62.6687 Z-.1196
(Line Move)
X48.2386 Y-62.6016 Z-.1196
(Line Move)
X46.7578 Y-62.456 Z-.1196
(Line Move)
X45.2956 Y-62.2685 Z-.1196
(Line Move)
X43.853 Y-62.0401 Z-.1196
(Line Move)
X42.4307 Y-61.7713 Z-.1196
(Line Move)
X41.0297 Y-61.463 Z-.1196
(Line Move)
X39.6508 Y-61.1156 Z-.1196
(Line Move)
X38.8792 Y-60.9022 Z-.1196
(Line Move)
X37.5352 Y-60.4969 Z-.1196
(Line Move)
X36.2158 Y-60.0535 Z-.1196
(Line Move)
X34.9219 Y-59.5722 Z-.1196
(Line Move)
X33.6546 Y-59.0531 Z-.1196
(Line Move)
X32.4548 Y-58.5153 Z-.1196
(Line Move)
X31.3924 Y-57.9974 Z-.1196
(Line Move)
X30.3386 Y-57.4424 Z-.1196
(Line Move)
X29.319 Y-56.8627 Z-.1196
(Line Move)
X28.3342 Y-56.2589 Z-.1196
(Line Move)
X27.3849 Y-55.6315 Z-.1196
(Line Move)
X26.4717 Y-54.981 Z-.1196
(Line Move)
X25.5955 Y-54.3078 Z-.1196
(Line Move)
X25.099 Y-53.9026 Z-.1196
(Line Move)
X24.3122 Y-53.2256 Z-.1196
(Line Move)
X23.6291 Y-52.5933 Z-.1196
(Line Move)
X22.9823 Y-51.9505 Z-.1196
(Line Move)
X22.3716 Y-51.2977 Z-.1196
(Line Move)
X21.7971 Y-50.6355 Z-.1196
(Line Move)
X21.259 Y-49.9643 Z-.1196
(Line Move)
X20.7575 Y-49.2844 Z-.1196
(Line Move)
X20.2926 Y-48.5963 Z-.1196
(Line Move)
X19.9254 Y-48.0034 Z-.1196
(Line Move)
X19.5705 Y-47.3771 Z-.1196
(Line Move)
X19.058 Y-46.3514 Z-.1196
(Line Move)
X18.784 Y-45.7232 Z-.1196
(Line Move)
X18.5418 Y-45.0944 Z-.1196
(Line Move)
X18.3312 Y-44.4646 Z-.1196
(Line Move)
X18.1519 Y-43.8337 Z-.1196
(Line Move)
X18.0462 Y-43.3969 Z-.1196
(Line Move)
X17.9225 Y-42.7783 Z-.1196
(Line Move)
X17.8294 Y-42.1625 Z-.1196
(Line Move)
X17.7665 Y-41.5507 Z-.1196
(Line Move)
X17.7247 Y-40.5436 Z-.1196
(Line Move)
X17.7352 Y-39.936 Z-.1196
(Line Move)
X17.775 Y-39.3272 Z-.1196
(Line Move)
X17.8443 Y-38.7157 Z-.1196
(Line Move)
X17.9228 Y-38.2173 Z-.1196
(Line Move)
X18.0538 Y-37.5707 Z-.1196
(Line Move)
X18.2182 Y-36.9229 Z-.1196
(Line Move)
X18.4169 Y-36.2726 Z-.1196
(Line Move)
X18.6507 Y-35.6188 Z-.1196
(Line Move)
X18.8172 Y-35.2032 Z-.1196
(Line Move)
X19.1062 Y-34.5426 Z-.1196
(Line Move)
X19.3344 Y-34.0716 Z-.1196
(Line Move)
X19.7224 Y-33.3448 Z-.1196
(Line Move)
X20.1538 Y-32.6204 Z-.1196
(Line Move)
X20.6297 Y-31.8979 Z-.1196
(Line Move)
X21.1512 Y-31.1777 Z-.1196
(Line Move)
X21.719 Y-30.4602 Z-.1196
(Line Move)
X22.3342 Y-29.7462 Z-.1196
(Line Move)
X22.942 Y-29.0929 Z-.1196
(Line Move)
X23.6073 Y-28.4315 Z-.1196
(Line Move)
X24.08 Y-27.9869 Z-.1196
(Line Move)
X24.9255 Y-27.2402 Z-.1196
(Line Move)
X25.8202 Y-26.5122 Z-.1196
(Line Move)
X26.7636 Y-25.804 Z-.1196
(Line Move)
X27.7554 Y-25.117 Z-.1196
(Line Move)
X28.795 Y-24.4525 Z-.1196
(Line Move)
X29.882 Y-23.8119 Z-.1196
(Line Move)
X30.8849 Y-23.264 Z-.1196
(Line Move)
X31.9115 Y-22.746 Z-.1196
(Line Move)
X33.2043 Y-22.145 Z-.1196
(Line Move)
X34.533 Y-21.584 Z-.1196
(Line Move)
X35.8959 Y-21.0637 Z-.1196
(Line Move)
X36.6786 Y-20.7882 Z-.1196
(Line Move)
X38.0895 Y-20.3302 Z-.1196
(Line Move)
X39.5302 Y-19.9146 Z-.1196
(Line Move)
X40.9988 Y-19.5425 Z-.1196
(Line Move)
X42.4937 Y-19.2144 Z-.1196
(Line Move)
X44.0132 Y-18.9315 Z-.1196
(Line Move)
X45.0089 Y-18.7728 Z-.1196
(Line Move)
X46.5902 Y-18.5631 Z-.1196
(Line Move)
X48.1741 Y-18.4041 Z-.1196
(Line Move)
X49.7587 Y-18.295 Z-.1196
(Line Move)
X51.3427 Y-18.2355 Z-.1196
(Line Move)
X52.925 Y-18.225 Z-.1196
(Line Move)
X54.5042 Y-18.2633 Z-.1196
(Line Move)
X56.0792 Y-18.3503 Z-.1196
(Line Move)
X56.7446 Y-18.4051 Z-.1196
(Line Move)
X56.7881 Y-17.8633 Z-.1798
(Line Move)
X57.3941 Y-17.9119 Z-.1798
(Line Move)
X58.2794 Y-18.0026 Z-.1798
(Line Move)
X59.5035 Y-18.1545 Z-.1798
(Line Move)
X60.9673 Y-18.3763 Z-.1798
(Line Move)
X62.4101 Y-18.6389 Z-.1798
(Line Move)
X63.8308 Y-18.9415 Z-.1798
(Line Move)
X65.2287 Y-19.2835 Z-.1798
(Line Move)
X66.6029 Y-19.6644 Z-.1798
(Line Move)
X67.9525 Y-20.0837 Z-.1798
(Line Move)
X69.2766 Y-20.541 Z-.1798
(Line Move)
X70.5743 Y-21.0363 Z-.1798
(Line Move)
X71.8444 Y-21.5692 Z-.1798
(Line Move)
X73.0859 Y-22.1398 Z-.1798
(Line Move)
X74.0945 Y-22.6424 Z-.1798
(Line Move)
X75.1468 Y-23.2075 Z-.1798
(Line Move)
X75.7422 Y-23.5455 Z-.1798
(Line Move)
X76.7429 Y-24.1472 Z-.1798
(Line Move)
X77.7084 Y-24.7726 Z-.1798
(Line Move)
X78.6381 Y-25.4212 Z-.1798
(Line Move)
X79.5314 Y-26.0926 Z-.1798
(Line Move)
X80.3876 Y-26.7865 Z-.1798
(Line Move)
X81.2058 Y-27.5026 Z-.1798
(Line Move)
X81.6827 Y-27.9471 Z-.1798
(Line Move)
X82.3421 Y-28.5997 Z-.1798
(Line Move)
X82.9654 Y-29.2627 Z-.1798
(Line Move)
X83.5523 Y-29.9357 Z-.1798
(Line Move)
X84.1029 Y-30.6183 Z-.1798
(Line Move)
X84.9161 Y-31.7351 Z-.1798
(Line Move)
X85.3749 Y-32.4402 Z-.1798
(Line Move)
X85.6663 Y-32.9257 Z-.1798
(Line Move)
X86.0226 Y-33.5696 Z-.1798
(Line Move)
X86.3462 Y-34.2155 Z-.1798
(Line Move)
X86.637 Y-34.8628 Z-.1798
(Line Move)
X86.8954 Y-35.5114 Z-.1798
(Line Move)
X87.1216 Y-36.1614 Z-.1798
(Line Move)
X87.3156 Y-36.8132 Z-.1798
(Line Move)
X87.5168 Y-37.6477 Z-.1798
(Line Move)
X87.639 Y-38.2841 Z-.1798
(Line Move)
X87.7303 Y-38.9198 Z-.1798
(Line Move)
X87.7909 Y-39.5548 Z-.1798
(Line Move)
X87.821 Y-40.1897 Z-.1798
(Line Move)
X87.8206 Y-40.828 Z-.1798
(Line Move)
X87.7882 Y-41.4819 Z-.1798
(Line Move)
X87.7237 Y-42.1343 Z-.1798
(Line Move)
X87.5518 Y-43.1929 Z-.1798
(Line Move)
X87.4057 Y-43.8482 Z-.1798
(Line Move)
X87.2259 Y-44.507 Z-.1798
(Line Move)
X87.0111 Y-45.1702 Z-.1798
(Line Move)
X86.7798 Y-45.7896 Z-.1798
(Line Move)
X86.4718 Y-46.5129 Z-.1798
(Line Move)
X86.1225 Y-47.2355 Z-.1798
(Line Move)
X85.7312 Y-47.9579 Z-.1798
(Line Move)
X85.2968 Y-48.6801 Z-.1798
(Line Move)
X85.012 Y-49.1203 Z-.1798
(Line Move)
X84.5109 Y-49.842 Z-.1798
(Line Move)
X83.9637 Y-50.5628 Z-.1798
(Line Move)
X83.5463 Y-51.074 Z-.1798
(Line Move)
X82.8609 Y-51.8534 Z-.1798
(Line Move)
X82.1262 Y-52.6198 Z-.1798
(Line Move)
X81.342 Y-53.3724 Z-.1798
(Line Move)
X80.5083 Y-54.1103 Z-.1798
(Line Move)
X79.6252 Y-54.8323 Z-.1798
(Line Move)
X78.6925 Y-55.5371 Z-.1798
(Line Move)
X77.7103 Y-56.2233 Z-.1798
(Line Move)
X77.2745 Y-56.511 Z-.1798
(Line Move)
X76.1381 Y-57.2223 Z-.1798
(Line Move)
X74.9587 Y-57.8994 Z-.1798
(Line Move)
X73.7373 Y-58.5419 Z-.1798
(Line Move)
X72.4751 Y-59.1489 Z-.1798
(Line Move)
X71.1736 Y-59.7194 Z-.1798
(Line Move)
X69.8343 Y-60.2524 Z-.1798
(Line Move)
X68.4586 Y-60.747 Z-.1798
(Line Move)
X67.0478 Y-61.2019 Z-.1798
(Line Move)
X65.6033 Y-61.6161 Z-.1798
(Line Move)
X64.5946 Y-61.8758 Z-.1798
(Line Move)
X63.0457 Y-62.2294 Z-.1798
(Line Move)
X61.4822 Y-62.5328 Z-.1798
(Line Move)
X60.6026 Y-62.6801 Z-.1798
(Line Move)
X59.0213 Y-62.9085 Z-.1798
(Line Move)
X57.4308 Y-63.0871 Z-.1798
(Line Move)
X55.8331 Y-63.2159 Z-.1798
(Line Move)
X54.2314 Y-63.2949 Z-.1798
(Line Move)
X52.6276 Y-63.3241 Z-.1798
(Line Move)
X51.0231 Y-63.3036 Z-.1798
(Line Move)
X49.4189 Y-63.2332 Z-.1798
(Line Move)
X48.4879 Y-63.1694 Z-.1798
(Line Move)
X46.9875 Y-63.0305 Z-.1798
(Line Move)
X45.5056 Y-62.8492 Z-.1798
(Line Move)
X44.0431 Y-62.6262 Z-.1798
(Line Move)
X42.6008 Y-62.3624 Z-.1798
(Line Move)
X41.1795 Y-62.0583 Z-.1798
(Line Move)
X39.7801 Y-61.7145 Z-.1798
(Line Move)
X38.998 Y-61.5027 Z-.1798
(Line Move)
X37.6331 Y-61.1001 Z-.1798
(Line Move)
X36.2924 Y-60.6588 Z-.1798
(Line Move)
X34.9768 Y-60.1788 Z-.1798
(Line Move)
X33.6874 Y-59.6603 Z-.1798
(Line Move)
X32.4254 Y-59.1033 Z-.1798
(Line Move)
X31.3577 Y-58.5907 Z-.1798
(Line Move)
X30.2817 Y-58.0326 Z-.1798
(Line Move)
X29.2398 Y-57.4489 Z-.1798
(Line Move)
X28.2325 Y-56.8402 Z-.1798
(Line Move)
X27.2604 Y-56.207 Z-.1798
(Line Move)
X26.3242 Y-55.5498 Z-.1798
(Line Move)
X25.4247 Y-54.8688 Z-.1798
(Line Move)
X24.9166 Y-54.4594 Z-.1798
(Line Move)
X24.0872 Y-53.7554 Z-.1798
(Line Move)
X23.383 Y-53.1123 Z-.1798
(Line Move)
X22.7151 Y-52.4577 Z-.1798
(Line Move)
X22.0835 Y-51.7921 Z-.1798
(Line Move)
X21.4882 Y-51.1159 Z-.1798
(Line Move)
X20.9295 Y-50.4296 Z-.1798
(Line Move)
X20.4075 Y-49.7335 Z-.1798
(Line Move)
X19.9225 Y-49.0279 Z-.1798
(Line Move)
X19.5297 Y-48.4044 Z-.1798
(Line Move)
X19.1576 Y-47.7592 Z-.1798
(Line Move)
X18.6202 Y-46.7032 Z-.1798
(Line Move)
X18.3306 Y-46.0535 Z-.1798
(Line Move)
X18.0735 Y-45.4023 Z-.1798
(Line Move)
X17.8488 Y-44.7493 Z-.1798
(Line Move)
X17.6565 Y-44.0942 Z-.1798
(Line Move)
X17.5418 Y-43.6375 Z-.1798
(Line Move)
X17.407 Y-42.9935 Z-.1798
(Line Move)
X17.3041 Y-42.3512 Z-.1798
(Line Move)
X17.2327 Y-41.7128 Z-.1798
(Line Move)
X17.1806 Y-40.6663 Z-.1798
(Line Move)
X17.1858 Y-40.0326 Z-.1798
(Line Move)
X17.2216 Y-39.3983 Z-.1798
(Line Move)
X17.288 Y-38.7618 Z-.1798
(Line Move)
X17.3638 Y-38.2492 Z-.1798
(Line Move)
X17.4936 Y-37.5764 Z-.1798
(Line Move)
X17.6578 Y-36.9036 Z-.1798
(Line Move)
X17.8572 Y-36.2293 Z-.1798
(Line Move)
X18.0925 Y-35.5524 Z-.1798
(Line Move)
X18.5514 Y-34.4435 Z-.1798
(Line Move)
X18.7753 Y-33.97 Z-.1798
(Line Move)
X19.1671 Y-33.2197 Z-.1798
(Line Move)
X19.6026 Y-32.4735 Z-.1798
(Line Move)
X20.0831 Y-31.7304 Z-.1798
(Line Move)
X20.6093 Y-30.9905 Z-.1798
(Line Move)
X21.1821 Y-30.2544 Z-.1798
(Line Move)
X21.8024 Y-29.5227 Z-.1798
(Line Move)
X22.4712 Y-28.7962 Z-.1798
(Line Move)
X23.0725 Y-28.1894 Z-.1798
(Line Move)
X23.5487 Y-27.7352 Z-.1798
(Line Move)
X24.4011 Y-26.9701 Z-.1798
(Line Move)
X25.3029 Y-26.2247 Z-.1798
(Line Move)
X26.2535 Y-25.4999 Z-.1798
(Line Move)
X27.2525 Y-24.797 Z-.1798
(Line Move)
X28.2995 Y-24.1171 Z-.1798
(Line Move)
X29.394 Y-23.4618 Z-.1798
(Line Move)
X30.5354 Y-22.8323 Z-.1798
(Line Move)
X31.4207 Y-22.3788 Z-.1798
(Line Move)
X32.724 Y-21.7617 Z-.1798
(Line Move)
X34.0634 Y-21.1852 Z-.1798
(Line Move)
X35.4372 Y-20.6501 Z-.1798
(Line Move)
X36.2255 Y-20.3674 Z-.1798
(Line Move)
X37.6476 Y-19.8954 Z-.1798
(Line Move)
X39.0997 Y-19.4665 Z-.1798
(Line Move)
X40.5801 Y-19.0813 Z-.1798
(Line Move)
X42.087 Y-18.7407 Z-.1798
(Line Move)
X43.6188 Y-18.4456 Z-.1798
(Line Move)
X44.6162 Y-18.2802 Z-.1798
(Line Move)
X46.2139 Y-18.0581 Z-.1798
(Line Move)
X47.8146 Y-17.8874 Z-.1798
(Line Move)
X49.4162 Y-17.7674 Z-.1798
(Line Move)
X51.0174 Y-17.6974 Z-.1798
(Line Move)
X52.617 Y-17.6772 Z-.1798
(Line Move)
X54.2137 Y-17.7062 Z-.1798
(Line Move)
X55.8065 Y-17.7845 Z-.1798
(Line Move)
X56.7881 Y-17.8633 Z-.1798
(Line Move)
X56.8366 Y-17.2592 Z-.2799
(Line Move)
X57.452 Y-17.3086 Z-.2799
(Line Move)
X58.3467 Y-17.4002 Z-.2799
(Line Move)
X59.5854 Y-17.5539 Z-.2799
(Line Move)
X61.067 Y-17.7784 Z-.2799
(Line Move)
X62.5275 Y-18.0443 Z-.2799
(Line Move)
X63.966 Y-18.3507 Z-.2799
(Line Move)
X65.3816 Y-18.697 Z-.2799
(Line Move)
X66.7737 Y-19.0828 Z-.2799
(Line Move)
X68.1413 Y-19.5077 Z-.2799
(Line Move)
X69.4836 Y-19.9714 Z-.2799
(Line Move)
X70.7996 Y-20.4735 Z-.2799
(Line Move)
X72.0882 Y-21.0142 Z-.2799
(Line Move)
X73.3484 Y-21.5935 Z-.2799
(Line Move)
X74.3727 Y-22.1039 Z-.2799
(Line Move)
X75.4421 Y-22.6781 Z-.2799
(Line Move)
X76.046 Y-23.021 Z-.2799
(Line Move)
X77.0638 Y-23.633 Z-.2799
(Line Move)
X78.0465 Y-24.2696 Z-.2799
(Line Move)
X78.9936 Y-24.9303 Z-.2799
(Line Move)
X79.9043 Y-25.6148 Z-.2799
(Line Move)
X80.778 Y-26.3228 Z-.2799
(Line Move)
X81.6138 Y-27.0543 Z-.2799
(Line Move)
X82.1013 Y-27.5088 Z-.2799
(Line Move)
X82.7762 Y-28.1766 Z-.2799
(Line Move)
X83.4146 Y-28.8558 Z-.2799
(Line Move)
X84.0166 Y-29.5461 Z-.2799
(Line Move)
X84.5821 Y-30.2471 Z-.2799
(Line Move)
X85.417 Y-31.3939 Z-.2799
(Line Move)
X85.8899 Y-32.1206 Z-.2799
(Line Move)
X86.1906 Y-32.6216 Z-.2799
(Line Move)
X86.5588 Y-33.287 Z-.2799
(Line Move)
X86.8937 Y-33.9555 Z-.2799
(Line Move)
X87.1951 Y-34.6263 Z-.2799
(Line Move)
X87.4633 Y-35.2995 Z-.2799
(Line Move)
X87.6984 Y-35.9753 Z-.2799
(Line Move)
X87.9004 Y-36.6537 Z-.2799
(Line Move)
X88.1093 Y-37.5197 Z-.2799
(Line Move)
X88.2367 Y-38.1838 Z-.2799
(Line Move)
X88.3321 Y-38.8479 Z-.2799
(Line Move)
X88.3955 Y-39.5116 Z-.2799
(Line Move)
X88.427 Y-40.1755 Z-.2799
(Line Move)
X88.4266 Y-40.843 Z-.2799
(Line Move)
X88.3927 Y-41.5268 Z-.2799
(Line Move)
X88.3252 Y-42.2087 Z-.2799
(Line Move)
X88.1464 Y-43.3105 Z-.2799
(Line Move)
X87.994 Y-43.994 Z-.2799
(Line Move)
X87.8067 Y-44.6802 Z-.2799
(Line Move)
X87.5833 Y-45.3701 Z-.2799
(Line Move)
X87.3431 Y-46.0135 Z-.2799
(Line Move)
X87.0236 Y-46.7636 Z-.2799
(Line Move)
X86.662 Y-47.5119 Z-.2799
(Line Move)
X86.2575 Y-48.2586 Z-.2799
(Line Move)
X85.8092 Y-49.0039 Z-.2799
(Line Move)
X85.5173 Y-49.4552 Z-.2799
(Line Move)
X85.0013 Y-50.1983 Z-.2799
(Line Move)
X84.4387 Y-50.9392 Z-.2799
(Line Move)
X84.0102 Y-51.4641 Z-.2799
(Line Move)
X83.3073 Y-52.2634 Z-.2799
(Line Move)
X82.5549 Y-53.0483 Z-.2799
(Line Move)
X81.7528 Y-53.8182 Z-.2799
(Line Move)
X80.9011 Y-54.572 Z-.2799
(Line Move)
X79.9997 Y-55.3089 Z-.2799
(Line Move)
X79.0488 Y-56.0275 Z-.2799
(Line Move)
X78.0483 Y-56.7265 Z-.2799
(Line Move)
X77.6061 Y-57.0184 Z-.2799
(Line Move)
X76.4498 Y-57.7421 Z-.2799
(Line Move)
X75.2507 Y-58.4306 Z-.2799
(Line Move)
X74.0097 Y-59.0833 Z-.2799
(Line Move)
X72.7281 Y-59.6997 Z-.2799
(Line Move)
X71.4074 Y-60.2786 Z-.2799
(Line Move)
X70.0489 Y-60.8193 Z-.2799
(Line Move)
X68.6541 Y-61.3207 Z-.2799
(Line Move)
X67.2243 Y-61.7818 Z-.2799
(Line Move)
X65.761 Y-62.2014 Z-.2799
(Line Move)
X64.7393 Y-62.4644 Z-.2799
(Line Move)
X63.1708 Y-62.8225 Z-.2799
(Line Move)
X61.588 Y-63.1297 Z-.2799
(Line Move)
X60.6988 Y-63.2785 Z-.2799
(Line Move)
X59.0984 Y-63.5097 Z-.2799
(Line Move)
X57.4889 Y-63.6904 Z-.2799
(Line Move)
X55.8723 Y-63.8208 Z-.2799
(Line Move)
X54.2518 Y-63.9007 Z-.2799
(Line Move)
X52.6293 Y-63.9302 Z-.2799
(Line Move)
X51.0059 Y-63.9095 Z-.2799
(Line Move)
X49.3829 Y-63.8383 Z-.2799
(Line Move)
X48.4409 Y-63.7737 Z-.2799
(Line Move)
X46.9227 Y-63.6332 Z-.2799
(Line Move)
X45.4231 Y-63.4497 Z-.2799
(Line Move)
X43.9429 Y-63.224 Z-.2799
(Line Move)
X42.4828 Y-62.9569 Z-.2799
(Line Move)
X41.0438 Y-62.6491 Z-.2799
(Line Move)
X39.6265 Y-62.3009 Z-.2799
(Line Move)
X38.8356 Y-62.0866 Z-.2799
(Line Move)
X37.4527 Y-61.6788 Z-.2799
(Line Move)
X36.0938 Y-61.2314 Z-.2799
(Line Move)
X34.7599 Y-60.7448 Z-.2799
(Line Move)
X33.452 Y-60.2189 Z-.2799
(Line Move)
X32.1712 Y-59.6535 Z-.2799
(Line Move)
X31.0872 Y-59.1331 Z-.2799
(Line Move)
X29.9941 Y-58.5661 Z-.2799
(Line Move)
X28.9349 Y-57.9728 Z-.2799
(Line Move)
X27.9103 Y-57.3536 Z-.2799
(Line Move)
X26.9208 Y-56.7091 Z-.2799
(Line Move)
X25.9672 Y-56.0396 Z-.2799
(Line Move)
X25.0501 Y-55.3453 Z-.2799
(Line Move)
X24.5331 Y-54.9287 Z-.2799
(Line Move)
X23.6863 Y-54.21 Z-.2799
(Line Move)
X22.9665 Y-53.5526 Z-.2799
(Line Move)
X22.2831 Y-52.8829 Z-.2799
(Line Move)
X21.6362 Y-52.2011 Z-.2799
(Line Move)
X21.0257 Y-51.5076 Z-.2799
(Line Move)
X20.452 Y-50.8029 Z-.2799
(Line Move)
X19.9152 Y-50.0872 Z-.2799
(Line Move)
X19.4158 Y-49.3605 Z-.2799
(Line Move)
X19.0108 Y-48.7176 Z-.2799
(Line Move)
X18.6265 Y-48.0513 Z-.2799
(Line Move)
X18.072 Y-46.9617 Z-.2799
(Line Move)
X17.7718 Y-46.2883 Z-.2799
(Line Move)
X17.5049 Y-45.6123 Z-.2799
(Line Move)
X17.2714 Y-44.9334 Z-.2799
(Line Move)
X17.0711 Y-44.2515 Z-.2799
(Line Move)
X16.9515 Y-43.7755 Z-.2799
(Line Move)
X16.811 Y-43.1036 Z-.2799
(Line Move)
X16.7035 Y-42.4329 Z-.2799
(Line Move)
X16.6289 Y-41.7658 Z-.2799
(Line Move)
X16.5745 Y-40.6757 Z-.2799
(Line Move)
X16.58 Y-40.0131 Z-.2799
(Line Move)
X16.6174 Y-39.3498 Z-.2799
(Line Move)
X16.6868 Y-38.6845 Z-.2799
(Line Move)
X16.766 Y-38.1492 Z-.2799
(Line Move)
X16.9014 Y-37.447 Z-.2799
(Line Move)
X17.0726 Y-36.7457 Z-.2799
(Line Move)
X17.2801 Y-36.0437 Z-.2799
(Line Move)
X17.5248 Y-35.3401 Z-.2799
(Line Move)
X17.9995 Y-34.1929 Z-.2799
(Line Move)
X18.2314 Y-33.7025 Z-.2799
(Line Move)
X18.6366 Y-32.9265 Z-.2799
(Line Move)
X19.0863 Y-32.1561 Z-.2799
(Line Move)
X19.5815 Y-31.3901 Z-.2799
(Line Move)
X20.123 Y-30.6286 Z-.2799
(Line Move)
X20.7116 Y-29.8722 Z-.2799
(Line Move)
X21.3482 Y-29.1213 Z-.2799
(Line Move)
X22.0335 Y-28.3769 Z-.2799
(Line Move)
X22.6491 Y-27.7557 Z-.2799
(Line Move)
X23.1345 Y-27.2926 Z-.2799
(Line Move)
X24.0056 Y-26.5109 Z-.2799
(Line Move)
X24.926 Y-25.75 Z-.2799
(Line Move)
X25.8953 Y-25.0109 Z-.2799
(Line Move)
X26.913 Y-24.2948 Z-.2799
(Line Move)
X27.9787 Y-23.6028 Z-.2799
(Line Move)
X29.0919 Y-22.9363 Z-.2799
(Line Move)
X30.2521 Y-22.2965 Z-.2799
(Line Move)
X31.1513 Y-21.8358 Z-.2799
(Line Move)
X32.4745 Y-21.2093 Z-.2799
(Line Move)
X33.8336 Y-20.6243 Z-.2799
(Line Move)
X35.2269 Y-20.0816 Z-.2799
(Line Move)
X36.0249 Y-19.7954 Z-.2799
(Line Move)
X37.4663 Y-19.3171 Z-.2799
(Line Move)
X38.9375 Y-18.8825 Z-.2799
(Line Move)
X40.437 Y-18.4923 Z-.2799
(Line Move)
X41.9629 Y-18.1475 Z-.2799
(Line Move)
X43.5135 Y-17.8487 Z-.2799
(Line Move)
X44.5231 Y-17.6813 Z-.2799
(Line Move)
X46.1401 Y-17.4565 Z-.2799
(Line Move)
X47.7599 Y-17.2838 Z-.2799
(Line Move)
X49.3804 Y-17.1623 Z-.2799
(Line Move)
X51.0004 Y-17.0915 Z-.2799
(Line Move)
X52.6187 Y-17.071 Z-.2799
(Line Move)
X54.2341 Y-17.1005 Z-.2799
(Line Move)
X55.8456 Y-17.1797 Z-.2799
(Line Move)
X56.8366 Y-17.2592 Z-.2799
(Line Move)
X56.8776 Y-16.704 Z-.38
(Line Move)
X57.2058 Y-16.7283 Z-.38
(Line Move)
X58.3835 Y-16.8448 Z-.38
(Line Move)
X59.6321 Y-16.9997 Z-.38
(Line Move)
X61.1256 Y-17.226 Z-.38
(Line Move)
X62.5981 Y-17.4941 Z-.38
(Line Move)
X64.0485 Y-17.803 Z-.38
(Line Move)
X65.4762 Y-18.1523 Z-.38
(Line Move)
X66.6714 Y-18.4801 Z-.38
(Line Move)
X68.0562 Y-18.9006 Z-.38
(Line Move)
X69.4159 Y-19.3604 Z-.38
(Line Move)
X70.7496 Y-19.8593 Z-.38
(Line Move)
X72.0564 Y-20.3972 Z-.38
(Line Move)
X73.3351 Y-20.9742 Z-.38
(Line Move)
X74.4028 Y-21.4971 Z-.38
(Line Move)
X75.4905 Y-22.072 Z-.38
(Line Move)
X76.2719 Y-22.5113 Z-.38
(Line Move)
X77.1606 Y-23.044 Z-.38
(Line Move)
X78.1621 Y-23.683 Z-.38
(Line Move)
X79.1282 Y-24.3468 Z-.38
(Line Move)
X80.0581 Y-25.0351 Z-.38
(Line Move)
X80.9513 Y-25.7477 Z-.38
(Line Move)
X81.8067 Y-26.4846 Z-.38
(Line Move)
X82.3275 Y-26.9623 Z-.38
(Line Move)
X83.0199 Y-27.6376 Z-.38
(Line Move)
X83.6761 Y-28.3253 Z-.38
(Line Move)
X84.1718 Y-28.8771 Z-.38
(Line Move)
X84.7657 Y-29.5848 Z-.38
(Line Move)
X85.3227 Y-30.3039 Z-.38
(Line Move)
X85.7607 Y-30.9148 Z-.38
(Line Move)
X86.2508 Y-31.6538 Z-.38
(Line Move)
X86.622 Y-32.262 Z-.38
(Line Move)
X86.9555 Y-32.8581 Z-.38
(Line Move)
X87.305 Y-33.5411 Z-.38
(Line Move)
X87.5663 Y-34.0975 Z-.38
(Line Move)
X87.858 Y-34.7858 Z-.38
(Line Move)
X88.1159 Y-35.4773 Z-.38
(Line Move)
X88.3401 Y-36.172 Z-.38
(Line Move)
X88.5306 Y-36.8702 Z-.38
(Line Move)
X88.7478 Y-37.8962 Z-.38
(Line Move)
X88.838 Y-38.4578 Z-.38
(Line Move)
X88.9196 Y-39.1409 Z-.38
(Line Move)
X88.9685 Y-39.8241 Z-.38
(Line Move)
X88.9845 Y-40.5 Z-.38
(Line Move)
X88.967 Y-41.2055 Z-.38
(Line Move)
X88.9242 Y-41.8059 Z-.38
(Line Move)
X88.8445 Y-42.5074 Z-.38
(Line Move)
X88.7627 Y-43.0344 Z-.38
(Line Move)
X88.6238 Y-43.7361 Z-.38
(Line Move)
X88.4494 Y-44.4395 Z-.38
(Line Move)
X88.2602 Y-45.0777 Z-.38
(Line Move)
X88.0378 Y-45.7386 Z-.38
(Line Move)
X87.7562 Y-46.4635 Z-.38
(Line Move)
X87.4165 Y-47.2309 Z-.38
(Line Move)
X87.0338 Y-47.9956 Z-.38
(Line Move)
X86.6074 Y-48.7581 Z-.38
(Line Move)
X86.2604 Y-49.327 Z-.38
(Line Move)
X85.8182 Y-49.9971 Z-.38
(Line Move)
X85.2785 Y-50.7538 Z-.38
(Line Move)
X84.814 Y-51.3571 Z-.38
(Line Move)
X84.2279 Y-52.0605 Z-.38
(Line Move)
X83.4986 Y-52.8687 Z-.38
(Line Move)
X82.7195 Y-53.6615 Z-.38
(Line Move)
X81.8906 Y-54.438 Z-.38
(Line Move)
X81.0121 Y-55.1975 Z-.38
(Line Move)
X80.302 Y-55.7741 Z-.38
(Line Move)
X79.3387 Y-56.502 Z-.38
(Line Move)
X78.3259 Y-57.2097 Z-.38
(Line Move)
X77.5842 Y-57.6928 Z-.38
(Line Move)
X76.402 Y-58.4142 Z-.38
(Line Move)
X75.1771 Y-59.0996 Z-.38
(Line Move)
X73.9109 Y-59.7485 Z-.38
(Line Move)
X72.6046 Y-60.36 Z-.38
(Line Move)
X71.5869 Y-60.8006 Z-.38
(Line Move)
X70.2155 Y-61.3465 Z-.38
(Line Move)
X68.8078 Y-61.8525 Z-.38
(Line Move)
X67.3652 Y-62.3177 Z-.38
(Line Move)
X65.8891 Y-62.7409 Z-.38
(Line Move)
X64.8587 Y-63.0063 Z-.38
(Line Move)
X63.2771 Y-63.3673 Z-.38
(Line Move)
X61.6812 Y-63.677 Z-.38
(Line Move)
X60.3656 Y-63.891 Z-.38
(Line Move)
X58.7495 Y-64.1091 Z-.38
(Line Move)
X57.5247 Y-64.2423 Z-.38
(Line Move)
X55.8954 Y-64.3736 Z-.38
(Line Move)
X54.2621 Y-64.4541 Z-.38
(Line Move)
X52.6269 Y-64.4839 Z-.38
(Line Move)
X50.9909 Y-64.463 Z-.38
(Line Move)
X49.3552 Y-64.3913 Z-.38
(Line Move)
X48.4058 Y-64.3261 Z-.38
(Line Move)
X46.8756 Y-64.1845 Z-.38
(Line Move)
X45.364 Y-63.9996 Z-.38
(Line Move)
X43.8718 Y-63.7721 Z-.38
(Line Move)
X42.6216 Y-63.5452 Z-.38
(Line Move)
X41.1662 Y-63.2432 Z-.38
(Line Move)
X39.7324 Y-62.9004 Z-.38
(Line Move)
X38.6968 Y-62.6253 Z-.38
(Line Move)
X37.3018 Y-62.2138 Z-.38
(Line Move)
X35.9307 Y-61.7625 Z-.38
(Line Move)
X34.5844 Y-61.2713 Z-.38
(Line Move)
X33.2641 Y-60.7404 Z-.38
(Line Move)
X31.9707 Y-60.1694 Z-.38
(Line Move)
X30.8755 Y-59.6437 Z-.38
(Line Move)
X29.9243 Y-59.1525 Z-.38
(Line Move)
X28.8465 Y-58.5582 Z-.38
(Line Move)
X27.8032 Y-57.9374 Z-.38
(Line Move)
X26.7947 Y-57.2905 Z-.38
(Line Move)
X25.8219 Y-56.618 Z-.38
(Line Move)
X24.8854 Y-55.9199 Z-.38
(Line Move)
X24.2164 Y-55.3885 Z-.38
(Line Move)
X23.3578 Y-54.6597 Z-.38
(Line Move)
X22.6275 Y-53.9928 Z-.38
(Line Move)
X22.0164 Y-53.3968 Z-.38
(Line Move)
X21.3516 Y-52.7067 Z-.38
(Line Move)
X20.9036 Y-52.2129 Z-.38
(Line Move)
X20.3013 Y-51.5017 Z-.38
(Line Move)
X19.736 Y-50.7786 Z-.38
(Line Move)
X19.208 Y-50.0437 Z-.38
(Line Move)
X18.7178 Y-49.2971 Z-.38
(Line Move)
X18.3444 Y-48.6761 Z-.38
(Line Move)
X17.7379 Y-47.5459 Z-.38
(Line Move)
X17.4135 Y-46.8583 Z-.38
(Line Move)
X17.1232 Y-46.1672 Z-.38
(Line Move)
X16.8666 Y-45.4726 Z-.38
(Line Move)
X16.644 Y-44.7744 Z-.38
(Line Move)
X16.4555 Y-44.0724 Z-.38
(Line Move)
X16.3463 Y-43.5898 Z-.38
(Line Move)
X16.2258 Y-42.962 Z-.38
(Line Move)
X16.1252 Y-42.273 Z-.38
(Line Move)
X16.0583 Y-41.5874 Z-.38
(Line Move)
X16.0288 Y-41.0666 Z-.38
(Line Move)
X16.0182 Y-40.3842 Z-.38
(Line Move)
X16.0402 Y-39.7018 Z-.38
(Line Move)
X16.0882 Y-39.0782 Z-.38
(Line Move)
X16.1695 Y-38.3927 Z-.38
(Line Move)
X16.2609 Y-37.8315 Z-.38
(Line Move)
X16.4109 Y-37.1101 Z-.38
(Line Move)
X16.5977 Y-36.3896 Z-.38
(Line Move)
X16.8218 Y-35.6687 Z-.38
(Line Move)
X17.0306 Y-35.0845 Z-.38
(Line Move)
X17.2736 Y-34.4739 Z-.38
(Line Move)
X17.5949 Y-33.7486 Z-.38
(Line Move)
X17.8511 Y-33.2263 Z-.38
(Line Move)
X18.2784 Y-32.4353 Z-.38
(Line Move)
X18.7511 Y-31.6501 Z-.38
(Line Move)
X19.27 Y-30.8702 Z-.38
(Line Move)
X19.8358 Y-30.0959 Z-.38
(Line Move)
X20.3113 Y-29.4896 Z-.38
(Line Move)
X20.9588 Y-28.7258 Z-.38
(Line Move)
X21.6553 Y-27.9692 Z-.38
(Line Move)
X22.2804 Y-27.3383 Z-.38
(Line Move)
X22.9886 Y-26.672 Z-.38
(Line Move)
X23.8868 Y-25.8853 Z-.38
(Line Move)
X24.8342 Y-25.1206 Z-.38
(Line Move)
X25.8305 Y-24.3789 Z-.38
(Line Move)
X26.6263 Y-23.8226 Z-.38
(Line Move)
X27.7046 Y-23.1224 Z-.38
(Line Move)
X28.8304 Y-22.4483 Z-.38
(Line Move)
X30.0032 Y-21.8015 Z-.38
(Line Move)
X30.9118 Y-21.336 Z-.38
(Line Move)
X32.2485 Y-20.7031 Z-.38
(Line Move)
X33.6209 Y-20.1125 Z-.38
(Line Move)
X35.0273 Y-19.5646 Z-.38
(Line Move)
X36.2058 Y-19.1487 Z-.38
(Line Move)
X37.3101 Y-18.7857 Z-.38
(Line Move)
X38.7942 Y-18.3472 Z-.38
(Line Move)
X40.3065 Y-17.9538 Z-.38
(Line Move)
X41.8452 Y-17.606 Z-.38
(Line Move)
X43.4086 Y-17.3048 Z-.38
(Line Move)
X44.4264 Y-17.136 Z-.38
(Line Move)
X46.0564 Y-16.9094 Z-.38
(Line Move)
X47.689 Y-16.7353 Z-.38
(Line Move)
X49.3223 Y-16.6129 Z-.38
(Line Move)
X50.955 Y-16.5416 Z-.38
(Line Move)
X52.3319 Y-16.5197 Z-.38
(Line Move)
X53.9606 Y-16.5391 Z-.38
(Line Move)
X55.5856 Y-16.6086 Z-.38
(Line Move)
X56.8776 Y-16.704 Z-.38
(Line Move)
X56.9356 Y-16.0994 Z-.5195
(Line Move)
X58.4331 Y-16.2431 Z-.5195
(Line Move)
X59.6938 Y-16.3995 Z-.5195
(Line Move)
X61.202 Y-16.628 Z-.5195
(Line Move)
X62.6891 Y-16.8987 Z-.5195
(Line Move)
X64.1542 Y-17.2108 Z-.5195
(Line Move)
X65.5966 Y-17.5637 Z-.5195
(Line Move)
X66.4413 Y-17.79 Z-.5195
(Line Move)
X67.8482 Y-18.2033 Z-.5195
(Line Move)
X69.2304 Y-18.6565 Z-.5195
(Line Move)
X70.5869 Y-19.1494 Z-.5195
(Line Move)
X71.917 Y-19.6819 Z-.5195
(Line Move)
X73.2195 Y-20.2541 Z-.5195
(Line Move)
X74.3481 Y-20.7936 Z-.5195
(Line Move)
X75.4597 Y-21.368 Z-.5195
(Line Move)
X76.5376 Y-21.9692 Z-.5195
(Line Move)
X77.1803 Y-22.3511 Z-.5195
(Line Move)
X78.2065 Y-22.9915 Z-.5195
(Line Move)
X79.1973 Y-23.6576 Z-.5195
(Line Move)
X80.1524 Y-24.3491 Z-.5195
(Line Move)
X81.0709 Y-25.0659 Z-.5195
(Line Move)
X81.9521 Y-25.8078 Z-.5195
(Line Move)
X82.52 Y-26.318 Z-.5195
(Line Move)
X83.2355 Y-27.0014 Z-.5195
(Line Move)
X83.9151 Y-27.6985 Z-.5195
(Line Move)
X84.9571 Y-28.8701 Z-.5195
(Line Move)
X85.5448 Y-29.5987 Z-.5195
(Line Move)
X86.0953 Y-30.3396 Z-.5195
(Line Move)
X86.6083 Y-31.0927 Z-.5195
(Line Move)
X87.0832 Y-31.858 Z-.5195
(Line Move)
X87.3624 Y-32.3461 Z-.5195
(Line Move)
X87.7315 Y-33.0464 Z-.5195
(Line Move)
X88.2784 Y-34.2281 Z-.5195
(Line Move)
X88.5614 Y-34.9383 Z-.5195
(Line Move)
X88.8098 Y-35.6526 Z-.5195
(Line Move)
X89.0237 Y-36.3711 Z-.5195
(Line Move)
X89.2029 Y-37.094 Z-.5195
(Line Move)
X89.2963 Y-37.5448 Z-.5195
(Line Move)
X89.4812 Y-38.7399 Z-.5195
(Line Move)
X89.5487 Y-39.4467 Z-.5195
(Line Move)
X89.5823 Y-40.1542 Z-.5195
(Line Move)
X89.5818 Y-40.8656 Z-.5195
(Line Move)
X89.5089 Y-42.0284 Z-.5195
(Line Move)
X89.4192 Y-42.7539 Z-.5195
(Line Move)
X89.2937 Y-43.479 Z-.5195
(Line Move)
X89.1319 Y-44.2046 Z-.5195
(Line Move)
X88.9334 Y-44.932 Z-.5195
(Line Move)
X88.5556 Y-46.0748 Z-.5195
(Line Move)
X88.2403 Y-46.8679 Z-.5195
(Line Move)
X87.882 Y-47.6563 Z-.5195
(Line Move)
X87.4798 Y-48.4412 Z-.5195
(Line Move)
X87.0332 Y-49.2228 Z-.5195
(Line Move)
X86.5413 Y-50.0013 Z-.5195
(Line Move)
X86.202 Y-50.5029 Z-.5195
(Line Move)
X85.6403 Y-51.2761 Z-.5195
(Line Move)
X85.2428 Y-51.785 Z-.5195
(Line Move)
X84.5379 Y-52.6233 Z-.5195
(Line Move)
X83.7838 Y-53.4443 Z-.5195
(Line Move)
X82.9797 Y-54.2486 Z-.5195
(Line Move)
X82.1258 Y-55.0354 Z-.5195
(Line Move)
X81.2221 Y-55.8041 Z-.5195
(Line Move)
X80.6461 Y-56.2682 Z-.5195
(Line Move)
X79.6678 Y-57.0075 Z-.5195
(Line Move)
X78.6398 Y-57.7257 Z-.5195
(Line Move)
X77.6791 Y-58.3487 Z-.5195
(Line Move)
X76.4718 Y-59.0725 Z-.5195
(Line Move)
X75.222 Y-59.7594 Z-.5195
(Line Move)
X73.9313 Y-60.4088 Z-.5195
(Line Move)
X72.601 Y-61.0199 Z-.5195
(Line Move)
X71.7953 Y-61.3637 Z-.5195
(Line Move)
X70.4081 Y-61.9159 Z-.5195
(Line Move)
X68.9846 Y-62.4275 Z-.5195
(Line Move)
X67.5264 Y-62.8978 Z-.5195
(Line Move)
X66.0346 Y-63.3255 Z-.5195
(Line Move)
X64.9935 Y-63.5936 Z-.5195
(Line Move)
X63.3957 Y-63.9584 Z-.5195
(Line Move)
X61.7839 Y-64.2712 Z-.5195
(Line Move)
X60.1601 Y-64.5323 Z-.5195
(Line Move)
X58.5264 Y-64.7419 Z-.5195
(Line Move)
X57.5704 Y-64.8418 Z-.5195
(Line Move)
X55.9254 Y-64.9744 Z-.5195
(Line Move)
X54.2766 Y-65.0557 Z-.5195
(Line Move)
X52.6259 Y-65.0858 Z-.5195
(Line Move)
X50.9743 Y-65.0647 Z-.5195
(Line Move)
X49.3231 Y-64.9922 Z-.5195
(Line Move)
X48.3646 Y-64.9265 Z-.5195
(Line Move)
X46.8197 Y-64.7835 Z-.5195
(Line Move)
X45.2934 Y-64.5968 Z-.5195
(Line Move)
X43.7866 Y-64.3671 Z-.5195
(Line Move)
X42.9063 Y-64.211 Z-.5195
(Line Move)
X41.43 Y-63.9181 Z-.5195
(Line Move)
X39.975 Y-63.5839 Z-.5195
(Line Move)
X38.5422 Y-63.2087 Z-.5195
(Line Move)
X37.1323 Y-62.7929 Z-.5195
(Line Move)
X35.7462 Y-62.3366 Z-.5195
(Line Move)
X34.3848 Y-61.8399 Z-.5195
(Line Move)
X33.0492 Y-61.3028 Z-.5195
(Line Move)
X31.7403 Y-60.7251 Z-.5195
(Line Move)
X30.6316 Y-60.1928 Z-.5195
(Line Move)
X29.9466 Y-59.8431 Z-.5195
(Line Move)
X28.8447 Y-59.249 Z-.5195
(Line Move)
X27.7768 Y-58.6276 Z-.5195
(Line Move)
X26.7437 Y-57.9794 Z-.5195
(Line Move)
X25.7458 Y-57.3046 Z-.5195
(Line Move)
X24.784 Y-56.6035 Z-.5195
(Line Move)
X23.859 Y-55.8761 Z-.5195
(Line Move)
X22.9859 Y-55.135 Z-.5195
(Line Move)
X22.2428 Y-54.4564 Z-.5195
(Line Move)
X21.7869 Y-54.0166 Z-.5195
(Line Move)
X21.0985 Y-53.3172 Z-.5195
(Line Move)
X20.1349 Y-52.2431 Z-.5195
(Line Move)
X19.5386 Y-51.5108 Z-.5195
(Line Move)
X18.9798 Y-50.7655 Z-.5195
(Line Move)
X18.4587 Y-50.0074 Z-.5195
(Line Move)
X18.0353 Y-49.3353 Z-.5195
(Line Move)
X17.3779 Y-48.1671 Z-.5195
(Line Move)
X17.0273 Y-47.4625 Z-.5195
(Line Move)
X16.7112 Y-46.7535 Z-.5195
(Line Move)
X16.4296 Y-46.0402 Z-.5195
(Line Move)
X16.1827 Y-45.3224 Z-.5195
(Line Move)
X15.9706 Y-44.6001 Z-.5195
(Line Move)
X15.7355 Y-43.6051 Z-.5195
(Line Move)
X15.6036 Y-42.891 Z-.5195
(Line Move)
X15.5067 Y-42.1791 Z-.5195
(Line Move)
X15.4446 Y-41.4702 Z-.5195
(Line Move)
X15.4166 Y-40.7632 Z-.5195
(Line Move)
X15.4225 Y-40.0569 Z-.5195
(Line Move)
X15.5053 Y-38.8599 Z-.5195
(Line Move)
X15.5965 Y-38.1503 Z-.5195
(Line Move)
X15.698 Y-37.5624 Z-.5195
(Line Move)
X15.8608 Y-36.8175 Z-.5195
(Line Move)
X16.0614 Y-36.0738 Z-.5195
(Line Move)
X16.3005 Y-35.3303 Z-.5195
(Line Move)
X16.7821 Y-34.086 Z-.5195
(Line Move)
X17.121 Y-33.3397 Z-.5195
(Line Move)
X17.3975 Y-32.7886 Z-.5195
(Line Move)
X17.8453 Y-31.9785 Z-.5195
(Line Move)
X18.3394 Y-31.1749 Z-.5195
(Line Move)
X18.8803 Y-30.3778 Z-.5195
(Line Move)
X19.4687 Y-29.5873 Z-.5195
(Line Move)
X19.8647 Y-29.0867 Z-.5195
(Line Move)
X20.5256 Y-28.3071 Z-.5195
(Line Move)
X21.2358 Y-27.5356 Z-.5195
(Line Move)
X21.8726 Y-26.8929 Z-.5195
(Line Move)
X22.7468 Y-26.0749 Z-.5195
(Line Move)
X23.6706 Y-25.2794 Z-.5195
(Line Move)
X24.6435 Y-24.507 Z-.5195
(Line Move)
X25.6652 Y-23.7587 Z-.5195
(Line Move)
X26.3055 Y-23.3146 Z-.5195
(Line Move)
X27.3992 Y-22.6043 Z-.5195
(Line Move)
X28.5405 Y-21.9209 Z-.5195
(Line Move)
X29.7287 Y-21.2657 Z-.5195
(Line Move)
X30.649 Y-20.7942 Z-.5195
(Line Move)
X32.002 Y-20.1535 Z-.5195
(Line Move)
X33.3907 Y-19.5559 Z-.5195
(Line Move)
X34.8133 Y-19.0018 Z-.5195
(Line Move)
X36.2681 Y-18.4916 Z-.5195
(Line Move)
X37.1366 Y-18.2092 Z-.5195
(Line Move)
X38.6366 Y-17.7661 Z-.5195
(Line Move)
X40.1646 Y-17.3685 Z-.5195
(Line Move)
X41.719 Y-17.0172 Z-.5195
(Line Move)
X43.298 Y-16.713 Z-.5195
(Line Move)
X44.3259 Y-16.5425 Z-.5195
(Line Move)
X45.9717 Y-16.3138 Z-.5195
(Line Move)
X47.6202 Y-16.138 Z-.5195
(Line Move)
X49.269 Y-16.0144 Z-.5195
(Line Move)
X50.9173 Y-15.9424 Z-.5195
(Line Move)
X51.8774 Y-15.9208 Z-.5195
(Line Move)
X53.5226 Y-15.9254 Z-.5195
(Line Move)
X55.1643 Y-15.9806 Z-.5195
(Line Move)
X56.8015 Y-16.0865 Z-.5195
(Line Move)
X56.9356 Y-16.0994 Z-.5195
(Line Move)
X56.9928 Y-15.5039 Z-.659
(Line Move)
X58.4995 Y-15.6485 Z-.659
(Line Move)
X59.7747 Y-15.8067 Z-.659
(Line Move)
X61.3004 Y-16.0379 Z-.659
(Line Move)
X62.805 Y-16.3118 Z-.659
(Line Move)
X64.2876 Y-16.6276 Z-.659
(Line Move)
X65.7476 Y-16.9848 Z-.659
(Line Move)
X66.6011 Y-17.2135 Z-.659
(Line Move)
X68.0257 Y-17.632 Z-.659
(Line Move)
X69.4257 Y-18.091 Z-.659
(Line Move)
X70.8002 Y-18.5904 Z-.659
(Line Move)
X72.1484 Y-19.1302 Z-.659
(Line Move)
X73.4693 Y-19.7105 Z-.659
(Line Move)
X74.6143 Y-20.2579 Z-.659
(Line Move)
X75.7428 Y-20.8409 Z-.659
(Line Move)
X76.8375 Y-21.4515 Z-.659
(Line Move)
X77.4887 Y-21.8383 Z-.659
(Line Move)
X78.5317 Y-22.4894 Z-.659
(Line Move)
X79.5397 Y-23.1669 Z-.659
(Line Move)
X80.5119 Y-23.8709 Z-.659
(Line Move)
X81.4476 Y-24.6011 Z-.659
(Line Move)
X82.3461 Y-25.3576 Z-.659
(Line Move)
X82.9256 Y-25.8782 Z-.659
(Line Move)
X83.6563 Y-26.5761 Z-.659
(Line Move)
X84.3511 Y-27.2888 Z-.659
(Line Move)
X85.4154 Y-28.4855 Z-.659
(Line Move)
X86.0178 Y-29.2323 Z-.659
(Line Move)
X86.5827 Y-29.9926 Z-.659
(Line Move)
X87.1097 Y-30.7663 Z-.659
(Line Move)
X87.5984 Y-31.5537 Z-.659
(Line Move)
X87.8859 Y-32.0564 Z-.659
(Line Move)
X88.2664 Y-32.7784 Z-.659
(Line Move)
X88.8293 Y-33.9946 Z-.659
(Line Move)
X89.1219 Y-34.7292 Z-.659
(Line Move)
X89.3792 Y-35.4688 Z-.659
(Line Move)
X89.6009 Y-36.2136 Z-.659
(Line Move)
X89.7868 Y-36.9638 Z-.659
(Line Move)
X89.8839 Y-37.4321 Z-.659
(Line Move)
X90.0753 Y-38.6688 Z-.659
(Line Move)
X90.1455 Y-39.4041 Z-.659
(Line Move)
X90.1804 Y-40.1402 Z-.659
(Line Move)
X90.1799 Y-40.8804 Z-.659
(Line Move)
X90.1043 Y-42.0873 Z-.659
(Line Move)
X90.011 Y-42.8417 Z-.659
(Line Move)
X89.8806 Y-43.5951 Z-.659
(Line Move)
X89.7126 Y-44.3486 Z-.659
(Line Move)
X89.5067 Y-45.103 Z-.659
(Line Move)
X89.3491 Y-45.6116 Z-.659
(Line Move)
X89.1168 Y-46.2821 Z-.659
(Line Move)
X88.7907 Y-47.1023 Z-.659
(Line Move)
X88.4206 Y-47.9167 Z-.659
(Line Move)
X88.0059 Y-48.7262 Z-.659
(Line Move)
X87.5459 Y-49.5312 Z-.659
(Line Move)
X87.04 Y-50.3318 Z-.659
(Line Move)
X86.6934 Y-50.8441 Z-.659
(Line Move)
X86.1168 Y-51.6379 Z-.659
(Line Move)
X85.7093 Y-52.1597 Z-.659
(Line Move)
X84.9871 Y-53.0184 Z-.659
(Line Move)
X84.2157 Y-53.8583 Z-.659
(Line Move)
X83.394 Y-54.6802 Z-.659
(Line Move)
X82.5224 Y-55.4834 Z-.659
(Line Move)
X81.6008 Y-56.2673 Z-.659
(Line Move)
X81.0158 Y-56.7386 Z-.659
(Line Move)
X80.0195 Y-57.4915 Z-.659
(Line Move)
X78.9734 Y-58.2223 Z-.659
(Line Move)
X77.9965 Y-58.8558 Z-.659
(Line Move)
X76.7696 Y-59.5914 Z-.659
(Line Move)
X75.5006 Y-60.2889 Z-.659
(Line Move)
X74.1906 Y-60.948 Z-.659
(Line Move)
X72.8412 Y-61.5678 Z-.659
(Line Move)
X72.026 Y-61.9157 Z-.659
(Line Move)
X70.6199 Y-62.4754 Z-.659
(Line Move)
X69.1776 Y-62.9938 Z-.659
(Line Move)
X67.7006 Y-63.4701 Z-.659
(Line Move)
X66.1902 Y-63.9032 Z-.659
(Line Move)
X65.1363 Y-64.1746 Z-.659
(Line Move)
X63.5192 Y-64.5438 Z-.659
(Line Move)
X61.8884 Y-64.8603 Z-.659
(Line Move)
X60.2456 Y-65.1244 Z-.659
(Line Move)
X58.5931 Y-65.3364 Z-.659
(Line Move)
X57.6278 Y-65.4373 Z-.659
(Line Move)
X55.9642 Y-65.5714 Z-.659
(Line Move)
X54.2968 Y-65.6536 Z-.659
(Line Move)
X52.6275 Y-65.6841 Z-.659
(Line Move)
X50.9574 Y-65.6627 Z-.659
(Line Move)
X49.2875 Y-65.5895 Z-.659
(Line Move)
X48.3182 Y-65.523 Z-.659
(Line Move)
X46.7557 Y-65.3784 Z-.659
(Line Move)
X45.212 Y-65.1895 Z-.659
(Line Move)
X43.6876 Y-64.9571 Z-.659
(Line Move)
X42.7986 Y-64.7995 Z-.659
(Line Move)
X41.3048 Y-64.5031 Z-.659
(Line Move)
X39.8323 Y-64.1649 Z-.659
(Line Move)
X38.3818 Y-63.7851 Z-.659
(Line Move)
X36.9541 Y-63.364 Z-.659
(Line Move)
X35.5501 Y-62.9018 Z-.659
(Line Move)
X34.1707 Y-62.3986 Z-.659
(Line Move)
X32.8168 Y-61.8541 Z-.659
(Line Move)
X31.4894 Y-61.2682 Z-.659
(Line Move)
X30.3646 Y-60.7282 Z-.659
(Line Move)
X29.6711 Y-60.3742 Z-.659
(Line Move)
X28.5523 Y-59.771 Z-.659
(Line Move)
X27.4674 Y-59.1397 Z-.659
(Line Move)
X26.4171 Y-58.4807 Z-.659
(Line Move)
X25.4021 Y-57.7943 Z-.659
(Line Move)
X24.4229 Y-57.0805 Z-.659
(Line Move)
X23.4804 Y-56.3394 Z-.659
(Line Move)
X22.5902 Y-55.5837 Z-.659
(Line Move)
X21.8317 Y-54.891 Z-.659
(Line Move)
X21.3681 Y-54.4438 Z-.659
(Line Move)
X20.6646 Y-53.729 Z-.659
(Line Move)
X19.6783 Y-52.6298 Z-.659
(Line Move)
X19.0673 Y-51.8793 Z-.659
(Line Move)
X18.4939 Y-51.1146 Z-.659
(Line Move)
X17.9586 Y-50.3358 Z-.659
(Line Move)
X17.5231 Y-49.6445 Z-.659
(Line Move)
X16.8479 Y-48.4447 Z-.659
(Line Move)
X16.4862 Y-47.7177 Z-.659
(Line Move)
X16.1596 Y-46.9852 Z-.659
(Line Move)
X15.8684 Y-46.2474 Z-.659
(Line Move)
X15.6127 Y-45.5042 Z-.659
(Line Move)
X15.3928 Y-44.7553 Z-.659
(Line Move)
X15.1499 Y-43.7276 Z-.659
(Line Move)
X15.0129 Y-42.9857 Z-.659
(Line Move)
X14.9122 Y-42.2455 Z-.659
(Line Move)
X14.8475 Y-41.5081 Z-.659
(Line Move)
X14.8184 Y-40.7725 Z-.659
(Line Move)
X14.8245 Y-40.0376 Z-.659
(Line Move)
X14.9102 Y-38.7979 Z-.659
(Line Move)
X15.005 Y-38.06 Z-.659
(Line Move)
X15.1106 Y-37.4491 Z-.659
(Line Move)
X15.2795 Y-36.6756 Z-.659
(Line Move)
X15.4877 Y-35.9042 Z-.659
(Line Move)
X15.7354 Y-35.1338 Z-.659
(Line Move)
X16.2319 Y-33.851 Z-.659
(Line Move)
X16.582 Y-33.0802 Z-.659
(Line Move)
X16.8672 Y-32.5116 Z-.659
(Line Move)
X17.3286 Y-31.6769 Z-.659
(Line Move)
X17.837 Y-30.8501 Z-.659
(Line Move)
X18.3927 Y-30.0311 Z-.659
(Line Move)
X18.9965 Y-29.22 Z-.659
(Line Move)
X19.4003 Y-28.7094 Z-.659
(Line Move)
X20.0772 Y-27.911 Z-.659
(Line Move)
X20.8038 Y-27.1217 Z-.659
(Line Move)
X21.4547 Y-26.4649 Z-.659
(Line Move)
X22.3472 Y-25.6297 Z-.659
(Line Move)
X23.2894 Y-24.8183 Z-.659
(Line Move)
X24.2808 Y-24.0312 Z-.659
(Line Move)
X25.3209 Y-23.2694 Z-.659
(Line Move)
X25.9704 Y-22.8189 Z-.659
(Line Move)
X27.0826 Y-22.0967 Z-.659
(Line Move)
X28.2423 Y-21.4023 Z-.659
(Line Move)
X29.449 Y-20.7368 Z-.659
(Line Move)
X30.3831 Y-20.2583 Z-.659
(Line Move)
X31.7558 Y-19.6083 Z-.659
(Line Move)
X33.1639 Y-19.0023 Z-.659
(Line Move)
X34.6058 Y-18.4406 Z-.659
(Line Move)
X36.0797 Y-17.9238 Z-.659
(Line Move)
X36.9576 Y-17.6383 Z-.659
(Line Move)
X38.4765 Y-17.1896 Z-.659
(Line Move)
X40.0233 Y-16.7872 Z-.659
(Line Move)
X41.5964 Y-16.4316 Z-.659
(Line Move)
X43.1942 Y-16.1238 Z-.659
(Line Move)
X44.234 Y-15.9514 Z-.659
(Line Move)
X45.8989 Y-15.72 Z-.659
(Line Move)
X47.5661 Y-15.5421 Z-.659
(Line Move)
X49.2337 Y-15.4171 Z-.659
(Line Move)
X50.9004 Y-15.3443 Z-.659
(Line Move)
X51.8699 Y-15.3226 Z-.659
(Line Move)
X53.5335 Y-15.3272 Z-.659
(Line Move)
X55.1936 Y-15.3831 Z-.659
(Line Move)
X56.8493 Y-15.4901 Z-.659
(Line Move)
X56.9928 Y-15.5039 Z-.659
(Line Move)
X57.0374 Y-14.9991 Z-.8143
(Line Move)
X58.1576 Y-15.0982 Z-.8143
(Line Move)
X59.625 Y-15.2704 Z-.8143
(Line Move)
X61.0167 Y-15.4742 Z-.8143
(Line Move)
X62.5413 Y-15.7405 Z-.8143
(Line Move)
X64.0442 Y-16.0494 Z-.8143
(Line Move)
X65.5246 Y-16.4002 Z-.8143
(Line Move)
X66.3884 Y-16.626 Z-.8143
(Line Move)
X67.8338 Y-17.0391 Z-.8143
(Line Move)
X69.2549 Y-17.4932 Z-.8143
(Line Move)
X70.6508 Y-17.9883 Z-.8143
(Line Move)
X72.0208 Y-18.5244 Z-.8143
(Line Move)
X73.3639 Y-19.1017 Z-.8143
(Line Move)
X74.6014 Y-19.6816 Z-.8143
(Line Move)
X75.7123 Y-20.2461 Z-.8143
(Line Move)
X76.8295 Y-20.858 Z-.8143
(Line Move)
X77.6972 Y-21.3657 Z-.8143
(Line Move)
X78.5577 Y-21.899 Z-.8143
(Line Move)
X79.5885 Y-22.5798 Z-.8143
(Line Move)
X80.5839 Y-23.2877 Z-.8143
(Line Move)
X81.543 Y-24.0227 Z-.8143
(Line Move)
X82.4652 Y-24.785 Z-.8143
(Line Move)
X83.2018 Y-25.4367 Z-.8143
(Line Move)
X83.8388 Y-26.0394 Z-.8143
(Line Move)
X84.5552 Y-26.7616 Z-.8143
(Line Move)
X85.1122 Y-27.3601 Z-.8143
(Line Move)
X85.6519 Y-27.9743 Z-.8143
(Line Move)
X86.2758 Y-28.733 Z-.8143
(Line Move)
X86.8621 Y-29.5061 Z-.8143
(Line Move)
X87.4103 Y-30.2938 Z-.8143
(Line Move)
X87.9199 Y-31.0962 Z-.8143
(Line Move)
X88.2326 Y-31.6296 Z-.8143
(Line Move)
X88.6313 Y-32.3682 Z-.8143
(Line Move)
X88.9366 Y-32.9867 Z-.8143
(Line Move)
X89.2208 Y-33.6115 Z-.8143
(Line Move)
X89.5304 Y-34.3653 Z-.8143
(Line Move)
X89.804 Y-35.1249 Z-.8143
(Line Move)
X90.0413 Y-35.8906 Z-.8143
(Line Move)
X90.2419 Y-36.6625 Z-.8143
(Line Move)
X90.349 Y-37.1503 Z-.8143
(Line Move)
X90.485 Y-37.9074 Z-.8143
(Line Move)
X90.5593 Y-38.4219 Z-.8143
(Line Move)
X90.6407 Y-39.1811 Z-.8143
(Line Move)
X90.6858 Y-39.9413 Z-.8143
(Line Move)
X90.6943 Y-40.7001 Z-.8143
(Line Move)
X90.665 Y-41.4843 Z-.8143
(Line Move)
X90.6305 Y-41.9461 Z-.8143
(Line Move)
X90.5435 Y-42.7259 Z-.8143
(Line Move)
X90.4183 Y-43.5039 Z-.8143
(Line Move)
X90.2545 Y-44.2813 Z-.8143
(Line Move)
X90.0518 Y-45.059 Z-.8143
(Line Move)
X89.8955 Y-45.5789 Z-.8143
(Line Move)
X89.65 Y-46.3125 Z-.8143
(Line Move)
X89.3465 Y-47.0975 Z-.8143
(Line Move)
X88.9772 Y-47.9358 Z-.8143
(Line Move)
X88.5626 Y-48.7681 Z-.8143
(Line Move)
X88.1023 Y-49.5947 Z-.8143
(Line Move)
X87.5956 Y-50.4159 Z-.8143
(Line Move)
X87.2485 Y-50.9381 Z-.8143
(Line Move)
X86.6707 Y-51.751 Z-.8143
(Line Move)
X86.1586 Y-52.4176 Z-.8143
(Line Move)
X85.553 Y-53.1458 Z-.8143
(Line Move)
X84.7786 Y-54.0067 Z-.8143
(Line Move)
X83.9539 Y-54.8485 Z-.8143
(Line Move)
X83.079 Y-55.6707 Z-.8143
(Line Move)
X82.154 Y-56.4727 Z-.8143
(Line Move)
X81.5672 Y-56.9528 Z-.8143
(Line Move)
X80.5674 Y-57.7228 Z-.8143
(Line Move)
X79.5176 Y-58.4702 Z-.8143
(Line Move)
X78.56 Y-59.1033 Z-.8143
(Line Move)
X77.3263 Y-59.8585 Z-.8143
(Line Move)
X76.0505 Y-60.5746 Z-.8143
(Line Move)
X74.7337 Y-61.2515 Z-.8143
(Line Move)
X73.3771 Y-61.8886 Z-.8143
(Line Move)
X72.2833 Y-62.3631 Z-.8143
(Line Move)
X71.1447 Y-62.8209 Z-.8143
(Line Move)
X69.6948 Y-63.3553 Z-.8143
(Line Move)
X68.2099 Y-63.8471 Z-.8143
(Line Move)
X66.6913 Y-64.2954 Z-.8143
(Line Move)
X65.6476 Y-64.5728 Z-.8143
(Line Move)
X64.0174 Y-64.9586 Z-.8143
(Line Move)
X62.3732 Y-65.2911 Z-.8143
(Line Move)
X60.717 Y-65.5705 Z-.8143
(Line Move)
X59.0505 Y-65.7972 Z-.8143
(Line Move)
X58.0781 Y-65.9052 Z-.8143
(Line Move)
X56.4 Y-66.0532 Z-.8143
(Line Move)
X54.7174 Y-66.1487 Z-.8143
(Line Move)
X53.0326 Y-66.1919 Z-.8143
(Line Move)
X51.3468 Y-66.1829 Z-.8143
(Line Move)
X49.6609 Y-66.1215 Z-.8143
(Line Move)
X48.3437 Y-66.0385 Z-.8143
(Line Move)
X47.0778 Y-65.9252 Z-.8143
(Line Move)
X45.5145 Y-65.7452 Z-.8143
(Line Move)
X43.9706 Y-65.521 Z-.8143
(Line Move)
X42.7702 Y-65.3152 Z-.8143
(Line Move)
X41.558 Y-65.0782 Z-.8143
(Line Move)
X40.0654 Y-64.7466 Z-.8143
(Line Move)
X38.5946 Y-64.373 Z-.8143
(Line Move)
X37.1463 Y-63.9574 Z-.8143
(Line Move)
X35.7214 Y-63.5002 Z-.8143
(Line Move)
X34.3207 Y-63.0014 Z-.8143
(Line Move)
X32.9451 Y-62.4607 Z-.8143
(Line Move)
X31.5957 Y-61.878 Z-.8143
(Line Move)
X30.4183 Y-61.3245 Z-.8143
(Line Move)
X29.4929 Y-60.8586 Z-.8143
(Line Move)
X28.5725 Y-60.3664 Z-.8143
(Line Move)
X27.465 Y-59.7336 Z-.8143
(Line Move)
X26.3919 Y-59.0723 Z-.8143
(Line Move)
X25.3537 Y-58.3828 Z-.8143
(Line Move)
X24.3512 Y-57.6651 Z-.8143
(Line Move)
X23.3851 Y-56.9192 Z-.8143
(Line Move)
X22.464 Y-56.1517 Z-.8143
(Line Move)
X21.664 Y-55.4342 Z-.8143
(Line Move)
X21.0561 Y-54.8547 Z-.8143
(Line Move)
X20.1153 Y-53.8907 Z-.8143
(Line Move)
X19.4454 Y-53.1436 Z-.8143
(Line Move)
X18.8128 Y-52.3813 Z-.8143
(Line Move)
X18.2179 Y-51.6039 Z-.8143
(Line Move)
X17.6612 Y-50.8113 Z-.8143
(Line Move)
X17.1755 Y-50.0568 Z-.8143
(Line Move)
X16.7611 Y-49.3523 Z-.8143
(Line Move)
X16.4912 Y-48.8629 Z-.8143
(Line Move)
X16.1113 Y-48.1184 Z-.8143
(Line Move)
X15.7672 Y-47.3677 Z-.8143
(Line Move)
X15.459 Y-46.6107 Z-.8143
(Line Move)
X15.187 Y-45.8473 Z-.8143
(Line Move)
X14.9515 Y-45.0775 Z-.8143
(Line Move)
X14.7803 Y-44.4224 Z-.8143
(Line Move)
X14.5396 Y-43.2546 Z-.8143
(Line Move)
X14.4265 Y-42.4898 Z-.8143
(Line Move)
X14.3506 Y-41.7275 Z-.8143
(Line Move)
X14.3115 Y-40.9671 Z-.8143
(Line Move)
X14.3089 Y-40.2075 Z-.8143
(Line Move)
X14.3427 Y-39.4479 Z-.8143
(Line Move)
X14.3837 Y-38.9314 Z-.8143
(Line Move)
X14.4725 Y-38.1698 Z-.8143
(Line Move)
X14.5724 Y-37.5485 Z-.8143
(Line Move)
X14.7369 Y-36.7495 Z-.8143
(Line Move)
X14.9416 Y-35.9536 Z-.8143
(Line Move)
X15.1868 Y-35.1596 Z-.8143
(Line Move)
X15.4205 Y-34.5023 Z-.8143
(Line Move)
X15.6809 Y-33.8432 Z-.8143
(Line Move)
X16.0302 Y-33.0512 Z-.8143
(Line Move)
X16.3064 Y-32.4854 Z-.8143
(Line Move)
X16.7683 Y-31.6265 Z-.8143
(Line Move)
X17.2774 Y-30.7774 Z-.8143
(Line Move)
X17.8344 Y-29.9372 Z-.8143
(Line Move)
X18.4397 Y-29.106 Z-.8143
(Line Move)
X18.8444 Y-28.5858 Z-.8143
(Line Move)
X19.5232 Y-27.7686 Z-.8143
(Line Move)
X20.2518 Y-26.9614 Z-.8143
(Line Move)
X20.8861 Y-26.3087 Z-.8143
(Line Move)
X21.7827 Y-25.4523 Z-.8143
(Line Move)
X22.7289 Y-24.6211 Z-.8143
(Line Move)
X23.7245 Y-23.8153 Z-.8143
(Line Move)
X24.7689 Y-23.0354 Z-.8143
(Line Move)
X25.4206 Y-22.5761 Z-.8143
(Line Move)
X26.5373 Y-21.8368 Z-.8143
(Line Move)
X27.7015 Y-21.1258 Z-.8143
(Line Move)
X28.9129 Y-20.4444 Z-.8143
(Line Move)
X29.8278 Y-19.9659 Z-.8143
(Line Move)
X31.2091 Y-19.2969 Z-.8143
(Line Move)
X32.6257 Y-18.6729 Z-.8143
(Line Move)
X34.0762 Y-18.094 Z-.8143
(Line Move)
X35.559 Y-17.5604 Z-.8143
(Line Move)
X36.4415 Y-17.2668 Z-.8143
(Line Move)
X37.9697 Y-16.8022 Z-.8143
(Line Move)
X39.5261 Y-16.3842 Z-.8143
(Line Move)
X41.1091 Y-16.0136 Z-.8143
(Line Move)
X42.7171 Y-15.6911 Z-.8143
(Line Move)
X44.043 Y-15.4631 Z-.8143
(Line Move)
X45.4335 Y-15.2644 Z-.8143
(Line Move)
X47.1166 Y-15.0719 Z-.8143
(Line Move)
X48.8001 Y-14.933 Z-.8143
(Line Move)
X50.4831 Y-14.8469 Z-.8143
(Line Move)
X51.4607 Y-14.8187 Z-.8143
(Line Move)
X53.1407 Y-14.8109 Z-.8143
(Line Move)
X54.8176 Y-14.855 Z-.8143
(Line Move)
X56.4902 Y-14.9507 Z-.8143
(Line Move)
X57.0374 Y-14.9991 Z-.8143
(Line Move)
X57.0842 Y-14.4159 Z-.9926
(Line Move)
X57.7799 Y-14.4718 Z-.9926
(Line Move)
X59.461 Y-14.6596 Z-.9926
(Line Move)
X60.7044 Y-14.8331 Z-.9926
(Line Move)
X62.2517 Y-15.0911 Z-.9926
(Line Move)
X63.7775 Y-15.3924 Z-.9926
(Line Move)
X65.281 Y-15.7363 Z-.9926
(Line Move)
X66.1565 Y-15.9588 Z-.9926
(Line Move)
X67.6254 Y-16.366 Z-.9926
(Line Move)
X69.0703 Y-16.8149 Z-.9926
(Line Move)
X70.4905 Y-17.3054 Z-.9926
(Line Move)
X71.8851 Y-17.8376 Z-.9926
(Line Move)
X73.2532 Y-18.4117 Z-.9926
(Line Move)
X74.594 Y-19.0279 Z-.9926
(Line Move)
X75.6859 Y-19.5721 Z-.9926
(Line Move)
X76.8283 Y-20.1856 Z-.9926
(Line Move)
X77.9368 Y-20.8276 Z-.9926
(Line Move)
X78.5949 Y-21.2306 Z-.9926
(Line Move)
X79.6516 Y-21.9151 Z-.9926
(Line Move)
X80.6731 Y-22.6278 Z-.9926
(Line Move)
X81.6587 Y-23.3685 Z-.9926
(Line Move)
X82.6075 Y-24.1375 Z-.9926
(Line Move)
X83.5189 Y-24.9351 Z-.9926
(Line Move)
X84.0523 Y-25.4324 Z-.9926
(Line Move)
X84.7932 Y-26.1656 Z-.9926
(Line Move)
X85.4971 Y-26.9145 Z-.9926
(Line Move)
X85.9263 Y-27.3967 Z-.9926
(Line Move)
X86.5744 Y-28.169 Z-.9926
(Line Move)
X87.1847 Y-28.957 Z-.9926
(Line Move)
X87.7569 Y-29.7607 Z-.9926
(Line Move)
X88.2902 Y-30.5803 Z-.9926
(Line Move)
X88.631 Y-31.1481 Z-.9926
(Line Move)
X89.0503 Y-31.9057 Z-.9926
(Line Move)
X89.4336 Y-32.6709 Z-.9926
(Line Move)
X89.6696 Y-33.18 Z-.9926
(Line Move)
X89.9983 Y-33.9556 Z-.9926
(Line Move)
X90.2902 Y-34.7382 Z-.9926
(Line Move)
X90.5451 Y-35.5278 Z-.9926
(Line Move)
X90.7623 Y-36.3244 Z-.9926
(Line Move)
X90.8806 Y-36.8343 Z-.9926
(Line Move)
X91.0309 Y-37.6177 Z-.9926
(Line Move)
X91.1119 Y-38.1457 Z-.9926
(Line Move)
X91.206 Y-38.9322 Z-.9926
(Line Move)
X91.2623 Y-39.72 Z-.9926
(Line Move)
X91.2808 Y-40.5 Z-.9926
(Line Move)
X91.2606 Y-41.3141 Z-.9926
(Line Move)
X91.2301 Y-41.7906 Z-.9926
(Line Move)
X91.1501 Y-42.5993 Z-.9926
(Line Move)
X91.0305 Y-43.4055 Z-.9926
(Line Move)
X90.8712 Y-44.2102 Z-.9926
(Line Move)
X90.6719 Y-45.0143 Z-.9926
(Line Move)
X90.517 Y-45.5471 Z-.9926
(Line Move)
X90.2565 Y-46.3516 Z-.9926
(Line Move)
X89.9778 Y-47.0981 Z-.9926
(Line Move)
X89.6092 Y-47.9636 Z-.9926
(Line Move)
X89.1945 Y-48.8218 Z-.9926
(Line Move)
X88.7334 Y-49.673 Z-.9926
(Line Move)
X88.2254 Y-50.5176 Z-.9926
(Line Move)
X87.8776 Y-51.0511 Z-.9926
(Line Move)
X87.298 Y-51.8858 Z-.9926
(Line Move)
X86.6696 Y-52.7136 Z-.9926
(Line Move)
X86.193 Y-53.2973 Z-.9926
(Line Move)
X85.4149 Y-54.1821 Z-.9926
(Line Move)
X84.5863 Y-55.0465 Z-.9926
(Line Move)
X83.7073 Y-55.8902 Z-.9926
(Line Move)
X82.778 Y-56.7128 Z-.9926
(Line Move)
X82.1891 Y-57.2028 Z-.9926
(Line Move)
X81.1847 Y-57.9922 Z-.9926
(Line Move)
X80.1305 Y-58.7582 Z-.9926
(Line Move)
X79.1938 Y-59.3912 Z-.9926
(Line Move)
X77.9521 Y-60.1684 Z-.9926
(Line Move)
X76.6683 Y-60.9055 Z-.9926
(Line Move)
X75.3432 Y-61.6025 Z-.9926
(Line Move)
X73.9783 Y-62.2589 Z-.9926
(Line Move)
X72.5748 Y-62.8742 Z-.9926
(Line Move)
X71.7329 Y-63.2191 Z-.9926
(Line Move)
X70.274 Y-63.7713 Z-.9926
(Line Move)
X68.7798 Y-64.2805 Z-.9926
(Line Move)
X67.2517 Y-64.7458 Z-.9926
(Line Move)
X66.219 Y-65.03 Z-.9926
(Line Move)
X64.5735 Y-65.4344 Z-.9926
(Line Move)
X62.9142 Y-65.7846 Z-.9926
(Line Move)
X61.2424 Y-66.0811 Z-.9926
(Line Move)
X59.56 Y-66.3241 Z-.9926
(Line Move)
X58.5794 Y-66.4401 Z-.9926
(Line Move)
X56.8848 Y-66.6035 Z-.9926
(Line Move)
X55.1848 Y-66.7138 Z-.9926
(Line Move)
X53.4823 Y-66.7713 Z-.9926
(Line Move)
X51.7785 Y-66.7759 Z-.9926
(Line Move)
X50.0744 Y-66.7277 Z-.9926
(Line Move)
X48.3708 Y-66.6263 Z-.9926
(Line Move)
X47.4337 Y-66.5478 Z-.9926
(Line Move)
X45.8483 Y-66.3774 Z-.9926
(Line Move)
X44.2821 Y-66.1623 Z-.9926
(Line Move)
X42.7358 Y-65.9031 Z-.9926
(Line Move)
X41.8358 Y-65.7318 Z-.9926
(Line Move)
X40.3205 Y-65.4075 Z-.9926
(Line Move)
X38.8266 Y-65.0405 Z-.9926
(Line Move)
X37.355 Y-64.6311 Z-.9926
(Line Move)
X35.9064 Y-64.1792 Z-.9926
(Line Move)
X34.4816 Y-63.6851 Z-.9926
(Line Move)
X33.0816 Y-63.1485 Z-.9926
(Line Move)
X31.7071 Y-62.5692 Z-.9926
(Line Move)
X30.471 Y-62.0004 Z-.9926
(Line Move)
X29.2878 Y-61.4102 Z-.9926
(Line Move)
X28.5873 Y-61.0409 Z-.9926
(Line Move)
X27.4543 Y-60.4062 Z-.9926
(Line Move)
X26.3554 Y-59.7421 Z-.9926
(Line Move)
X25.2911 Y-59.0489 Z-.9926
(Line Move)
X24.2623 Y-58.3266 Z-.9926
(Line Move)
X23.2695 Y-57.575 Z-.9926
(Line Move)
X22.3137 Y-56.794 Z-.9926
(Line Move)
X21.4671 Y-56.0486 Z-.9926
(Line Move)
X20.2305 Y-54.8571 Z-.9926
(Line Move)
X19.1751 Y-53.7241 Z-.9926
(Line Move)
X18.5181 Y-52.9483 Z-.9926
(Line Move)
X17.8989 Y-52.1563 Z-.9926
(Line Move)
X17.3181 Y-51.3479 Z-.9926
(Line Move)
X16.7764 Y-50.5227 Z-.9926
(Line Move)
X16.0816 Y-49.3345 Z-.9926
(Line Move)
X15.6813 Y-48.5701 Z-.9926
(Line Move)
X15.3173 Y-47.7984 Z-.9926
(Line Move)
X14.99 Y-47.0195 Z-.9926
(Line Move)
X14.6996 Y-46.2331 Z-.9926
(Line Move)
X14.4466 Y-45.4393 Z-.9926
(Line Move)
X14.2314 Y-44.638 Z-.9926
(Line Move)
X13.9989 Y-43.5557 Z-.9926
(Line Move)
X13.8718 Y-42.7629 Z-.9926
(Line Move)
X13.7834 Y-41.9723 Z-.9926
(Line Move)
X13.7333 Y-41.1835 Z-.9926
(Line Move)
X13.7209 Y-40.3959 Z-.9926
(Line Move)
X13.7464 Y-39.6085 Z-.9926
(Line Move)
X13.7836 Y-39.0783 Z-.9926
(Line Move)
X13.8659 Y-38.2896 Z-.9926
(Line Move)
X13.9596 Y-37.6563 Z-.9926
(Line Move)
X14.1193 Y-36.8281 Z-.9926
(Line Move)
X14.3204 Y-36.0042 Z-.9926
(Line Move)
X14.563 Y-35.1834 Z-.9926
(Line Move)
X14.8476 Y-34.3649 Z-.9926
(Line Move)
X15.0549 Y-33.8287 Z-.9926
(Line Move)
X15.4036 Y-33.0125 Z-.9926
(Line Move)
X15.6699 Y-32.4494 Z-.9926
(Line Move)
X16.1327 Y-31.563 Z-.9926
(Line Move)
X16.6431 Y-30.6884 Z-.9926
(Line Move)
X17.2019 Y-29.8241 Z-.9926
(Line Move)
X17.8093 Y-28.97 Z-.9926
(Line Move)
X18.2152 Y-28.4388 Z-.9926
(Line Move)
X18.8965 Y-27.6003 Z-.9926
(Line Move)
X19.6278 Y-26.7728 Z-.9926
(Line Move)
X20.2441 Y-26.1243 Z-.9926
(Line Move)
X21.1457 Y-25.244 Z-.9926
(Line Move)
X22.0968 Y-24.3904 Z-.9926
(Line Move)
X23.0974 Y-23.5632 Z-.9926
(Line Move)
X24.147 Y-22.7628 Z-.9926
(Line Move)
X24.8014 Y-22.2936 Z-.9926
(Line Move)
X25.9236 Y-21.5351 Z-.9926
(Line Move)
X27.0934 Y-20.8055 Z-.9926
(Line Move)
X28.3105 Y-20.106 Z-.9926
(Line Move)
X29.2045 Y-19.6274 Z-.9926
(Line Move)
X30.5958 Y-18.9371 Z-.9926
(Line Move)
X32.0222 Y-18.2929 Z-.9926
(Line Move)
X33.4829 Y-17.6945 Z-.9926
(Line Move)
X34.9761 Y-17.1422 Z-.9926
(Line Move)
X35.8639 Y-16.8395 Z-.9926
(Line Move)
X37.4029 Y-16.357 Z-.9926
(Line Move)
X38.9705 Y-15.9218 Z-.9926
(Line Move)
X40.565 Y-15.5343 Z-.9926
(Line Move)
X42.1849 Y-15.1954 Z-.9926
(Line Move)
X43.8286 Y-14.9056 Z-.9926
(Line Move)
X44.915 Y-14.7432 Z-.9926
(Line Move)
X46.6161 Y-14.5344 Z-.9926
(Line Move)
X48.318 Y-14.38 Z-.9926
(Line Move)
X50.0194 Y-14.2792 Z-.9926
(Line Move)
X51.0063 Y-14.2438 Z-.9926
(Line Move)
X52.7051 Y-14.2223 Z-.9926
(Line Move)
X54.4009 Y-14.2532 Z-.9926
(Line Move)
X56.0928 Y-14.3364 Z-.9926
(Line Move)
X57.0842 Y-14.4159 Z-.9926
(Line Move)
X57.1302 Y-13.8429 Z-1.209
(Line Move)
X57.8348 Y-13.8994 Z-1.209
(Line Move)
X59.5338 Y-14.0893 Z-1.209
(Line Move)
X60.7905 Y-14.2647 Z-1.209
(Line Move)
X62.3547 Y-14.5255 Z-1.209
(Line Move)
X63.8972 Y-14.83 Z-1.209
(Line Move)
X65.4176 Y-15.1778 Z-1.209
(Line Move)
X66.3016 Y-15.4025 Z-1.209
(Line Move)
X67.7874 Y-15.8143 Z-1.209
(Line Move)
X69.2494 Y-16.2685 Z-1.209
(Line Move)
X70.6868 Y-16.765 Z-1.209
(Line Move)
X72.0988 Y-17.3039 Z-1.209
(Line Move)
X73.4845 Y-17.8853 Z-1.209
(Line Move)
X74.843 Y-18.5097 Z-1.209
(Line Move)
X75.9498 Y-19.0613 Z-1.209
(Line Move)
X77.1084 Y-19.6834 Z-1.209
(Line Move)
X78.2331 Y-20.3349 Z-1.209
(Line Move)
X78.8993 Y-20.7429 Z-1.209
(Line Move)
X79.9724 Y-21.438 Z-1.209
(Line Move)
X81.0103 Y-22.1621 Z-1.209
(Line Move)
X82.0124 Y-22.9152 Z-1.209
(Line Move)
X82.9778 Y-23.6977 Z-1.209
(Line Move)
X83.9059 Y-24.5099 Z-1.209
(Line Move)
X84.4494 Y-25.0167 Z-1.209
(Line Move)
X85.2049 Y-25.7642 Z-1.209
(Line Move)
X85.9232 Y-26.5285 Z-1.209
(Line Move)
X86.3596 Y-27.0188 Z-1.209
(Line Move)
X87.0219 Y-27.8081 Z-1.209
(Line Move)
X87.6462 Y-28.6141 Z-1.209
(Line Move)
X88.2321 Y-29.437 Z-1.209
(Line Move)
X88.7788 Y-30.2771 Z-1.209
(Line Move)
X89.1284 Y-30.8597 Z-1.209
(Line Move)
X89.5589 Y-31.6376 Z-1.209
(Line Move)
X89.9529 Y-32.4242 Z-1.209
(Line Move)
X90.1941 Y-32.9444 Z-1.209
(Line Move)
X90.5324 Y-33.7428 Z-1.209
(Line Move)
X90.8333 Y-34.5493 Z-1.209
(Line Move)
X91.0961 Y-35.3637 Z-1.209
(Line Move)
X91.3204 Y-36.1861 Z-1.209
(Line Move)
X91.4426 Y-36.7129 Z-1.209
(Line Move)
X91.598 Y-37.5226 Z-1.209
(Line Move)
X91.6811 Y-38.064 Z-1.209
(Line Move)
X91.7783 Y-38.8775 Z-1.209
(Line Move)
X91.8366 Y-39.6928 Z-1.209
(Line Move)
X91.8557 Y-40.5 Z-1.209
(Line Move)
X91.8349 Y-41.3426 Z-1.209
(Line Move)
X91.8035 Y-41.8332 Z-1.209
(Line Move)
X91.7207 Y-42.6698 Z-1.209
(Line Move)
X91.597 Y-43.5036 Z-1.209
(Line Move)
X91.4324 Y-44.3353 Z-1.209
(Line Move)
X91.2266 Y-45.1657 Z-1.209
(Line Move)
X91.068 Y-45.7114 Z-1.209
(Line Move)
X90.7993 Y-46.5412 Z-1.209
(Line Move)
X90.5121 Y-47.3104 Z-1.209
(Line Move)
X90.1326 Y-48.2015 Z-1.209
(Line Move)
X89.7062 Y-49.0839 Z-1.209
(Line Move)
X89.2326 Y-49.9582 Z-1.209
(Line Move)
X88.7114 Y-50.8247 Z-1.209
(Line Move)
X88.3568 Y-51.3688 Z-1.209
(Line Move)
X87.7631 Y-52.2237 Z-1.209
(Line Move)
X87.1202 Y-53.0707 Z-1.209
(Line Move)
X86.633 Y-53.6674 Z-1.209
(Line Move)
X85.8384 Y-54.571 Z-1.209
(Line Move)
X84.9929 Y-55.453 Z-1.209
(Line Move)
X84.0969 Y-56.313 Z-1.209
(Line Move)
X83.1505 Y-57.1507 Z-1.209
(Line Move)
X82.553 Y-57.648 Z-1.209
(Line Move)
X81.5314 Y-58.4509 Z-1.209
(Line Move)
X80.4598 Y-59.2295 Z-1.209
(Line Move)
X79.5083 Y-59.8725 Z-1.209
(Line Move)
X78.2477 Y-60.6616 Z-1.209
(Line Move)
X76.9452 Y-61.4094 Z-1.209
(Line Move)
X75.6016 Y-62.1161 Z-1.209
(Line Move)
X74.2183 Y-62.7814 Z-1.209
(Line Move)
X72.7965 Y-63.4047 Z-1.209
(Line Move)
X71.9455 Y-63.7533 Z-1.209
(Line Move)
X70.4685 Y-64.3124 Z-1.209
(Line Move)
X68.9563 Y-64.8277 Z-1.209
(Line Move)
X67.4102 Y-65.2985 Z-1.209
(Line Move)
X66.3655 Y-65.5859 Z-1.209
(Line Move)
X64.7015 Y-65.995 Z-1.209
(Line Move)
X63.0237 Y-66.349 Z-1.209
(Line Move)
X61.3336 Y-66.6487 Z-1.209
(Line Move)
X59.6331 Y-66.8944 Z-1.209
(Line Move)
X58.6436 Y-67.0115 Z-1.209
(Line Move)
X56.931 Y-67.1766 Z-1.209
(Line Move)
X55.2131 Y-67.2881 Z-1.209
(Line Move)
X53.4928 Y-67.3461 Z-1.209
(Line Move)
X51.7712 Y-67.3508 Z-1.209
(Line Move)
X50.0492 Y-67.3021 Z-1.209
(Line Move)
X48.3277 Y-67.1997 Z-1.209
(Line Move)
X47.3807 Y-67.1203 Z-1.209
(Line Move)
X45.7785 Y-66.9481 Z-1.209
(Line Move)
X44.1955 Y-66.7307 Z-1.209
(Line Move)
X42.6323 Y-66.4686 Z-1.209
(Line Move)
X41.724 Y-66.2957 Z-1.209
(Line Move)
X40.1917 Y-65.9679 Z-1.209
(Line Move)
X38.681 Y-65.5967 Z-1.209
(Line Move)
X37.1923 Y-65.1825 Z-1.209
(Line Move)
X35.7266 Y-64.7254 Z-1.209
(Line Move)
X34.2846 Y-64.2252 Z-1.209
(Line Move)
X32.8671 Y-63.6819 Z-1.209
(Line Move)
X31.475 Y-63.0952 Z-1.209
(Line Move)
X30.2225 Y-62.5188 Z-1.209
(Line Move)
X29.0231 Y-61.9206 Z-1.209
(Line Move)
X28.3144 Y-61.547 Z-1.209
(Line Move)
X27.1651 Y-60.9031 Z-1.209
(Line Move)
X26.0498 Y-60.2292 Z-1.209
(Line Move)
X24.9691 Y-59.5252 Z-1.209
(Line Move)
X23.9236 Y-58.7912 Z-1.209
(Line Move)
X22.9141 Y-58.027 Z-1.209
(Line Move)
X21.9415 Y-57.2322 Z-1.209
(Line Move)
X21.0794 Y-56.4731 Z-1.209
(Line Move)
X19.8207 Y-55.2604 Z-1.209
(Line Move)
X18.7435 Y-54.104 Z-1.209
(Line Move)
X18.0722 Y-53.3113 Z-1.209
(Line Move)
X17.439 Y-52.5013 Z-1.209
(Line Move)
X16.8443 Y-51.6736 Z-1.209
(Line Move)
X16.2891 Y-50.8279 Z-1.209
(Line Move)
X15.8639 Y-50.1207 Z-1.209
(Line Move)
X15.5778 Y-49.6117 Z-1.209
(Line Move)
X15.1665 Y-48.8263 Z-1.209
(Line Move)
X14.7922 Y-48.0326 Z-1.209
(Line Move)
X14.4552 Y-47.2305 Z-1.209
(Line Move)
X14.1559 Y-46.4202 Z-1.209
(Line Move)
X13.8949 Y-45.6013 Z-1.209
(Line Move)
X13.6727 Y-44.7741 Z-1.209
(Line Move)
X13.4335 Y-43.6602 Z-1.209
(Line Move)
X13.3021 Y-42.8404 Z-1.209
(Line Move)
X13.2107 Y-42.0225 Z-1.209
(Line Move)
X13.1587 Y-41.2063 Z-1.209
(Line Move)
X13.146 Y-40.3911 Z-1.209
(Line Move)
X13.1723 Y-39.5762 Z-1.209
(Line Move)
X13.2105 Y-39.0323 Z-1.209
(Line Move)
X13.2957 Y-38.2163 Z-1.209
(Line Move)
X13.3925 Y-37.5614 Z-1.209
(Line Move)
X13.5576 Y-36.7054 Z-1.209
(Line Move)
X13.7653 Y-35.8544 Z-1.209
(Line Move)
X14.0157 Y-35.0074 Z-1.209
(Line Move)
X14.3091 Y-34.1635 Z-1.209
(Line Move)
X14.5212 Y-33.615 Z-1.209
(Line Move)
X14.8801 Y-32.7747 Z-1.209
(Line Move)
X15.154 Y-32.1956 Z-1.209
(Line Move)
X15.6295 Y-31.2848 Z-1.209
(Line Move)
X16.1534 Y-30.3873 Z-1.209
(Line Move)
X16.7261 Y-29.5013 Z-1.209
(Line Move)
X17.348 Y-28.6268 Z-1.209
(Line Move)
X17.7614 Y-28.0857 Z-1.209
(Line Move)
X18.4579 Y-27.2285 Z-1.209
(Line Move)
X19.2047 Y-26.3834 Z-1.209
(Line Move)
X19.8336 Y-25.7217 Z-1.209
(Line Move)
X20.7528 Y-24.8242 Z-1.209
(Line Move)
X21.7216 Y-23.9547 Z-1.209
(Line Move)
X22.7399 Y-23.1128 Z-1.209
(Line Move)
X23.8073 Y-22.299 Z-1.209
(Line Move)
X24.4706 Y-21.8234 Z-1.209
(Line Move)
X25.6104 Y-21.0529 Z-1.209
(Line Move)
X26.798 Y-20.3122 Z-1.209
(Line Move)
X28.0328 Y-19.6025 Z-1.209
(Line Move)
X28.9394 Y-19.1172 Z-1.209
(Line Move)
X30.3497 Y-18.4175 Z-1.209
(Line Move)
X31.795 Y-17.7648 Z-1.209
(Line Move)
X33.2742 Y-17.1588 Z-1.209
(Line Move)
X34.7858 Y-16.5996 Z-1.209
(Line Move)
X35.6828 Y-16.2938 Z-1.209
(Line Move)
X37.2401 Y-15.8056 Z-1.209
(Line Move)
X38.8257 Y-15.3654 Z-1.209
(Line Move)
X40.4383 Y-14.9735 Z-1.209
(Line Move)
X42.0761 Y-14.6308 Z-1.209
(Line Move)
X43.7377 Y-14.3379 Z-1.209
(Line Move)
X44.8358 Y-14.1738 Z-1.209
(Line Move)
X46.5552 Y-13.9627 Z-1.209
(Line Move)
X48.275 Y-13.8067 Z-1.209
(Line Move)
X49.9943 Y-13.7048 Z-1.209
(Line Move)
X50.9901 Y-13.6691 Z-1.209
(Line Move)
X52.7067 Y-13.6474 Z-1.209
(Line Move)
X54.4203 Y-13.6786 Z-1.209
(Line Move)
X56.1299 Y-13.7626 Z-1.209
(Line Move)
X57.1302 Y-13.8429 Z-1.209
(Line Move)
X57.1757 Y-13.2766 Z-1.4254
(Line Move)
X57.8995 Y-13.3347 Z-1.4254
(Line Move)
X59.613 Y-13.5261 Z-1.4254
(Line Move)
X60.8805 Y-13.703 Z-1.4254
(Line Move)
X62.4583 Y-13.9661 Z-1.4254
(Line Move)
X64.0145 Y-14.2733 Z-1.4254
(Line Move)
X65.5485 Y-14.6242 Z-1.4254
(Line Move)
X66.4524 Y-14.8543 Z-1.4254
(Line Move)
X67.952 Y-15.2699 Z-1.4254
(Line Move)
X69.4278 Y-15.7284 Z-1.4254
(Line Move)
X70.8791 Y-16.2297 Z-1.4254
(Line Move)
X72.3051 Y-16.7739 Z-1.4254
(Line Move)
X73.705 Y-17.3613 Z-1.4254
(Line Move)
X75.0779 Y-17.9923 Z-1.4254
(Line Move)
X76.1969 Y-18.55 Z-1.4254
(Line Move)
X77.1082 Y-19.0363 Z-1.4254
(Line Move)
X78.2555 Y-19.687 Z-1.4254
(Line Move)
X79.1926 Y-20.254 Z-1.4254
(Line Move)
X80.2789 Y-20.9576 Z-1.4254
(Line Move)
X81.3301 Y-21.691 Z-1.4254
(Line Move)
X82.3456 Y-22.4542 Z-1.4254
(Line Move)
X83.3245 Y-23.2476 Z-1.4254
(Line Move)
X84.266 Y-24.0716 Z-1.4254
(Line Move)
X84.6506 Y-24.4273 Z-1.4254
(Line Move)
X85.4278 Y-25.1813 Z-1.4254
(Line Move)
X86.1683 Y-25.9532 Z-1.4254
(Line Move)
X86.7718 Y-26.6235 Z-1.4254
(Line Move)
X87.4456 Y-27.4264 Z-1.4254
(Line Move)
X88.0812 Y-28.247 Z-1.4254
(Line Move)
X88.6782 Y-29.0855 Z-1.4254
(Line Move)
X89.124 Y-29.7625 Z-1.4254
(Line Move)
X89.5818 Y-30.5089 Z-1.4254
(Line Move)
X89.9531 Y-31.1693 Z-1.4254
(Line Move)
X90.3663 Y-31.9708 Z-1.4254
(Line Move)
X90.696 Y-32.6707 Z-1.4254
(Line Move)
X91.0422 Y-33.4877 Z-1.4254
(Line Move)
X91.2926 Y-34.1512 Z-1.4254
(Line Move)
X91.5728 Y-34.9832 Z-1.4254
(Line Move)
X91.8139 Y-35.8241 Z-1.4254
(Line Move)
X91.9865 Y-36.5363 Z-1.4254
(Line Move)
X92.1183 Y-37.1992 Z-1.4254
(Line Move)
X92.2362 Y-37.9245 Z-1.4254
(Line Move)
X92.3197 Y-38.5995 Z-1.4254
(Line Move)
X92.3908 Y-39.4364 Z-1.4254
(Line Move)
X92.4217 Y-40.2708 Z-1.4254
(Line Move)
X92.4119 Y-41.1239 Z-1.4254
(Line Move)
X92.3752 Y-41.8219 Z-1.4254
(Line Move)
X92.3139 Y-42.4809 Z-1.4254
(Line Move)
X92.1986 Y-43.3378 Z-1.4254
(Line Move)
X92.0663 Y-44.0763 Z-1.4254
(Line Move)
X91.8763 Y-44.9289 Z-1.4254
(Line Move)
X91.6439 Y-45.78 Z-1.4254
(Line Move)
X91.4262 Y-46.4657 Z-1.4254
(Line Move)
X91.1508 Y-47.2338 Z-1.4254
(Line Move)
X90.7757 Y-48.1486 Z-1.4254
(Line Move)
X90.4204 Y-48.9218 Z-1.4254
(Line Move)
X89.9607 Y-49.8193 Z-1.4254
(Line Move)
X89.4529 Y-50.7079 Z-1.4254
(Line Move)
X88.8969 Y-51.5878 Z-1.4254
(Line Move)
X88.4219 Y-52.2797 Z-1.4254
(Line Move)
X87.7812 Y-53.1447 Z-1.4254
(Line Move)
X87.4383 Y-53.5806 Z-1.4254
(Line Move)
X86.6549 Y-54.5122 Z-1.4254
(Line Move)
X85.8213 Y-55.4198 Z-1.4254
(Line Move)
X84.9368 Y-56.3045 Z-1.4254
(Line Move)
X84.0018 Y-57.1662 Z-1.4254
(Line Move)
X83.0164 Y-58.0043 Z-1.4254
(Line Move)
X82.2149 Y-58.641 Z-1.4254
(Line Move)
X81.3267 Y-59.3095 Z-1.4254
(Line Move)
X80.2161 Y-60.0854 Z-1.4254
(Line Move)
X79.1813 Y-60.7565 Z-1.4254
(Line Move)
X77.8846 Y-61.5339 Z-1.4254
(Line Move)
X76.5464 Y-62.2695 Z-1.4254
(Line Move)
X75.1678 Y-62.963 Z-1.4254
(Line Move)
X73.7502 Y-63.6142 Z-1.4254
(Line Move)
X72.8892 Y-63.9831 Z-1.4254
(Line Move)
X71.4155 Y-64.5697 Z-1.4254
(Line Move)
X69.9061 Y-65.1123 Z-1.4254
(Line Move)
X68.3622 Y-65.6102 Z-1.4254
(Line Move)
X66.7851 Y-66.0624 Z-1.4254
(Line Move)
X65.6855 Y-66.3455 Z-1.4254
(Line Move)
X63.9996 Y-66.7304 Z-1.4254
(Line Move)
X62.3006 Y-67.0601 Z-1.4254
(Line Move)
X60.9966 Y-67.2751 Z-1.4254
(Line Move)
X59.2794 Y-67.5109 Z-1.4254
(Line Move)
X57.8593 Y-67.6669 Z-1.4254
(Line Move)
X56.1291 Y-67.8063 Z-1.4254
(Line Move)
X54.3953 Y-67.8918 Z-1.4254
(Line Move)
X52.6598 Y-67.9234 Z-1.4254
(Line Move)
X50.9235 Y-67.9012 Z-1.4254
(Line Move)
X49.1872 Y-67.8251 Z-1.4254
(Line Move)
X48.1838 Y-67.7574 Z-1.4254
(Line Move)
X46.9334 Y-67.6464 Z-1.4254
(Line Move)
X45.3217 Y-67.4626 Z-1.4254
(Line Move)
X43.7294 Y-67.2334 Z-1.4254
(Line Move)
X42.4262 Y-67.0106 Z-1.4254
(Line Move)
X40.8698 Y-66.7019 Z-1.4254
(Line Move)
X39.3346 Y-66.3493 Z-1.4254
(Line Move)
X37.821 Y-65.9529 Z-1.4254
(Line Move)
X36.33 Y-65.5132 Z-1.4254
(Line Move)
X35.2003 Y-65.1463 Z-1.4254
(Line Move)
X33.7496 Y-64.6317 Z-1.4254
(Line Move)
X32.3235 Y-64.0733 Z-1.4254
(Line Move)
X30.9228 Y-63.4707 Z-1.4254
(Line Move)
X29.6936 Y-62.8947 Z-1.4254
(Line Move)
X28.6823 Y-62.3863 Z-1.4254
(Line Move)
X27.503 Y-61.7504 Z-1.4254
(Line Move)
X26.3573 Y-61.0838 Z-1.4254
(Line Move)
X25.4909 Y-60.5457 Z-1.4254
(Line Move)
X24.4045 Y-59.8263 Z-1.4254
(Line Move)
X23.3535 Y-59.076 Z-1.4254
(Line Move)
X22.3385 Y-58.2946 Z-1.4254
(Line Move)
X21.3674 Y-57.4878 Z-1.4254
(Line Move)
X20.5198 Y-56.7297 Z-1.4254
(Line Move)
X19.8473 Y-56.0893 Z-1.4254
(Line Move)
X19.2461 Y-55.4841 Z-1.4254
(Line Move)
X18.6718 Y-54.8757 Z-1.4254
(Line Move)
X17.97 Y-54.0785 Z-1.4254
(Line Move)
X17.3062 Y-53.263 Z-1.4254
(Line Move)
X16.6808 Y-52.4291 Z-1.4254
(Line Move)
X16.0947 Y-51.5763 Z-1.4254
(Line Move)
X15.6892 Y-50.9362 Z-1.4254
(Line Move)
X15.245 Y-50.183 Z-1.4254
(Line Move)
X14.8677 Y-49.4937 Z-1.4254
(Line Move)
X14.4662 Y-48.6868 Z-1.4254
(Line Move)
X14.1024 Y-47.8707 Z-1.4254
(Line Move)
X13.7767 Y-47.0454 Z-1.4254
(Line Move)
X13.4896 Y-46.211 Z-1.4254
(Line Move)
X13.2853 Y-45.5337 Z-1.4254
(Line Move)
X13.0924 Y-44.7983 Z-1.4254
(Line Move)
X12.961 Y-44.2116 Z-1.4254
(Line Move)
X12.8056 Y-43.3704 Z-1.4254
(Line Move)
X12.6912 Y-42.5293 Z-1.4254
(Line Move)
X12.6296 Y-41.8511 Z-1.4254
(Line Move)
X12.5851 Y-41.0129 Z-1.4254
(Line Move)
X12.5809 Y-40.1756 Z-1.4254
(Line Move)
X12.6168 Y-39.3383 Z-1.4254
(Line Move)
X12.6772 Y-38.6091 Z-1.4254
(Line Move)
X12.785 Y-37.7704 Z-1.4254
(Line Move)
X12.8721 Y-37.2506 Z-1.4254
(Line Move)
X13.0512 Y-36.3734 Z-1.4254
(Line Move)
X13.2738 Y-35.5016 Z-1.4254
(Line Move)
X13.5401 Y-34.6342 Z-1.4254
(Line Move)
X13.8043 Y-33.8892 Z-1.4254
(Line Move)
X14.1491 Y-33.028 Z-1.4254
(Line Move)
X14.4554 Y-32.3415 Z-1.4254
(Line Move)
X14.7516 Y-31.7323 Z-1.4254
(Line Move)
X15.248 Y-30.8052 Z-1.4254
(Line Move)
X15.7936 Y-29.8919 Z-1.4254
(Line Move)
X16.3886 Y-28.9911 Z-1.4254
(Line Move)
X16.9293 Y-28.2377 Z-1.4254
(Line Move)
X17.4652 Y-27.5434 Z-1.4254
(Line Move)
X18.1851 Y-26.6739 Z-1.4254
(Line Move)
X18.9558 Y-25.8174 Z-1.4254
(Line Move)
X19.6222 Y-25.1296 Z-1.4254
(Line Move)
X20.5665 Y-24.2247 Z-1.4254
(Line Move)
X21.5605 Y-23.3487 Z-1.4254
(Line Move)
X22.425 Y-22.6374 Z-1.4254
(Line Move)
X23.5067 Y-21.8127 Z-1.4254
(Line Move)
X24.3798 Y-21.1933 Z-1.4254
(Line Move)
X25.5446 Y-20.4197 Z-1.4254
(Line Move)
X26.757 Y-19.677 Z-1.4254
(Line Move)
X28.0165 Y-18.9662 Z-1.4254
(Line Move)
X28.9626 Y-18.4697 Z-1.4254
(Line Move)
X30.1422 Y-17.8884 Z-1.4254
(Line Move)
X31.6026 Y-17.2288 Z-1.4254
(Line Move)
X33.0969 Y-16.6166 Z-1.4254
(Line Move)
X34.6234 Y-16.052 Z-1.4254
(Line Move)
X35.8156 Y-15.6517 Z-1.4254
(Line Move)
X37.3939 Y-15.1695 Z-1.4254
(Line Move)
X39.0003 Y-14.736 Z-1.4254
(Line Move)
X40.3423 Y-14.4145 Z-1.4254
(Line Move)
X41.9947 Y-14.0687 Z-1.4254
(Line Move)
X43.6708 Y-13.7732 Z-1.4254
(Line Move)
X44.7784 Y-13.6077 Z-1.4254
(Line Move)
X46.5125 Y-13.3948 Z-1.4254
(Line Move)
X48.2469 Y-13.2374 Z-1.4254
(Line Move)
X49.9807 Y-13.1347 Z-1.4254
(Line Move)
X51.3051 Y-13.0931 Z-1.4254
(Line Move)
X53.0354 Y-13.083 Z-1.4254
(Line Move)
X54.4562 Y-13.1119 Z-1.4254
(Line Move)
X56.1802 Y-13.1967 Z-1.4254
(Line Move)
X57.1757 Y-13.2766 Z-1.4254
(Line Move)
X57.2216 Y-12.704 Z-1.679
(Line Move)
X57.9676 Y-12.7638 Z-1.679
(Line Move)
X59.695 Y-12.9569 Z-1.679
(Line Move)
X60.9728 Y-13.1352 Z-1.679
(Line Move)
X62.5636 Y-13.4004 Z-1.679
(Line Move)
X64.1327 Y-13.7102 Z-1.679
(Line Move)
X65.6798 Y-14.0641 Z-1.679
(Line Move)
X66.6068 Y-14.3003 Z-1.679
(Line Move)
X68.1195 Y-14.7196 Z-1.679
(Line Move)
X69.6085 Y-15.1822 Z-1.679
(Line Move)
X71.0731 Y-15.6881 Z-1.679
(Line Move)
X72.5125 Y-16.2374 Z-1.679
(Line Move)
X73.926 Y-16.8305 Z-1.679
(Line Move)
X75.3126 Y-17.4678 Z-1.679
(Line Move)
X76.4431 Y-18.0312 Z-1.679
(Line Move)
X77.1865 Y-18.4252 Z-1.679
(Line Move)
X78.3538 Y-19.0763 Z-1.679
(Line Move)
X79.4872 Y-19.7578 Z-1.679
(Line Move)
X80.5861 Y-20.4697 Z-1.679
(Line Move)
X81.65 Y-21.2119 Z-1.679
(Line Move)
X82.6782 Y-21.9847 Z-1.679
(Line Move)
X83.67 Y-22.7885 Z-1.679
(Line Move)
X84.9057 Y-23.8802 Z-1.679
(Line Move)
X85.702 Y-24.6409 Z-1.679
(Line Move)
X86.4619 Y-25.4204 Z-1.679
(Line Move)
X87.1845 Y-26.2181 Z-1.679
(Line Move)
X87.8692 Y-27.0342 Z-1.679
(Line Move)
X88.5156 Y-27.8687 Z-1.679
(Line Move)
X89.1231 Y-28.7221 Z-1.679
(Line Move)
X89.5061 Y-29.2945 Z-1.679
(Line Move)
X90.0537 Y-30.1769 Z-1.679
(Line Move)
X90.3773 Y-30.7426 Z-1.679
(Line Move)
X90.8072 Y-31.5584 Z-1.679
(Line Move)
X91.1992 Y-32.3835 Z-1.679
(Line Move)
X91.5529 Y-33.2182 Z-1.679
(Line Move)
X91.7739 Y-33.796 Z-1.679
(Line Move)
X92.0692 Y-34.645 Z-1.679
(Line Move)
X92.3248 Y-35.5035 Z-1.679
(Line Move)
X92.5398 Y-36.3714 Z-1.679
(Line Move)
X92.6524 Y-36.9146 Z-1.679
(Line Move)
X92.7956 Y-37.7683 Z-1.679
(Line Move)
X92.8718 Y-38.3625 Z-1.679
(Line Move)
X92.9537 Y-39.2201 Z-1.679
(Line Move)
X92.9945 Y-40.0796 Z-1.679
(Line Move)
X92.9939 Y-40.9444 Z-1.679
(Line Move)
X92.9751 Y-41.4448 Z-1.679
(Line Move)
X92.9096 Y-42.3277 Z-1.679
(Line Move)
X92.8009 Y-43.2068 Z-1.679
(Line Move)
X92.6493 Y-44.0826 Z-1.679
(Line Move)
X92.524 Y-44.6836 Z-1.679
(Line Move)
X92.3078 Y-45.5557 Z-1.679
(Line Move)
X92.0482 Y-46.4262 Z-1.679
(Line Move)
X91.7815 Y-47.1958 Z-1.679
(Line Move)
X91.4089 Y-48.1333 Z-1.679
(Line Move)
X90.9881 Y-49.0593 Z-1.679
(Line Move)
X90.6884 Y-49.67 Z-1.679
(Line Move)
X90.195 Y-50.5809 Z-1.679
(Line Move)
X89.653 Y-51.482 Z-1.679
(Line Move)
X89.0619 Y-52.3737 Z-1.679
(Line Move)
X88.4211 Y-53.2559 Z-1.679
(Line Move)
X87.4728 Y-54.441 Z-1.679
(Line Move)
X86.6519 Y-55.3746 Z-1.679
(Line Move)
X85.7798 Y-56.2843 Z-1.679
(Line Move)
X84.8569 Y-57.1702 Z-1.679
(Line Move)
X83.8835 Y-58.0319 Z-1.679
(Line Move)
X82.8596 Y-58.8689 Z-1.679
(Line Move)
X82.196 Y-59.3799 Z-1.679
(Line Move)
X81.097 Y-60.1785 Z-1.679
(Line Move)
X80.122 Y-60.8373 Z-1.679
(Line Move)
X78.8316 Y-61.645 Z-1.679
(Line Move)
X77.4995 Y-62.4098 Z-1.679
(Line Move)
X76.1266 Y-63.132 Z-1.679
(Line Move)
X74.7142 Y-63.8112 Z-1.679
(Line Move)
X73.8403 Y-64.2024 Z-1.679
(Line Move)
X72.371 Y-64.8165 Z-1.679
(Line Move)
X70.8653 Y-65.3865 Z-1.679
(Line Move)
X69.3245 Y-65.9116 Z-1.679
(Line Move)
X67.7499 Y-66.391 Z-1.679
(Line Move)
X66.6864 Y-66.6836 Z-1.679
(Line Move)
X64.9929 Y-67.0999 Z-1.679
(Line Move)
X63.286 Y-67.4601 Z-1.679
(Line Move)
X62.263 Y-67.649 Z-1.679
(Line Move)
X60.5387 Y-67.9263 Z-1.679
(Line Move)
X58.8052 Y-68.1487 Z-1.679
(Line Move)
X57.0642 Y-68.3165 Z-1.679
(Line Move)
X55.3179 Y-68.4299 Z-1.679
(Line Move)
X53.5694 Y-68.4889 Z-1.679
(Line Move)
X51.8196 Y-68.4937 Z-1.679
(Line Move)
X50.0694 Y-68.4441 Z-1.679
(Line Move)
X48.0111 Y-68.319 Z-1.679
(Line Move)
X46.3729 Y-68.1674 Z-1.679
(Line Move)
X44.7536 Y-67.9693 Z-1.679
(Line Move)
X43.1538 Y-67.7254 Z-1.679
(Line Move)
X41.5742 Y-67.4364 Z-1.679
(Line Move)
X40.0153 Y-67.1029 Z-1.679
(Line Move)
X38.4778 Y-66.7251 Z-1.679
(Line Move)
X36.9622 Y-66.3034 Z-1.679
(Line Move)
X36.0529 Y-66.0267 Z-1.679
(Line Move)
X34.5717 Y-65.5391 Z-1.679
(Line Move)
X33.1143 Y-65.0074 Z-1.679
(Line Move)
X31.6816 Y-64.4312 Z-1.679
(Line Move)
X30.2745 Y-63.8101 Z-1.679
(Line Move)
X29.0798 Y-63.2365 Z-1.679
(Line Move)
X27.8712 Y-62.6097 Z-1.679
(Line Move)
X26.6961 Y-61.9513 Z-1.679
(Line Move)
X25.9774 Y-61.5246 Z-1.679
(Line Move)
X24.8532 Y-60.8193 Z-1.679
(Line Move)
X23.7639 Y-60.0826 Z-1.679
(Line Move)
X22.7099 Y-59.3143 Z-1.679
(Line Move)
X21.6922 Y-58.514 Z-1.679
(Line Move)
X20.7276 Y-57.6951 Z-1.679
(Line Move)
X19.9029 Y-56.9419 Z-1.679
(Line Move)
X19.3849 Y-56.4408 Z-1.679
(Line Move)
X18.6158 Y-55.6594 Z-1.679
(Line Move)
X17.884 Y-54.859 Z-1.679
(Line Move)
X17.19 Y-54.0396 Z-1.679
(Line Move)
X16.5345 Y-53.201 Z-1.679
(Line Move)
X15.9179 Y-52.3428 Z-1.679
(Line Move)
X15.3413 Y-51.4645 Z-1.679
(Line Move)
X15.0485 Y-50.9897 Z-1.679
(Line Move)
X14.5822 Y-50.1812 Z-1.679
(Line Move)
X14.1535 Y-49.3625 Z-1.679
(Line Move)
X13.7628 Y-48.534 Z-1.679
(Line Move)
X13.4105 Y-47.6956 Z-1.679
(Line Move)
X13.0972 Y-46.8471 Z-1.679
(Line Move)
X12.9031 Y-46.26 Z-1.679
(Line Move)
X12.6496 Y-45.3966 Z-1.679
(Line Move)
X12.4974 Y-44.7905 Z-1.679
(Line Move)
X12.3175 Y-43.9308 Z-1.679
(Line Move)
X12.1793 Y-43.0684 Z-1.679
(Line Move)
X12.083 Y-42.2073 Z-1.679
(Line Move)
X12.0373 Y-41.6103 Z-1.679
(Line Move)
X12.0033 Y-40.7512 Z-1.679
(Line Move)
X12.0105 Y-39.8927 Z-1.679
(Line Move)
X12.0588 Y-39.0342 Z-1.679
(Line Move)
X12.1484 Y-38.1751 Z-1.679
(Line Move)
X12.3582 Y-36.8696 Z-1.679
(Line Move)
X12.5541 Y-35.973 Z-1.679
(Line Move)
X12.7945 Y-35.0819 Z-1.679
(Line Move)
X13.0795 Y-34.1957 Z-1.679
(Line Move)
X13.4092 Y-33.3138 Z-1.679
(Line Move)
X13.6561 Y-32.7198 Z-1.679
(Line Move)
X14.0541 Y-31.8433 Z-1.679
(Line Move)
X14.3772 Y-31.1995 Z-1.679
(Line Move)
X14.8972 Y-30.2586 Z-1.679
(Line Move)
X15.4672 Y-29.3315 Z-1.679
(Line Move)
X16.0871 Y-28.4179 Z-1.679
(Line Move)
X16.5155 Y-27.8315 Z-1.679
(Line Move)
X17.2108 Y-26.9379 Z-1.679
(Line Move)
X17.9567 Y-26.058 Z-1.679
(Line Move)
X18.7538 Y-25.192 Z-1.679
(Line Move)
X19.4652 Y-24.4742 Z-1.679
(Line Move)
X20.4368 Y-23.5649 Z-1.679
(Line Move)
X21.4584 Y-22.6851 Z-1.679
(Line Move)
X22.1164 Y-22.149 Z-1.679
(Line Move)
X23.2118 Y-21.3137 Z-1.679
(Line Move)
X24.3557 Y-20.5088 Z-1.679
(Line Move)
X25.5476 Y-19.7348 Z-1.679
(Line Move)
X26.7869 Y-18.9927 Z-1.679
(Line Move)
X28.0732 Y-18.2834 Z-1.679
(Line Move)
X29.0668 Y-17.7743 Z-1.679
(Line Move)
X29.9415 Y-17.3494 Z-1.679
(Line Move)
X31.4164 Y-16.6832 Z-1.679
(Line Move)
X32.9251 Y-16.0652 Z-1.679
(Line Move)
X34.4658 Y-15.4952 Z-1.679
(Line Move)
X36.0372 Y-14.9737 Z-1.679
(Line Move)
X37.6376 Y-14.5009 Z-1.679
(Line Move)
X39.2655 Y-14.0774 Z-1.679
(Line Move)
X40.2528 Y-13.8479 Z-1.679
(Line Move)
X41.9191 Y-13.4993 Z-1.679
(Line Move)
X43.6091 Y-13.2014 Z-1.679
(Line Move)
X44.7257 Y-13.0345 Z-1.679
(Line Move)
X46.4738 Y-12.8199 Z-1.679
(Line Move)
X48.2222 Y-12.6612 Z-1.679
(Line Move)
X49.9698 Y-12.5577 Z-1.679
